P3
225 225
255
1 253 254 1 253 254 1 253 254 1 253 254 1 253 254 1 253 254 1 253 254 1 253 254 1 253 254 0 254 253 2 255 255 13 246 255 21 227 251 31 218 251 37 219 255 33 219 255 33 221 255 34 221 255 34 221 255 36 220 255 36 220 255 37 219 255 37 219 255 39 219 255 63 191 255 63 191 255 65 190 255 65 190 255 66 189 255 66 189 255 67 189 255 67 189 255 64 189 253 60 190 252 66 191 255 77 183 255 86 163 251 97 155 252 103 157 255 99 157 255 99 159 255 99 159 255 100 158 255 100 158 255 102 157 255 103 157 255 103 157 255 103 157 255 127 124 253 127 124 253 127 124 253 127 124 253 127 124 253 127 124 253 127 124 253 127 124 253 131 124 253 127 125 252 132 127 255 142 119 255 149 100 251 160 93 251 165 95 255 161 95 255 162 94 255 162 94 255 162 94 255 162 94 255 162 94 255 162 94 255 162 94 255 162 94 255 194 60 253 194 60 253 194 60 253 194 60 253 194 60 253 194 60 253 194 60 253 194 60 253 195 59 253 190 60 254 194 62 255 205 53 255 213 35 251 224 28 252 229 30 255 223 30 255 224 32 255 226 31 255 226 31 255 227 30 255 227 30 255 229 30 255 229 30 255 230 29 255 253 0 253 254 0 254 254 0 254 254 0 254 255 1 255 255 1 255 255 1 255 255 2 255 254 2 255 255 0 255 255 0 253 250 2 246 255 32 255 251 35 255 255 36 255 255 31 252 255 33 254 255 33 254 255 33 254 255 33 254 255 33 254 255 33 254 255 33 254 255 33 254 255 66 255 255 66 255 255 66 255 255 66 255 255 66 255 255 66 255 255 66 255 255 66 255 251 66 255 255 63 255 255 66 254 251 68 248 255 94 255 247 95 255 253 99 255 255 96 252 255 98 253 255 98 253 255 98 253 255 98 253 255 98 253 255 98 253 255 98 253 255 98 253 255 130 255 255 130 255 255 130 255 255 130 255 255 130 255 255 130 255 255 130 255 255 130 255 251 130 255 255 129 255 255 132 255 250 133 248 255 160 255 246 161 254 253 164 254 255 162 252 255 161 255 255 161 255 255 161 255 255 161 255 255 161 255 255 161 255 255 161 255 255 161 255 255 194 254 255 194 254 255 194 254 255 194 254 255 194 254 255 194 254 255 194 254 255 194 254 252 196 255 255 190 254 255 191 252 249 195 245 255 224 255 251 228 255 254 230 255 255 223 250 252 227 255 255 222 255 255 224 255 248 230 255 252 227 255 255 221 255 252 227 255 225 241 255 11 235 247 8 247 254 3 255 255 0 254 255 3 248 253 7 248 255 4 251 255 0 253 255 4 252 254 0 252 253 6 253 255 17 244 255 25 225 251 36 216 251 40 218 255 36 218 255 37 219 255 37 219 255 37 219 255 37 219 255 37 219 255 37 219 255 37 219 255 37 219 255 64 187 254 65 187 254 65 187 254 67 186 254 67 186 254 68 185 254 68 185 254 70 184 254 69 188 255 1 253 254 1 253 254 1 253 254 1 253 254 1 253 254 1 253 254 1 253 254 1 253 254 1 253 254 0 254 253 2 255 255 13 246 255 21 227 251 31 218 251 37 219 255 33 219 255 33 221 255 34 221 255 34 221 255 36 220 255 36 220 255 37 219 255 37 219 255 39 219 255 63 191 255 63 191 255 65 190 255 65 190 255 66 189 255 66 189 255 67 189 255 
67 189 255 64 189 253 60 190 252 66 191 255 77 183 255 86 163 251 97 155 252 103 157 255 99 157 255 99 159 255 99 159 255 100 158 255 100 158 255 102 157 255 103 157 255 103 157 255 103 157 255 127 124 253 127 124 253 127 124 253 127 124 253 127 124 253 127 124 253 127 124 253 127 124 253 131 124 253 127 125 252 132 127 255 142 119 255 149 100 251 160 93 251 165 95 255 161 95 255 162 94 255 162 94 255 162 94 255 162 94 255 162 94 255 162 94 255 162 94 255 162 94 255 194 60 253 194 60 253 194 60 253 194 60 253 194 60 253 194 60 253 194 60 253 194 60 253 195 59 253 190 60 254 194 62 255 205 53 255 213 35 251 224 28 252 229 30 255 223 30 255 224 32 255 226 31 255 226 31 255 227 30 255 227 30 255 229 30 255 229 30 255 230 29 255 253 0 253 254 0 254 254 0 254 254 0 254 255 1 255 255 1 255 255 1 255 255 2 255 254 2 255 255 0 255 255 0 253 250 2 246 255 32 255 251 35 255 255 36 255 255 31 252 255 33 254 255 33 254 255 33 254 255 33 254 255 33 254 255 33 254 255 33 254 255 33 254 255 66 255 255 66 255 255 66 255 255 66 255 255 66 255 255 66 255 255 66 255 255 66 255 251 66 255 255 63 255 255 66 254 251 68 248 255 94 255 247 95 255 253 99 255 255 96 252 255 98 253 255 98 253 255 98 253 255 98 253 255 98 253 255 98 253 255 98 253 255 98 253 255 130 255 255 130 255 255 130 255 255 130 255 255 130 255 255 130 255 255 130 255 255 130 255 251 130 255 255 129 255 255 132 255 250 133 248 255 160 255 246 161 254 253 164 254 255 162 252 255 161 255 255 161 255 255 161 255 255 161 255 255 161 255 255 161 255 255 161 255 255 161 255 255 194 254 255 194 254 255 194 254 255 194 254 255 194 254 255 194 254 255 194 254 255 194 254 252 196 255 255 190 254 255 191 252 249 195 245 255 224 255 251 228 255 254 230 255 255 223 250 252 227 255 255 222 255 255 224 255 248 230 255 252 227 255 255 221 255 252 227 255 225 241 255 11 235 247 8 247 254 3 255 255 0 254 255 3 248 253 7 248 255 4 251 255 0 253 255 4 252 254 0 252 253 6 253 255 17 244 255 25 225 251 36 216 251 40 218 255 36 218 255 37 219 255 37 219 255 37 219 255 37 219 255 37 219 255 37 219 255 37 219 255 37 219 255 64 187 254 65 187 254 65 187 254 67 186 254 67 186 254 68 185 254 68 185 254 70 184 254 69 188 255 1 253 254 1 253 254 1 253 254 1 253 254 1 253 254 1 253 254 1 253 254 1 253 254 1 253 254 0 254 253 2 255 255 13 246 255 21 227 251 31 218 251 37 219 255 33 219 255 33 221 255 34 221 255 34 221 255 36 220 255 36 220 255 37 219 255 37 219 255 39 219 255 63 191 255 63 191 255 65 190 255 65 190 255 66 189 255 66 189 255 67 189 255 67 189 255 64 189 253 60 190 252 66 191 255 77 183 255 86 163 251 97 155 252 103 157 255 99 157 255 99 159 255 99 159 255 100 158 255 100 158 255 102 157 255 103 157 255 103 157 255 103 157 255 127 124 253 127 124 253 127 124 253 127 124 253 127 124 253 127 124 253 127 124 253 127 124 253 131 124 253 127 125 252 132 127 255 142 119 255 149 100 251 160 93 251 
165 95 255 161 95 255 162 94 255 162 94 255 162 94 255 162 94 255 162 94 255 162 94 255 162 94 255 162 94 255 194 60 253 194 60 253 194 60 253 194 60 253 194 60 253 194 60 253 194 60 253 194 60 253 195 59 253 190 60 254 194 62 255 205 53 255 213 35 251 224 28 252 229 30 255 223 30 255 224 32 255 226 31 255 226 31 255 227 30 255 227 30 255 229 30 255 229 30 255 230 29 255 253 0 253 254 0 254 254 0 254 254 0 254 255 1 255 255 1 255 255 1 255 255 2 255 254 2 255 255 0 255 255 0 253 250 2 246 255 32 255 251 35 255 255 36 255 255 31 252 255 33 254 255 33 254 255 33 254 255 33 254 255 33 254 255 33 254 255 33 254 255 33 254 255 66 255 255 66 255 255 66 255 255 66 255 255 66 255 255 66 255 255 66 255 255 66 255 251 66 255 255 63 255 255 66 254 251 68 248 255 94 255 247 95 255 253 99 255 255 96 252 255 98 253 255 98 253 255 98 253 255 98 253 255 98 253 255 98 253 255 98 253 255 98 253 255 130 255 255 130 255 255 130 255 255 130 255 255 130 255 255 130 255 255 130 255 255 130 255 251 130 255 255 129 255 255 132 255 250 133 248 255 160 255 246 161 254 253 164 254 255 162 252 255 161 255 255 161 255 255 161 255 255 161 255 255 161 255 255 161 255 255 161 255 255 161 255 255 194 254 255 194 254 255 194 254 255 194 254 255 194 254 255 194 254 255 194 254 255 194 254 252 196 255 255 190 254 255 191 252 249 195 245 255 224 255 251 228 255 254 230 255 255 223 250 252 227 255 255 222 255 255 224 255 248 230 255 252 227 255 255 221 255 252 227 255 225 241 255 11 235 247 8 247 254 3 255 255 0 254 255 3 248 253 7 248 255 4 251 255 0 253 255 4 252 254 0 252 253 6 253 255 17 244 255 25 225 251 36 216 251 40 218 255 36 218 255 37 219 255 37 219 255 37 219 255 37 219 255 37 219 255 37 219 255 37 219 255 37 219 255 64 187 254 65 187 254 65 187 254 67 186 254 67 186 254 68 185 254 68 185 254 70 184 254 69 188 255 1 253 254 1 253 254 1 253 254 1 253 254 1 253 254 1 253 254 1 253 254 1 253 254 1 253 254 0 254 253 2 255 255 13 246 255 21 227 251 31 218 251 37 219 255 33 219 255 33 221 255 34 221 255 34 221 255 36 220 255 36 220 255 37 219 255 37 219 255 39 219 255 63 191 255 63 191 255 65 190 255 65 190 255 66 189 255 66 189 255 67 189 255 67 189 255 64 189 253 60 190 252 66 191 255 77 183 255 86 163 251 97 155 252 103 157 255 99 157 255 99 159 255 99 159 255 100 158 255 100 158 255 102 157 255 103 157 255 103 157 255 103 157 255 127 124 253 127 124 253 127 124 253 127 124 253 127 124 253 127 124 253 127 124 253 127 124 253 131 124 253 127 125 252 132 127 255 142 119 255 149 100 251 160 93 251 165 95 255 161 95 255 162 94 255 162 94 255 162 94 255 162 94 255 162 94 255 162 94 255 162 94 255 162 94 255 194 60 253 194 60 253 194 60 253 194 60 253 194 60 253 194 60 253 194 60 253 194 60 253 195 59 253 190 60 254 194 62 255 205 53 255 213 35 251 224 28 252 229 30 255 223 30 255 224 32 255 226 31 255 226 31 255 227 30 255 227 30 255 
229 30 255 229 30 255 230 29 255 253 0 253 254 0 254 254 0 254 254 0 254 255 1 255 255 1 255 255 1 255 255 2 255 254 2 255 255 0 255 255 0 253 250 2 246 255 32 255 251 35 255 255 36 255 255 31 252 255 33 254 255 33 254 255 33 254 255 33 254 255 33 254 255 33 254 255 33 254 255 33 254 255 66 255 255 66 255 255 66 255 255 66 255 255 66 255 255 66 255 255 66 255 255 66 255 251 66 255 255 63 255 255 66 254 251 68 248 255 94 255 247 95 255 253 99 255 255 96 252 255 98 253 255 98 253 255 98 253 255 98 253 255 98 253 255 98 253 255 98 253 255 98 253 255 130 255 255 130 255 255 130 255 255 130 255 255 130 255 255 130 255 255 130 255 255 130 255 251 130 255 255 129 255 255 132 255 250 133 248 255 160 255 246 161 254 253 164 254 255 162 252 255 161 255 255 161 255 255 161 255 255 161 255 255 161 255 255 161 255 255 161 255 255 161 255 255 194 254 255 194 254 255 194 254 255 194 254 255 194 254 255 194 254 255 194 254 255 194 254 252 196 255 255 190 254 255 191 252 249 195 245 255 224 255 251 228 255 254 230 255 255 223 250 252 227 255 255 222 255 255 224 255 248 230 255 252 227 255 255 221 255 252 227 255 225 241 255 11 235 247 8 247 254 3 255 255 0 254 255 3 248 253 7 248 255 4 251 255 0 253 255 4 252 254 0 252 253 6 253 255 17 244 255 25 225 251 36 216 251 40 218 255 36 218 255 37 219 255 37 219 255 37 219 255 37 219 255 37 219 255 37 219 255 37 219 255 37 219 255 64 187 254 65 187 254 65 187 254 67 186 254 67 186 254 68 185 254 68 185 254 70 184 254 69 188 255 1 253 254 1 253 254 1 253 254 1 253 254 1 253 254 1 253 254 1 253 254 1 253 254 1 253 254 0 254 253 2 255 255 13 246 255 21 227 251 31 218 251 37 219 255 33 219 255 33 221 255 34 221 255 34 221 255 36 220 255 36 220 255 37 219 255 37 219 255 39 219 255 63 191 255 63 191 255 65 190 255 65 190 255 66 189 255 66 189 255 67 189 255 67 189 255 64 189 253 60 190 252 66 191 255 77 183 255 86 163 251 97 155 252 103 157 255 99 157 255 99 159 255 99 159 255 100 158 255 100 158 255 102 157 255 103 157 255 103 157 255 103 157 255 127 124 253 127 124 253 127 124 253 127 124 253 127 124 253 127 124 253 127 124 253 127 124 253 131 124 253 127 125 252 132 127 255 142 119 255 149 100 251 160 93 251 165 95 255 161 95 255 162 94 255 162 94 255 162 94 255 162 94 255 162 94 255 162 94 255 162 94 255 162 94 255 194 60 253 194 60 253 194 60 253 194 60 253 194 60 253 194 60 253 194 60 253 194 60 253 195 59 253 190 60 254 194 62 255 205 53 255 213 35 251 224 28 252 229 30 255 223 30 255 224 32 255 226 31 255 226 31 255 227 30 255 227 30 255 229 30 255 229 30 255 230 29 255 253 0 253 254 0 254 254 0 254 254 0 254 255 1 255 255 1 255 255 1 255 255 2 255 254 2 255 255 0 255 255 0 253 250 2 246 255 32 255 251 35 255 255 36 255 255 31 252 255 33 254 255 33 254 255 33 254 255 33 254 255 33 254 255 33 254 255 33 254 255 33 254 255 66 255 255 66 255 255 66 255 255 66 255 
255 66 255 255 66 255 255 66 255 255 66 255 251 66 255 255 63 255 255 66 254 251 68 248 255 94 255 247 95 255 253 99 255 255 96 252 255 98 253 255 98 253 255 98 253 255 98 253 255 98 253 255 98 253 255 98 253 255 98 253 255 130 255 255 130 255 255 130 255 255 130 255 255 130 255 255 130 255 255 130 255 255 130 255 251 130 255 255 129 255 255 132 255 250 133 248 255 160 255 246 161 254 253 164 254 255 162 252 255 161 255 255 161 255 255 161 255 255 161 255 255 161 255 255 161 255 255 161 255 255 161 255 255 194 254 255 194 254 255 194 254 255 194 254 255 194 254 255 194 254 255 194 254 255 194 254 252 196 255 255 190 254 255 191 252 249 195 245 255 224 255 251 228 255 254 230 255 255 223 250 252 227 255 255 222 255 255 224 255 248 230 255 252 227 255 255 221 255 252 227 255 225 241 255 11 235 247 8 247 254 3 255 255 0 254 255 3 248 253 7 248 255 4 251 255 0 253 255 4 252 254 0 252 253 6 253 255 17 244 255 25 225 251 36 216 251 40 218 255 36 218 255 37 219 255 37 219 255 37 219 255 37 219 255 37 219 255 37 219 255 37 219 255 37 219 255 64 187 254 65 187 254 65 187 254 67 186 254 67 186 254 68 185 254 68 185 254 70 184 254 69 188 255 1 253 254 1 253 254 1 253 254 1 253 254 1 253 254 1 253 254 1 253 254 1 253 254 1 253 254 0 254 253 2 255 255 13 246 255 21 227 251 31 218 251 37 219 255 33 219 255 33 221 255 34 221 255 34 221 255 36 220 255 36 220 255 37 219 255 37 219 255 39 219 255 63 191 255 63 191 255 65 190 255 65 190 255 66 189 255 66 189 255 67 189 255 67 189 255 64 189 253 60 190 252 66 191 255 77 183 255 86 163 251 97 155 252 103 157 255 99 157 255 99 159 255 99 159 255 100 158 255 100 158 255 102 157 255 103 157 255 103 157 255 103 157 255 127 124 253 127 124 253 127 124 253 127 124 253 127 124 253 127 124 253 127 124 253 127 124 253 131 124 253 127 125 252 132 127 255 142 119 255 149 100 251 160 93 251 165 95 255 161 95 255 162 94 255 162 94 255 162 94 255 162 94 255 162 94 255 162 94 255 162 94 255 162 94 255 194 60 253 194 60 253 194 60 253 194 60 253 194 60 253 194 60 253 194 60 253 194 60 253 195 59 253 190 60 254 194 62 255 205 53 255 213 35 251 224 28 252 229 30 255 223 30 255 224 32 255 226 31 255 226 31 255 227 30 255 227 30 255 229 30 255 229 30 255 230 29 255 253 0 253 254 0 254 254 0 254 254 0 254 255 1 255 255 1 255 255 1 255 255 2 255 254 2 255 255 0 255 255 0 253 250 2 246 255 32 255 251 35 255 255 36 255 255 31 252 255 33 254 255 33 254 255 33 254 255 33 254 255 33 254 255 33 254 255 33 254 255 33 254 255 66 255 255 66 255 255 66 255 255 66 255 255 66 255 255 66 255 255 66 255 255 66 255 251 66 255 255 63 255 255 66 254 251 68 248 255 94 255 247 95 255 253 99 255 255 96 252 255 98 253 255 98 253 255 98 253 255 98 253 255 98 253 255 98 253 255 98 253 255 98 253 255 130 255 255 130 255 255 130 255 255 130 255 255 130 255 255 130 255 255 130 255 255 130 255 251 130 255 255 129 255 255 132 255 
250 133 248 255 160 255 246 161 254 253 164 254 255 162 252 255 161 255 255 161 255 255 161 255 255 161 255 255 161 255 255 161 255 255 161 255 255 161 255 255 194 254 255 194 254 255 194 254 255 194 254 255 194 254 255 194 254 255 194 254 255 194 254 252 196 255 255 190 254 255 191 252 249 195 245 255 224 255 251 228 255 254 230 255 255 223 250 252 227 255 255 222 255 255 224 255 248 230 255 252 227 255 255 221 255 252 227 255 225 241 255 11 235 247 8 247 254 3 255 255 0 254 255 3 248 253 7 248 255 4 251 255 0 253 255 4 252 254 0 252 253 6 253 255 17 244 255 25 225 251 36 216 251 40 218 255 36 218 255 37 219 255 37 219 255 37 219 255 37 219 255 37 219 255 37 219 255 37 219 255 37 219 255 64 187 254 65 187 254 65 187 254 67 186 254 67 186 254 68 185 254 68 185 254 70 184 254 69 188 255 1 253 254 1 253 254 1 253 254 1 253 254 1 253 254 1 253 254 1 253 254 1 253 254 1 253 254 0 254 253 2 255 255 13 246 255 21 227 251 31 218 251 37 219 255 33 219 255 33 221 255 34 221 255 34 221 255 36 220 255 36 220 255 37 219 255 37 219 255 39 219 255 63 191 255 63 191 255 65 190 255 65 190 255 66 189 255 66 189 255 67 189 255 67 189 255 64 189 253 60 190 252 66 191 255 77 183 255 86 163 251 97 155 252 103 157 255 99 157 255 99 159 255 99 159 255 100 158 255 100 158 255 102 157 255 103 157 255 103 157 255 103 157 255 127 124 253 127 124 253 127 124 253 127 124 253 127 124 253 127 124 253 127 124 253 127 124 253 131 124 253 127 125 252 132 127 255 142 119 255 149 100 251 160 93 251 165 95 255 161 95 255 162 94 255 162 94 255 162 94 255 162 94 255 162 94 255 162 94 255 162 94 255 162 94 255 194 60 253 194 60 253 194 60 253 194 60 253 194 60 253 194 60 253 194 60 253 194 60 253 195 59 253 190 60 254 194 62 255 205 53 255 213 35 251 224 28 252 229 30 255 223 30 255 224 32 255 226 31 255 226 31 255 227 30 255 227 30 255 229 30 255 229 30 255 230 29 255 253 0 253 254 0 254 254 0 254 254 0 254 255 1 255 255 1 255 255 1 255 255 2 255 254 2 255 255 0 255 255 0 253 250 2 246 255 32 255 251 35 255 255 36 255 255 31 252 255 33 254 255 33 254 255 33 254 255 33 254 255 33 254 255 33 254 255 33 254 255 33 254 255 66 255 255 66 255 255 66 255 255 66 255 255 66 255 255 66 255 255 66 255 255 66 255 251 66 255 255 63 255 255 66 254 251 68 248 255 94 255 247 95 255 253 99 255 255 96 252 255 98 253 255 98 253 255 98 253 255 98 253 255 98 253 255 98 253 255 98 253 255 98 253 255 130 255 255 130 255 255 130 255 255 130 255 255 130 255 255 130 255 255 130 255 255 130 255 251 130 255 255 129 255 255 132 255 250 133 248 255 160 255 246 161 254 253 164 254 255 162 252 255 161 255 255 161 255 255 161 255 255 161 255 255 161 255 255 161 255 255 161 255 255 161 255 255 194 254 255 194 254 255 194 254 255 194 254 255 194 254 255 194 254 255 194 254 255 194 254 252 196 255 255 190 254 255 191 252 249 195 245 255 224 255 251 228 255 254 230 255 255 223 250 252 227 255 255 222 255 
255 224 255 248 230 255 252 227 255 255 221 255 252 227 255 225 241 255 11 235 247 8 247 254 3 255 255 0 254 255 3 248 253 7 248 255 4 251 255 0 253 255 4 252 254 0 252 253 6 253 255 17 244 255 25 225 251 36 216 251 40 218 255 36 218 255 37 219 255 37 219 255 37 219 255 37 219 255 37 219 255 37 219 255 37 219 255 37 219 255 64 187 254 65 187 254 65 187 254 67 186 254 67 186 254 68 185 254 68 185 254 70 184 254 69 188 255 1 253 254 1 253 254 1 253 254 1 253 254 1 253 254 1 253 254 1 253 254 1 253 254 1 253 254 0 254 253 2 255 255 13 246 255 21 227 251 31 218 251 37 219 255 33 219 255 33 221 255 34 221 255 34 221 255 36 220 255 36 220 255 37 219 255 37 219 255 39 219 255 63 191 255 63 191 255 65 190 255 65 190 255 66 189 255 66 189 255 67 189 255 67 189 255 64 189 253 60 190 252 66 191 255 77 183 255 86 163 251 97 155 252 103 157 255 99 157 255 99 159 255 99 159 255 100 158 255 100 158 255 102 157 255 103 157 255 103 157 255 103 157 255 127 124 253 127 124 253 127 124 253 127 124 253 127 124 253 127 124 253 127 124 253 127 124 253 131 124 253 127 125 252 132 127 255 142 119 255 149 100 251 160 93 251 165 95 255 161 95 255 162 94 255 162 94 255 162 94 255 162 94 255 162 94 255 162 94 255 162 94 255 162 94 255 194 60 253 194 60 253 194 60 253 194 60 253 194 60 253 194 60 253 194 60 253 194 60 253 195 59 253 190 60 254 194 62 255 205 53 255 213 35 251 224 28 252 229 30 255 223 30 255 224 32 255 226 31 255 226 31 255 227 30 255 227 30 255 229 30 255 229 30 255 230 29 255 253 0 253 254 0 254 254 0 254 254 0 254 255 1 255 255 1 255 255 1 255 255 2 255 254 2 255 255 0 255 255 0 253 250 2 246 255 32 255 251 35 255 255 36 255 255 31 252 255 33 254 255 33 254 255 33 254 255 33 254 255 33 254 255 33 254 255 33 254 255 33 254 255 66 255 255 66 255 255 66 255 255 66 255 255 66 255 255 66 255 255 66 255 255 66 255 251 66 255 255 63 255 255 66 254 251 68 248 255 94 255 247 95 255 253 99 255 255 96 252 255 98 253 255 98 253 255 98 253 255 98 253 255 98 253 255 98 253 255 98 253 255 98 253 255 130 255 255 130 255 255 130 255 255 130 255 255 130 255 255 130 255 255 130 255 255 130 255 251 130 255 255 129 255 255 132 255 250 133 248 255 160 255 246 161 254 253 164 254 255 162 252 255 161 255 255 161 255 255 161 255 255 161 255 255 161 255 255 161 255 255 161 255 255 161 255 255 194 254 255 194 254 255 194 254 255 194 254 255 194 254 255 194 254 255 194 254 255 194 254 252 196 255 255 190 254 255 191 252 249 195 245 255 224 255 251 228 255 254 230 255 255 223 250 252 227 255 255 222 255 255 224 255 248 230 255 252 227 255 255 221 255 252 227 255 225 241 255 11 235 247 8 247 254 3 255 255 0 254 255 3 248 253 7 248 255 4 251 255 0 253 255 4 252 254 0 252 253 6 253 255 17 244 255 25 225 251 36 216 251 40 218 255 36 218 255 37 219 255 37 219 255 37 219 255 37 219 255 37 219 255 37 219 255 37 219 255 37 219 255 64 187 254 
65 187 254 65 187 254 67 186 254 67 186 254 68 185 254 68 185 254 70 184 254 69 188 255 0 254 255 0 254 255 0 254 255 0 254 255 0 254 255 0 254 255 0 254 255 0 254 255 0 254 254 0 254 253 2 255 255 13 246 255 21 227 251 31 218 251 36 220 255 32 220 255 32 222 255 32 222 255 32 222 255 33 221 255 34 221 255 34 221 255 36 220 255 36 220 255 62 191 255 63 191 255 63 191 255 65 190 255 65 190 255 66 189 255 67 189 255 67 189 255 64 189 253 60 190 252 66 191 255 77 183 255 84 164 251 97 155 252 102 157 255 98 157 255 98 158 255 98 158 255 99 157 255 99 157 255 101 156 255 102 156 255 102 156 255 102 156 255 127 124 253 127 124 253 127 124 253 127 124 253 127 124 253 127 124 253 127 124 253 127 124 253 130 125 253 126 125 252 130 127 255 142 119 255 149 100 251 159 93 251 163 95 255 160 95 255 160 95 255 160 95 255 161 95 255 161 95 255 162 94 255 164 93 255 164 93 255 165 92 255 189 62 255 189 62 255 191 61 255 191 61 255 192 60 255 194 60 255 194 60 255 194 60 255 195 61 254 191 61 255 195 63 255 205 56 255 215 37 253 224 29 253 228 31 255 224 31 255 222 30 255 222 30 255 224 29 255 224 29 255 225 28 255 227 28 255 227 28 255 227 28 255 252 1 254 252 1 254 252 1 254 252 1 254 252 1 254 252 1 254 252 1 254 252 1 254 251 4 255 254 0 255 255 0 252 247 2 245 255 32 255 249 35 255 251 36 254 254 30 250 255 34 255 255 34 255 255 34 255 255 34 255 255 34 255 255 34 255 255 34 255 255 34 255 255 66 255 255 66 255 255 66 255 255 66 255 255 66 255 255 66 255 255 66 255 255 66 255 251 68 255 255 65 255 255 68 255 251 69 249 255 96 255 247 97 255 252 101 255 255 98 253 254 99 253 254 99 253 254 99 253 254 99 253 254 99 253 254 99 253 254 99 253 254 99 253 254 131 255 254 131 255 254 131 255 254 131 255 254 131 255 254 131 255 254 131 255 254 131 255 250 130 254 254 128 253 255 130 252 249 133 244 255 158 255 245 160 251 252 164 251 255 161 249 255 162 253 255 162 253 255 162 253 255 162 253 255 162 253 255 162 253 255 162 253 255 162 253 254 194 254 254 194 254 254 194 254 254 194 254 254 194 254 254 194 254 254 194 254 254 194 254 252 196 255 254 189 253 255 191 252 249 195 245 255 224 255 251 228 255 254 230 255 255 223 250 255 224 255 251 226 255 250 227 255 252 226 255 255 223 255 254 225 255 243 231 255 230 237 255 9 237 248 6 249 255 3 255 255 1 255 255 5 250 255 10 249 255 8 253 255 1 255 255 6 251 254 2 251 253 6 253 255 17 244 255 24 225 251 33 217 251 37 219 255 33 219 255 40 218 255 40 218 255 40 218 255 40 218 255 40 218 255 40 218 255 40 218 255 40 218 255 64 187 254 64 187 254 64 187 254 64 187 254 64 187 254 64 187 254 64 187 254 64 187 254 69 188 255 1 253 255 1 253 255 1 253 255 1 253 255 1 253 255 1 253 255 1 253 255 1 253 255 0 254 254 0 254 253 2 255 255 13 246 255 21 227 251 31 218 251 37 219 255 33 219 255 32 222 255 32 222 255 33 221 255 33 221 255 34 221 255 36 220 255 36 220 255 
36 220 255 63 191 255 63 191 255 63 191 255 65 190 255 66 189 255 66 189 255 67 189 255 67 189 255 64 189 253 60 190 252 66 191 255 77 183 255 86 163 251 97 155 252 102 157 255 98 157 255 98 158 255 98 158 255 99 157 255 99 157 255 101 156 255 102 156 255 102 156 255 102 156 255 127 124 253 127 124 253 127 124 253 127 124 253 127 124 253 127 124 253 127 124 253 127 124 253 131 124 253 126 125 252 132 127 255 142 119 255 149 100 251 160 93 251 165 95 255 160 95 255 160 95 255 161 95 255 161 95 255 162 94 255 162 94 255 164 93 255 165 92 255 165 92 255 189 62 255 189 62 255 191 61 255 191 61 255 192 60 255 194 60 255 194 60 255 195 59 255 195 61 254 191 61 255 195 63 255 206 54 255 214 36 252 224 29 253 228 31 255 224 31 255 222 30 255 222 30 255 224 29 255 224 29 255 225 28 255 227 28 255 227 28 255 228 27 255 253 2 255 253 2 255 253 2 255 253 2 255 253 2 255 253 2 255 253 2 255 253 2 255 251 4 255 254 0 255 255 0 252 247 2 245 255 32 255 249 35 255 251 36 254 254 30 250 255 34 255 255 34 255 255 34 255 255 34 255 255 34 255 255 34 255 255 34 255 255 34 255 255 66 255 255 66 255 255 66 255 255 66 255 255 66 255 255 66 255 255 66 255 255 66 255 251 68 255 255 65 255 255 68 255 251 69 249 255 96 255 247 97 255 252 101 255 255 98 253 254 99 253 254 99 253 254 99 253 254 99 253 254 99 253 254 99 253 254 99 253 254 99 253 254 131 255 254 131 255 254 131 255 254 131 255 254 131 255 254 131 255 254 131 255 254 131 255 250 130 254 254 128 253 255 130 252 249 133 244 255 159 255 245 160 251 252 164 251 255 162 250 255 162 253 255 162 253 255 162 253 255 162 253 255 162 253 255 162 253 255 162 253 255 162 253 254 194 254 254 194 254 254 194 254 254 194 254 254 194 254 254 194 254 254 194 254 254 194 254 252 196 255 255 190 254 255 191 252 249 195 245 255 225 255 251 228 255 254 230 255 255 224 251 255 224 255 251 226 255 250 227 255 252 226 255 255 223 255 254 225 255 243 231 255 230 237 255 9 237 248 7 248 255 3 255 255 1 255 255 4 249 254 10 249 255 8 251 255 1 253 255 7 250 254 2 251 253 8 253 255 17 244 255 24 225 251 34 217 251 39 219 255 33 219 255 40 218 255 40 218 255 40 218 255 40 218 255 40 218 255 40 218 255 40 218 255 40 218 255 65 187 254 65 187 254 65 187 254 65 187 254 65 187 254 65 187 254 65 187 254 65 187 254 69 188 255 1 253 255 1 253 255 1 253 255 1 253 255 1 253 255 1 253 255 1 253 255 1 253 255 1 253 254 0 254 253 3 255 255 14 246 255 21 227 251 33 217 251 37 219 255 33 219 255 32 222 255 33 221 255 33 221 255 34 221 255 34 221 255 36 220 255 37 219 255 37 219 255 63 191 255 63 191 255 65 190 255 65 190 255 66 189 255 67 189 255 67 189 255 69 188 255 65 189 253 61 189 252 66 191 255 77 183 255 86 163 251 97 155 252 103 157 255 99 157 255 98 158 255 98 158 255 99 157 255 99 157 255 101 156 255 102 156 255 102 156 255 102 156 255 129 124 253 129 124 253 129 124 253 129 124 253 129 124 253 129 124 253 
129 124 253 129 124 253 131 124 253 127 125 252 132 127 255 142 119 255 150 100 251 160 93 251 165 95 255 161 95 255 161 95 255 161 95 255 162 94 255 162 94 255 164 93 255 165 92 255 165 92 255 165 92 255 191 61 255 191 61 255 191 61 255 192 60 255 194 60 255 194 60 255 195 59 255 195 59 255 196 60 254 191 59 254 197 62 255 206 54 255 214 36 252 224 28 252 230 31 255 225 30 255 224 29 255 224 29 255 224 29 255 225 28 255 227 28 255 227 28 255 228 27 255 228 27 255 253 2 255 253 2 255 253 2 255 253 2 255 253 2 255 253 2 255 253 2 255 253 2 255 252 5 255 254 0 255 255 0 253 248 3 246 255 32 255 249 35 255 252 37 255 254 30 250 255 34 255 255 34 255 255 34 255 255 34 255 255 34 255 255 34 255 255 34 255 255 34 255 255 66 255 255 66 255 255 66 255 255 66 255 255 66 255 255 66 255 255 66 255 255 66 255 251 68 255 255 65 255 255 68 255 251 69 249 255 96 255 247 97 255 252 101 255 255 98 253 254 99 253 254 99 253 254 99 253 254 99 253 254 99 253 254 99 253 254 99 253 254 99 253 254 131 255 254 131 255 254 131 255 254 131 255 254 131 255 254 131 255 254 131 255 254 131 255 251 131 255 254 128 253 255 131 253 250 134 245 255 159 255 246 161 252 252 164 251 255 162 250 255 162 253 255 162 253 255 162 253 255 162 253 255 162 253 255 162 253 255 162 253 255 162 253 254 194 254 254 194 254 254 194 254 254 194 254 254 194 254 254 194 254 254 194 254 254 194 254 252 196 255 255 190 254 255 192 253 249 195 245 255 225 255 251 228 255 254 230 255 255 224 251 255 225 255 252 227 255 251 228 255 253 227 255 255 224 255 255 226 255 244 232 255 231 238 255 9 235 247 7 248 255 3 255 255 0 254 255 5 248 254 11 248 255 8 251 255 1 253 255 7 250 254 3 251 253 8 253 255 17 244 255 25 225 251 34 217 251 39 219 255 35 219 255 40 218 255 40 218 255 40 218 255 40 218 255 40 218 255 40 218 255 40 218 255 40 218 255 65 187 254 65 187 254 65 187 254 65 187 254 65 187 254 65 187 254 65 187 254 65 187 254 69 188 255 3 252 255 3 252 255 3 252 255 3 252 255 3 252 255 3 252 255 3 252 255 3 252 255 3 252 254 0 253 253 3 255 255 14 246 255 22 226 251 33 217 251 39 219 255 35 219 255 33 221 255 33 221 255 34 221 255 34 221 255 36 220 255 37 219 255 37 219 255 37 219 255 65 190 255 65 190 255 65 190 255 66 189 255 67 189 255 67 189 255 69 188 255 69 188 255 65 189 253 61 189 252 67 190 255 79 182 255 87 163 251 99 155 252 104 156 255 101 156 255 98 158 255 98 158 255 99 157 255 99 157 255 101 156 255 102 156 255 102 156 255 102 156 255 129 124 253 129 124 253 129 124 253 129 124 253 129 124 253 129 124 253 129 124 253 129 124 253 133 124 253 129 124 252 133 126 255 143 119 255 150 100 251 162 92 251 166 94 255 162 94 255 161 95 255 162 94 255 162 94 255 164 93 255 165 92 255 165 92 255 167 92 255 167 92 255 191 61 255 191 61 255 192 60 255 194 60 255 194 60 255 195 59 255 195 59 255 196 58 255 196 59 253 191 59 254 196 61 255 207 54 255 215 36 252 
224 28 252 230 29 255 225 30 255 224 29 255 224 29 255 225 28 255 227 28 255 227 28 255 228 27 255 228 27 255 229 26 255 253 2 255 253 2 255 253 2 255 253 2 255 253 2 255 253 2 255 253 2 255 253 2 255 252 5 255 255 0 255 255 0 253 248 3 246 255 33 255 250 36 255 252 37 255 255 31 251 255 34 255 255 34 255 255 34 255 255 34 255 255 34 255 255 34 255 255 34 255 255 34 255 255 67 255 255 67 255 255 67 255 255 67 255 255 67 255 255 67 255 255 67 255 255 67 255 251 68 255 255 65 255 255 68 255 251 69 249 255 96 255 247 97 255 252 101 255 255 98 253 254 99 253 254 99 253 254 99 253 254 99 253 254 99 253 254 99 253 254 99 253 254 99 253 254 131 255 254 131 255 254 131 255 254 131 255 254 131 255 254 131 255 254 131 255 254 131 255 251 131 255 255 129 254 255 131 253 250 134 245 255 159 255 246 161 252 253 165 252 255 162 250 255 163 254 255 163 254 255 163 254 255 163 254 255 163 254 255 163 254 255 163 254 255 163 254 254 194 254 254 194 254 254 194 254 254 194 254 254 194 254 254 194 254 254 194 254 254 194 254 253 197 255 255 190 254 255 192 253 250 196 246 255 225 255 252 229 255 255 231 255 255 224 251 255 225 255 252 227 255 251 228 255 253 227 255 255 224 255 255 226 255 244 232 255 231 238 255 9 235 247 8 247 254 4 255 255 1 253 255 6 247 254 10 247 255 9 250 255 3 252 255 8 250 254 5 250 253 9 252 255 18 244 255 25 225 251 36 216 251 40 218 255 36 218 255 40 218 255 40 218 255 40 218 255 40 218 255 40 218 255 40 218 255 40 218 255 40 218 255 67 186 254 67 186 254 67 186 254 67 186 254 67 186 254 67 186 254 67 186 254 67 186 254 70 187 255 3 252 255 3 252 255 3 252 255 3 252 255 3 252 255 3 252 255 3 252 255 3 252 255 3 252 254 0 253 253 5 254 255 15 245 255 24 225 251 34 217 251 39 219 255 35 219 255 34 221 255 34 221 255 34 221 255 36 220 255 37 219 255 37 219 255 39 219 255 39 219 255 65 190 255 66 189 255 66 189 255 67 189 255 67 189 255 69 188 255 70 187 255 70 187 255 66 188 253 63 188 252 68 190 255 80 181 255 88 162 251 100 154 252 104 156 255 101 156 255 98 158 255 98 158 255 99 157 255 99 157 255 101 156 255 102 156 255 102 156 255 102 156 255 130 123 253 130 123 253 130 123 253 130 123 253 130 123 253 130 123 253 130 123 253 130 123 253 133 124 253 129 124 252 133 126 255 145 118 255 152 99 251 162 92 251 166 94 255 162 94 255 162 94 255 162 94 255 164 93 255 164 93 255 165 92 255 167 92 255 167 92 255 168 91 255 192 60 255 192 60 255 194 60 255 194 60 255 195 59 255 196 58 255 196 58 255 196 58 255 196 59 253 192 58 253 197 61 255 206 53 255 215 34 251 225 26 251 230 29 255 225 28 255 225 28 255 225 28 255 227 28 255 227 28 255 228 27 255 229 26 255 229 26 255 229 26 255 254 3 255 254 3 255 254 3 255 254 3 255 254 3 255 254 3 255 254 3 255 254 3 255 253 6 255 255 0 255 255 1 254 249 4 247 255 33 255 250 36 255 253 38 255 255 31 251 255 34 255 255 34 255 255 34 255 255 34 255 
255 34 255 255 34 255 255 34 255 255 34 255 255 67 255 255 67 255 255 67 255 255 67 255 255 67 255 255 67 255 255 67 255 255 67 255 251 68 255 255 65 255 255 68 255 251 69 249 255 96 255 247 97 255 252 101 255 255 98 253 254 99 253 254 99 253 254 99 253 254 99 253 254 99 253 254 99 253 254 99 253 254 99 253 254 131 255 254 131 255 254 131 255 254 131 255 254 131 255 254 131 255 254 131 255 254 131 255 252 132 255 255 129 254 255 132 254 251 135 246 255 160 255 247 162 253 253 165 252 255 163 251 255 163 254 255 163 254 255 163 254 255 163 254 255 163 254 255 163 254 255 163 254 255 163 254 254 194 254 254 194 254 254 194 254 254 194 254 254 194 254 254 194 254 254 194 254 254 194 254 253 197 255 255 191 255 255 193 254 250 196 246 255 226 255 252 229 255 255 231 255 255 225 252 255 226 255 253 228 255 252 229 255 254 228 255 255 225 255 255 227 255 245 233 255 232 239 255 10 234 246 9 246 254 5 254 255 2 251 255 5 246 253 12 246 255 8 249 255 3 250 255 8 250 254 5 250 253 9 252 255 20 243 255 26 224 251 36 216 251 40 218 255 36 218 255 40 218 255 40 218 255 40 218 255 40 218 255 40 218 255 40 218 255 40 218 255 40 218 255 67 186 254 67 186 254 67 186 254 67 186 254 67 186 254 67 186 254 67 186 254 67 186 254 72 186 255 4 251 255 4 251 255 4 251 255 4 251 255 4 251 255 4 251 255 4 251 255 4 251 255 4 252 254 0 252 253 5 254 255 17 244 255 24 225 251 34 217 251 40 218 255 36 218 255 34 221 255 34 221 255 36 220 255 37 219 255 37 219 255 39 219 255 39 219 255 40 218 255 66 189 255 66 189 255 67 189 255 67 189 255 69 188 255 70 187 255 70 187 255 70 187 255 68 187 253 64 188 252 68 190 255 80 181 255 88 162 251 100 154 252 106 155 255 102 155 255 98 158 255 98 158 255 99 157 255 99 157 255 101 156 255 102 156 255 102 156 255 102 156 255 130 123 253 130 123 253 130 123 253 130 123 253 130 123 253 130 123 253 130 123 253 130 123 253 134 123 253 130 123 252 135 125 255 145 118 255 153 98 251 163 91 251 168 93 255 164 93 255 164 93 255 164 93 255 164 93 255 165 92 255 167 92 255 167 92 255 168 91 255 168 91 255 192 60 255 194 60 255 194 60 255 195 59 255 196 58 255 196 58 255 198 58 255 198 58 255 197 57 252 193 57 253 197 59 255 208 52 255 215 34 251 226 25 251 230 27 255 227 27 255 225 28 255 227 28 255 227 28 255 228 27 255 229 26 255 229 26 255 231 25 255 231 25 255 254 3 255 254 3 255 254 3 255 254 3 255 254 3 255 254 3 255 254 3 255 254 3 255 253 6 255 255 0 255 255 1 254 249 4 247 255 33 255 251 37 255 253 38 255 255 32 252 255 34 255 255 34 255 255 34 255 255 34 255 255 34 255 255 34 255 255 34 255 255 34 255 255 68 255 255 68 255 255 68 255 255 68 255 255 68 255 255 68 255 255 68 255 255 68 255 251 68 255 255 65 255 255 68 255 251 69 249 255 96 255 247 97 255 252 101 255 255 98 253 254 99 253 254 99 253 254 99 253 254 99 253 254 99 253 254 99 253 254 99 253 254 99 253 254 131 255 254 131 255 254 131 255 
254 131 255 254 131 255 254 131 255 254 131 255 254 131 255 252 132 255 255 130 255 255 132 254 251 135 246 255 160 255 247 162 253 254 166 253 255 163 251 255 164 255 255 164 255 255 164 255 255 164 255 255 164 255 255 164 255 255 164 255 255 164 255 254 194 254 254 194 254 254 194 254 254 194 254 254 194 254 254 194 254 254 194 254 254 194 254 254 198 255 255 191 255 255 193 254 251 197 247 255 226 255 253 230 255 255 232 255 255 225 252 255 226 255 253 228 255 252 229 255 254 228 255 255 225 255 255 227 255 245 233 255 232 239 255 11 233 246 8 245 253 5 254 255 2 251 255 7 246 253 12 244 254 10 249 255 3 250 255 10 249 254 6 249 253 10 251 255 20 243 255 28 223 251 37 215 251 41 217 255 38 217 255 40 218 255 40 218 255 40 218 255 40 218 255 40 218 255 40 218 255 40 218 255 40 218 255 68 185 254 68 185 254 68 185 254 68 185 254 68 185 254 68 185 254 68 185 254 68 185 254 72 186 255 4 251 255 4 251 255 4 251 255 4 251 255 4 251 255 4 251 255 4 251 255 4 251 255 4 252 254 0 252 253 6 253 255 17 244 255 25 225 251 36 216 251 41 217 255 38 217 255 36 220 255 36 220 255 36 220 255 37 219 255 39 219 255 39 219 255 40 218 255 40 218 255 66 189 255 67 189 255 67 189 255 69 188 255 70 187 255 70 187 255 72 186 255 72 186 255 68 187 253 64 188 252 70 189 255 81 181 255 90 161 251 101 153 252 106 155 255 102 155 255 98 158 255 98 158 255 99 157 255 99 157 255 101 156 255 102 156 255 102 156 255 102 156 255 132 122 253 132 122 253 132 122 253 132 122 253 132 122 253 132 122 253 132 122 253 132 122 253 135 122 253 130 123 252 135 125 255 146 117 255 153 98 251 163 91 251 169 92 255 164 93 255 164 93 255 164 93 255 165 92 255 167 92 255 167 92 255 168 91 255 168 91 255 169 90 255 194 60 255 194 60 255 195 59 255 195 59 255 196 58 255 198 58 255 198 58 255 198 58 255 197 57 252 193 57 253 197 59 255 208 50 255 216 32 250 226 25 251 230 27 255 227 27 255 227 28 255 227 28 255 228 27 255 228 27 255 229 26 255 231 25 255 231 25 255 231 25 255 255 4 255 255 4 255 255 4 255 255 4 255 255 4 255 255 4 255 255 4 255 255 4 255 253 6 255 255 0 255 255 1 254 250 5 248 255 34 255 251 37 255 253 38 255 255 32 252 255 34 255 255 34 255 255 34 255 255 34 255 255 34 255 255 34 255 255 34 255 255 34 255 255 68 255 255 68 255 255 68 255 255 68 255 255 68 255 255 68 255 255 68 255 255 68 255 251 68 255 255 65 255 255 68 255 251 69 249 255 96 255 247 97 255 252 101 255 255 98 253 254 99 253 254 99 253 254 99 253 254 99 253 254 99 253 254 99 253 254 99 253 254 99 253 254 131 255 254 131 255 254 131 255 254 131 255 254 131 255 254 131 255 254 131 255 254 131 255 252 132 255 255 130 255 255 133 255 251 135 246 255 161 255 248 163 254 254 166 253 255 164 252 255 164 255 255 164 255 255 164 255 255 164 255 255 164 255 255 164 255 255 164 255 255 164 255 254 194 254 254 194 254 254 194 254 254 194 254 254 194 254 254 194 254 254 194 254 254 194 254 254 198 255 255 192 255 
255 193 254 251 197 247 255 227 255 253 230 255 255 232 255 255 226 253 255 226 255 253 228 255 252 229 255 254 228 255 255 225 255 255 227 255 245 233 255 232 239 255 10 232 245 10 244 253 5 252 255 3 250 255 6 245 252 12 244 254 10 247 255 4 249 254 11 248 254 6 249 253 10 251 255 21 242 255 28 223 251 37 215 251 43 216 255 38 217 255 40 218 255 40 218 255 40 218 255 40 218 255 40 218 255 40 218 255 40 218 255 40 218 255 68 185 254 68 185 254 68 185 254 68 185 254 68 185 254 68 185 254 68 185 254 68 185 254 73 186 255 6 251 255 6 251 255 6 251 255 6 251 255 6 251 255 6 251 255 6 251 255 6 251 255 6 251 254 2 251 253 6 253 255 17 244 255 25 225 251 36 216 251 41 217 255 38 217 255 36 220 255 36 220 255 37 219 255 37 219 255 39 219 255 40 218 255 40 218 255 40 218 255 67 189 255 67 189 255 67 189 255 69 188 255 70 187 255 70 187 255 72 186 255 72 186 255 68 187 253 64 188 252 70 189 255 81 181 255 90 161 251 101 153 252 107 155 255 103 155 255 98 158 255 98 158 255 99 157 255 99 157 255 101 156 255 102 156 255 102 156 255 102 156 255 132 122 253 132 122 253 132 122 253 132 122 253 132 122 253 132 122 253 132 122 253 132 122 253 135 122 253 132 123 252 136 125 255 146 117 255 153 98 251 165 90 251 169 92 255 165 92 255 164 93 255 165 92 255 165 92 255 167 92 255 168 91 255 168 91 255 169 90 255 169 90 255 194 60 255 194 60 255 195 59 255 196 58 255 196 58 255 198 58 255 198 58 255 199 57 255 198 56 252 192 56 252 197 59 255 208 50 255 216 32 250 225 24 250 232 26 255 227 27 255 227 28 255 227 28 255 228 27 255 229 26 255 229 26 255 231 25 255 231 25 255 232 25 255 255 4 255 255 4 255 255 4 255 255 4 255 255 4 255 255 4 255 255 4 255 255 4 255 254 7 255 255 0 255 255 2 255 250 5 248 255 34 255 251 37 255 254 39 255 255 32 252 255 34 255 255 34 255 255 34 255 255 34 255 255 34 255 255 34 255 255 34 255 255 34 255 255 68 255 255 68 255 255 68 255 255 68 255 255 68 255 255 68 255 255 68 255 255 68 255 251 68 255 255 65 255 255 68 255 251 69 249 255 96 255 247 97 255 252 101 255 255 98 253 254 99 253 254 99 253 254 99 253 254 99 253 254 99 253 254 99 253 254 99 253 254 99 253 254 131 255 254 131 255 254 131 255 254 131 255 254 131 255 254 131 255 254 131 255 254 131 255 253 133 255 255 130 255 255 133 255 252 136 247 255 161 255 248 163 254 254 166 253 255 164 252 255 164 255 255 164 255 255 164 255 255 164 255 255 164 255 255 164 255 255 164 255 255 164 255 254 194 254 254 194 254 254 194 254 254 194 254 254 194 254 254 194 254 254 194 254 254 194 254 254 198 255 255 192 255 255 194 255 251 197 247 255 227 255 253 230 255 255 232 255 255 226 253 255 226 255 253 228 255 252 229 255 254 228 255 255 225 255 255 227 255 245 233 255 232 239 255 10 232 245 10 244 253 5 252 255 2 249 254 7 244 252 12 244 254 10 247 255 4 249 254 11 248 254 7 249 253 12 251 255 21 242 255 28 223 251 38 214 251 43 216 255 39 216 255 40 218 255 
40 218 255 40 218 255 40 218 255 40 218 255 40 218 255 40 218 255 40 218 255 70 184 254 70 184 254 70 184 254 70 184 254 70 184 254 70 184 254 70 184 254 70 184 254 73 186 255 4 251 255 4 251 255 4 251 255 4 251 255 4 251 255 4 251 255 4 251 255 4 251 255 4 252 254 0 252 253 6 253 255 17 244 255 25 225 251 36 216 251 40 218 255 36 218 255 37 219 255 37 219 255 37 219 255 37 219 255 37 219 255 37 219 255 37 219 255 37 219 255 64 187 254 65 187 254 65 187 254 67 186 254 67 186 254 68 185 254 68 185 254 70 184 254 71 186 253 65 187 252 70 189 255 81 181 255 88 162 251 100 154 252 104 156 255 99 157 255 99 157 255 101 156 255 101 156 255 102 156 255 102 156 255 103 155 255 103 155 255 105 154 255 132 122 253 132 122 253 132 122 253 132 122 253 132 122 253 132 122 253 132 122 253 132 122 253 135 124 254 131 124 253 136 126 255 146 117 255 153 98 251 162 90 250 167 92 255 163 92 255 162 91 255 162 91 255 163 90 255 163 90 255 165 90 255 166 89 255 166 89 255 166 89 255 194 60 255 194 60 255 195 59 255 195 59 255 196 58 255 196 58 255 198 58 255 198 58 255 197 57 252 192 56 252 197 59 255 207 51 255 216 32 250 226 25 251 230 27 255 227 27 255 227 28 255 227 28 255 228 27 255 228 27 255 229 26 255 229 26 255 231 25 255 231 25 255 255 4 255 255 4 255 255 4 255 255 4 255 255 4 255 255 4 255 255 4 255 255 4 255 251 5 255 255 2 254 255 5 254 251 6 247 255 33 255 248 34 254 253 38 255 255 34 252 254 36 255 254 36 255 254 36 255 254 36 255 254 36 255 254 36 255 254 36 255 254 36 255 255 67 255 255 67 255 255 67 255 255 67 255 255 67 255 255 67 255 255 67 255 255 67 255 254 71 255 255 65 253 255 67 251 250 69 246 255 98 255 250 101 255 253 103 254 255 96 248 255 100 254 255 100 254 255 100 254 255 100 254 255 100 254 255 100 254 255 100 254 255 100 254 255 132 255 255 132 255 255 132 255 255 132 255 255 132 255 255 132 255 255 132 255 255 132 255 251 135 255 254 130 254 255 131 251 248 134 245 255 163 255 250 167 255 253 169 255 255 163 250 255 165 255 255 165 255 255 165 255 255 165 255 255 165 255 255 165 255 255 165 255 255 165 255 255 195 255 255 195 255 255 195 255 255 195 255 255 195 255 255 195 255 255 195 255 255 195 255 252 198 255 254 193 253 255 194 251 249 197 245 255 228 255 250 230 255 254 232 255 255 226 250 255 226 255 253 229 255 252 229 255 254 228 255 255 225 255 255 227 255 245 233 255 232 239 255 10 232 245 8 245 253 4 253 255 3 250 255 6 245 252 12 244 254 9 248 255 2 249 254 6 248 252 3 248 251 7 250 255 16 242 255 25 223 250 36 216 251 40 218 255 36 218 255 37 219 255 37 219 255 39 219 255 39 219 255 40 218 255 40 218 255 41 217 255 41 217 255 68 185 254 68 185 254 68 185 254 68 185 254 68 185 254 68 185 254 68 185 254 68 185 254 73 186 255 4 251 255 4 251 255 4 251 255 4 251 255 4 251 255 4 251 255 4 251 255 4 251 255 4 252 254 0 252 253 6 253 255 17 244 255 25 225 251 36 216 251 40 218 255 
36 218 255 37 219 255 37 219 255 37 219 255 37 219 255 37 219 255 37 219 255 37 219 255 37 219 255 64 187 254 65 187 254 65 187 254 67 186 254 67 186 254 68 185 254 68 185 254 70 184 254 71 186 253 65 187 252 70 189 255 81 181 255 88 162 251 100 154 252 104 156 255 99 157 255 99 157 255 101 156 255 101 156 255 102 156 255 102 156 255 103 155 255 103 155 255 105 154 255 132 122 253 132 122 253 132 122 253 132 122 253 132 122 253 132 122 253 132 122 253 132 122 253 135 124 254 131 124 253 136 126 255 146 117 255 153 98 251 162 90 250 167 92 255 163 92 255 162 91 255 162 91 255 163 90 255 163 90 255 165 90 255 166 89 255 166 89 255 166 89 255 194 60 255 194 60 255 195 59 255 195 59 255 196 58 255 196 58 255 198 58 255 198 58 255 197 57 252 192 56 252 197 59 255 207 51 255 216 32 250 226 25 251 230 27 255 227 27 255 227 28 255 227 28 255 228 27 255 228 27 255 229 26 255 229 26 255 231 25 255 231 25 255 255 4 255 255 4 255 255 4 255 255 4 255 255 4 255 255 4 255 255 4 255 255 4 255 251 5 255 255 2 254 255 5 254 251 6 247 255 33 255 248 34 254 253 38 255 255 34 252 254 36 255 254 36 255 254 36 255 254 36 255 254 36 255 254 36 255 254 36 255 254 36 255 255 67 255 255 67 255 255 67 255 255 67 255 255 67 255 255 67 255 255 67 255 255 67 255 254 71 255 255 65 253 255 67 251 250 69 246 255 98 255 250 101 255 253 103 254 255 96 248 255 100 254 255 100 254 255 100 254 255 100 254 255 100 254 255 100 254 255 100 254 255 100 254 255 132 255 255 132 255 255 132 255 255 132 255 255 132 255 255 132 255 255 132 255 255 132 255 251 135 255 254 130 254 255 131 251 248 134 245 255 163 255 250 167 255 253 169 255 255 163 250 255 165 255 255 165 255 255 165 255 255 165 255 255 165 255 255 165 255 255 165 255 255 165 255 255 195 255 255 195 255 255 195 255 255 195 255 255 195 255 255 195 255 255 195 255 255 195 255 252 198 255 254 193 253 255 194 251 249 197 245 255 228 255 250 230 255 254 232 255 255 226 250 255 226 255 253 229 255 252 229 255 254 228 255 255 225 255 255 227 255 245 233 255 232 239 255 10 232 245 8 245 253 4 253 255 3 250 255 6 245 252 12 244 254 9 248 255 2 249 254 6 248 252 3 248 251 7 250 255 16 242 255 25 223 250 36 216 251 40 218 255 36 218 255 37 219 255 37 219 255 39 219 255 39 219 255 40 218 255 40 218 255 41 217 255 41 217 255 68 185 254 68 185 254 68 185 254 68 185 254 68 185 254 68 185 254 68 185 254 68 185 254 73 186 255 4 251 255 4 251 255 4 251 255 4 251 255 4 251 255 4 251 255 4 251 255 4 251 255 4 252 254 0 252 253 6 253 255 17 244 255 25 225 251 36 216 251 40 218 255 36 218 255 37 219 255 37 219 255 37 219 255 37 219 255 37 219 255 37 219 255 37 219 255 37 219 255 64 187 254 65 187 254 65 187 254 67 186 254 67 186 254 68 185 254 68 185 254 70 184 254 71 186 253 65 187 252 70 189 255 81 181 255 88 162 251 100 154 252 104 156 255 99 157 255 99 157 255 101 156 255 101 156 255 102 156 255 102 156 255 103 155 255 
103 155 255 105 154 255 132 122 253 132 122 253 132 122 253 132 122 253 132 122 253 132 122 253 132 122 253 132 122 253 135 124 254 131 124 253 136 126 255 146 117 255 153 98 251 162 90 250 167 92 255 163 92 255 162 91 255 162 91 255 163 90 255 163 90 255 165 90 255 166 89 255 166 89 255 166 89 255 194 60 255 194 60 255 195 59 255 195 59 255 196 58 255 196 58 255 198 58 255 198 58 255 197 57 252 192 56 252 197 59 255 207 51 255 216 32 250 226 25 251 230 27 255 227 27 255 227 28 255 227 28 255 228 27 255 228 27 255 229 26 255 229 26 255 231 25 255 231 25 255 255 4 255 255 4 255 255 4 255 255 4 255 255 4 255 255 4 255 255 4 255 255 4 255 251 5 255 255 2 254 255 5 254 251 6 247 255 33 255 248 34 254 253 38 255 255 34 252 254 36 255 254 36 255 254 36 255 254 36 255 254 36 255 254 36 255 254 36 255 254 36 255 255 67 255 255 67 255 255 67 255 255 67 255 255 67 255 255 67 255 255 67 255 255 67 255 254 71 255 255 65 253 255 67 251 250 69 246 255 98 255 250 101 255 253 103 254 255 96 248 255 100 254 255 100 254 255 100 254 255 100 254 255 100 254 255 100 254 255 100 254 255 100 254 255 132 255 255 132 255 255 132 255 255 132 255 255 132 255 255 132 255 255 132 255 255 132 255 251 135 255 254 130 254 255 131 251 248 134 245 255 163 255 250 167 255 253 169 255 255 163 250 255 165 255 255 165 255 255 165 255 255 165 255 255 165 255 255 165 255 255 165 255 255 165 255 255 195 255 255 195 255 255 195 255 255 195 255 255 195 255 255 195 255 255 195 255 255 195 255 252 198 255 254 193 253 255 194 251 249 197 245 255 228 255 250 230 255 254 232 255 255 226 250 255 226 255 253 229 255 252 229 255 254 228 255 255 225 255 255 227 255 245 233 255 232 239 255 10 232 245 8 245 253 4 253 255 3 250 255 6 245 252 12 244 254 9 248 255 2 249 254 6 248 252 3 248 251 7 250 255 16 242 255 25 223 250 36 216 251 40 218 255 36 218 255 37 219 255 37 219 255 39 219 255 39 219 255 40 218 255 40 218 255 41 217 255 41 217 255 68 185 254 68 185 254 68 185 254 68 185 254 68 185 254 68 185 254 68 185 254 68 185 254 73 186 255 4 251 255 4 251 255 4 251 255 4 251 255 4 251 255 4 251 255 4 251 255 4 251 255 4 252 254 0 252 253 6 253 255 17 244 255 25 225 251 36 216 251 40 218 255 36 218 255 37 219 255 37 219 255 37 219 255 37 219 255 37 219 255 37 219 255 37 219 255 37 219 255 64 187 254 65 187 254 65 187 254 67 186 254 67 186 254 68 185 254 68 185 254 70 184 254 71 186 253 65 187 252 70 189 255 81 181 255 88 162 251 100 154 252 104 156 255 99 157 255 99 157 255 101 156 255 101 156 255 102 156 255 102 156 255 103 155 255 103 155 255 105 154 255 132 122 253 132 122 253 132 122 253 132 122 253 132 122 253 132 122 253 132 122 253 132 122 253 135 124 254 131 124 253 136 126 255 146 117 255 153 98 251 162 90 250 167 92 255 163 92 255 162 91 255 162 91 255 163 90 255 163 90 255 165 90 255 166 89 255 166 89 255 166 89 255 194 60 255 194 60 255 195 59 255 195 59 255 196 58 255 
196 58 255 198 58 255 198 58 255 197 57 252 192 56 252 197 59 255 207 51 255 216 32 250 226 25 251 230 27 255 227 27 255 227 28 255 227 28 255 228 27 255 228 27 255 229 26 255 229 26 255 231 25 255 231 25 255 255 4 255 255 4 255 255 4 255 255 4 255 255 4 255 255 4 255 255 4 255 255 4 255 251 5 255 255 2 254 255 5 254 251 6 247 255 33 255 248 34 254 253 38 255 255 34 252 254 36 255 254 36 255 254 36 255 254 36 255 254 36 255 254 36 255 254 36 255 254 36 255 255 67 255 255 67 255 255 67 255 255 67 255 255 67 255 255 67 255 255 67 255 255 67 255 254 71 255 255 65 253 255 67 251 250 69 246 255 98 255 250 101 255 253 103 254 255 96 248 255 100 254 255 100 254 255 100 254 255 100 254 255 100 254 255 100 254 255 100 254 255 100 254 255 132 255 255 132 255 255 132 255 255 132 255 255 132 255 255 132 255 255 132 255 255 132 255 251 135 255 254 130 254 255 131 251 248 134 245 255 163 255 250 167 255 253 169 255 255 163 250 255 165 255 255 165 255 255 165 255 255 165 255 255 165 255 255 165 255 255 165 255 255 165 255 255 195 255 255 195 255 255 195 255 255 195 255 255 195 255 255 195 255 255 195 255 255 195 255 252 198 255 254 193 253 255 194 251 249 197 245 255 228 255 250 230 255 254 232 255 255 226 250 255 226 255 253 229 255 252 229 255 254 228 255 255 225 255 255 227 255 245 233 255 232 239 255 10 232 245 8 245 253 4 253 255 3 250 255 6 245 252 12 244 254 9 248 255 2 249 254 6 248 252 3 248 251 7 250 255 16 242 255 25 223 250 36 216 251 40 218 255 36 218 255 37 219 255 37 219 255 39 219 255 39 219 255 40 218 255 40 218 255 41 217 255 41 217 255 68 185 254 68 185 254 68 185 254 68 185 254 68 185 254 68 185 254 68 185 254 68 185 254 73 186 255 4 251 255 4 251 255 4 251 255 4 251 255 4 251 255 4 251 255 4 251 255 4 251 255 4 252 254 0 252 253 6 253 255 17 244 255 25 225 251 36 216 251 40 218 255 36 218 255 37 219 255 37 219 255 37 219 255 37 219 255 37 219 255 37 219 255 37 219 255 37 219 255 64 187 254 65 187 254 65 187 254 67 186 254 67 186 254 68 185 254 68 185 254 70 184 254 71 186 253 65 187 252 70 189 255 81 181 255 88 162 251 100 154 252 104 156 255 99 157 255 99 157 255 101 156 255 101 156 255 102 156 255 102 156 255 103 155 255 103 155 255 105 154 255 132 122 253 132 122 253 132 122 253 132 122 253 132 122 253 132 122 253 132 122 253 132 122 253 135 124 254 131 124 253 136 126 255 146 117 255 153 98 251 162 90 250 167 92 255 163 92 255 162 91 255 162 91 255 163 90 255 163 90 255 165 90 255 166 89 255 166 89 255 166 89 255 194 60 255 194 60 255 195 59 255 195 59 255 196 58 255 196 58 255 198 58 255 198 58 255 197 57 252 192 56 252 197 59 255 207 51 255 216 32 250 226 25 251 230 27 255 227 27 255 227 28 255 227 28 255 228 27 255 228 27 255 229 26 255 229 26 255 231 25 255 231 25 255 255 4 255 255 4 255 255 4 255 255 4 255 255 4 255 255 4 255 255 4 255 255 4 255 251 5 255 255 2 254 255 5 254 251 6 247 
255 33 255 248 34 254 253 38 255 255 34 252 254 36 255 254 36 255 254 36 255 254 36 255 254 36 255 254 36 255 254 36 255 254 36 255 255 67 255 255 67 255 255 67 255 255 67 255 255 67 255 255 67 255 255 67 255 255 67 255 254 71 255 255 65 253 255 67 251 250 69 246 255 98 255 250 101 255 253 103 254 255 96 248 255 100 254 255 100 254 255 100 254 255 100 254 255 100 254 255 100 254 255 100 254 255 100 254 255 132 255 255 132 255 255 132 255 255 132 255 255 132 255 255 132 255 255 132 255 255 132 255 251 135 255 254 130 254 255 131 251 248 134 245 255 163 255 250 167 255 253 169 255 255 163 250 255 165 255 255 165 255 255 165 255 255 165 255 255 165 255 255 165 255 255 165 255 255 165 255 255 195 255 255 195 255 255 195 255 255 195 255 255 195 255 255 195 255 255 195 255 255 195 255 252 198 255 254 193 253 255 194 251 249 197 245 255 228 255 250 230 255 254 232 255 255 226 250 255 226 255 253 229 255 252 229 255 254 228 255 255 225 255 255 227 255 245 233 255 232 239 255 10 232 245 8 245 253 4 253 255 3 250 255 6 245 252 12 244 254 9 248 255 2 249 254 6 248 252 3 248 251 7 250 255 16 242 255 25 223 250 36 216 251 40 218 255 36 218 255 37 219 255 37 219 255 39 219 255 39 219 255 40 218 255 40 218 255 41 217 255 41 217 255 68 185 254 68 185 254 68 185 254 68 185 254 68 185 254 68 185 254 68 185 254 68 185 254 73 186 255 4 251 255 4 251 255 4 251 255 4 251 255 4 251 255 4 251 255 4 251 255 4 251 255 4 252 254 0 252 253 6 253 255 17 244 255 25 225 251 36 216 251 40 218 255 36 218 255 37 219 255 37 219 255 37 219 255 37 219 255 37 219 255 37 219 255 37 219 255 37 219 255 64 187 254 65 187 254 65 187 254 67 186 254 67 186 254 68 185 254 68 185 254 70 184 254 71 186 253 65 187 252 70 189 255 81 181 255 88 162 251 100 154 252 104 156 255 99 157 255 99 157 255 101 156 255 101 156 255 102 156 255 102 156 255 103 155 255 103 155 255 105 154 255 132 122 253 132 122 253 132 122 253 132 122 253 132 122 253 132 122 253 132 122 253 132 122 253 135 124 254 131 124 253 136 126 255 146 117 255 153 98 251 162 90 250 167 92 255 163 92 255 162 91 255 162 91 255 163 90 255 163 90 255 165 90 255 166 89 255 166 89 255 166 89 255 194 60 255 194 60 255 195 59 255 195 59 255 196 58 255 196 58 255 198 58 255 198 58 255 197 57 252 192 56 252 197 59 255 207 51 255 216 32 250 226 25 251 230 27 255 227 27 255 227 28 255 227 28 255 228 27 255 228 27 255 229 26 255 229 26 255 231 25 255 231 25 255 255 4 255 255 4 255 255 4 255 255 4 255 255 4 255 255 4 255 255 4 255 255 4 255 251 5 255 255 2 254 255 5 254 251 6 247 255 33 255 248 34 254 253 38 255 255 34 252 254 36 255 254 36 255 254 36 255 254 36 255 254 36 255 254 36 255 254 36 255 254 36 255 255 67 255 255 67 255 255 67 255 255 67 255 255 67 255 255 67 255 255 67 255 255 67 255 254 71 255 255 65 253 255 67 251 250 69 246 255 98 255 250 101 255 253 103 254 255 96 248 255 100 254 255 100 254 255 100 254 
255 100 254 255 100 254 255 100 254 255 100 254 255 100 254 255 132 255 255 132 255 255 132 255 255 132 255 255 132 255 255 132 255 255 132 255 255 132 255 251 135 255 254 130 254 255 131 251 248 134 245 255 163 255 250 167 255 253 169 255 255 163 250 255 165 255 255 165 255 255 165 255 255 165 255 255 165 255 255 165 255 255 165 255 255 165 255 255 195 255 255 195 255 255 195 255 255 195 255 255 195 255 255 195 255 255 195 255 255 195 255 252 198 255 254 193 253 255 194 251 249 197 245 255 228 255 250 230 255 254 232 255 255 226 250 255 226 255 253 229 255 252 229 255 254 228 255 255 225 255 255 227 255 245 233 255 232 239 255 10 232 245 8 245 253 4 253 255 3 250 255 6 245 252 12 244 254 9 248 255 2 249 254 6 248 252 3 248 251 7 250 255 16 242 255 25 223 250 36 216 251 40 218 255 36 218 255 37 219 255 37 219 255 39 219 255 39 219 255 40 218 255 40 218 255 41 217 255 41 217 255 68 185 254 68 185 254 68 185 254 68 185 254 68 185 254 68 185 254 68 185 254 68 185 254 73 186 255 4 251 255 4 251 255 4 251 255 4 251 255 4 251 255 4 251 255 4 251 255 4 251 255 4 252 254 0 252 253 6 253 255 17 244 255 25 225 251 36 216 251 40 218 255 36 218 255 37 219 255 37 219 255 37 219 255 37 219 255 37 219 255 37 219 255 37 219 255 37 219 255 64 187 254 65 187 254 65 187 254 67 186 254 67 186 254 68 185 254 68 185 254 70 184 254 71 186 253 65 187 252 70 189 255 81 181 255 88 162 251 100 154 252 104 156 255 99 157 255 99 157 255 101 156 255 101 156 255 102 156 255 102 156 255 103 155 255 103 155 255 105 154 255 132 122 253 132 122 253 132 122 253 132 122 253 132 122 253 132 122 253 132 122 253 132 122 253 135 124 254 131 124 253 136 126 255 146 117 255 153 98 251 162 90 250 167 92 255 163 92 255 162 91 255 162 91 255 163 90 255 163 90 255 165 90 255 166 89 255 166 89 255 166 89 255 194 60 255 194 60 255 195 59 255 195 59 255 196 58 255 196 58 255 198 58 255 198 58 255 197 57 252 192 56 252 197 59 255 207 51 255 216 32 250 226 25 251 230 27 255 227 27 255 227 28 255 227 28 255 228 27 255 228 27 255 229 26 255 229 26 255 231 25 255 231 25 255 255 4 255 255 4 255 255 4 255 255 4 255 255 4 255 255 4 255 255 4 255 255 4 255 251 5 255 255 2 254 255 5 254 251 6 247 255 33 255 248 34 254 253 38 255 255 34 252 254 36 255 254 36 255 254 36 255 254 36 255 254 36 255 254 36 255 254 36 255 254 36 255 255 67 255 255 67 255 255 67 255 255 67 255 255 67 255 255 67 255 255 67 255 255 67 255 254 71 255 255 65 253 255 67 251 250 69 246 255 98 255 250 101 255 253 103 254 255 96 248 255 100 254 255 100 254 255 100 254 255 100 254 255 100 254 255 100 254 255 100 254 255 100 254 255 132 255 255 132 255 255 132 255 255 132 255 255 132 255 255 132 255 255 132 255 255 132 255 251 135 255 254 130 254 255 131 251 248 134 245 255 163 255 250 167 255 253 169 255 255 163 250 255 165 255 255 165 255 255 165 255 255 165 255 255 165 255 255 165 255 255 165 255 255 165 255 255 195 255 255 195 255 
255 195 255 255 195 255 255 195 255 255 195 255 255 195 255 255 195 255 252 198 255 254 193 253 255 194 251 249 197 245 255 228 255 250 230 255 254 232 255 255 226 250 255 226 255 253 229 255 252 229 255 254 228 255 255 225 255 255 227 255 245 233 255 232 239 255 10 232 245 8 245 253 4 253 255 3 250 255 6 245 252 12 244 254 9 248 255 2 249 254 6 248 252 3 248 251 7 250 255 16 242 255 25 223 250 36 216 251 40 218 255 36 218 255 37 219 255 37 219 255 39 219 255 39 219 255 40 218 255 40 218 255 41 217 255 41 217 255 68 185 254 68 185 254 68 185 254 68 185 254 68 185 254 68 185 254 68 185 254 68 185 254 73 186 255 4 251 255 4 251 255 4 251 255 4 251 255 4 251 255 4 251 255 4 251 255 4 251 255 4 252 254 0 252 253 6 253 255 17 244 255 25 225 251 36 216 251 40 218 255 36 218 255 37 219 255 37 219 255 37 219 255 37 219 255 37 219 255 37 219 255 37 219 255 37 219 255 64 187 254 65 187 254 65 187 254 67 186 254 67 186 254 68 185 254 68 185 254 70 184 254 71 186 253 65 187 252 70 189 255 81 181 255 88 162 251 100 154 252 104 156 255 99 157 255 99 157 255 101 156 255 101 156 255 102 156 255 102 156 255 103 155 255 103 155 255 105 154 255 132 122 253 132 122 253 132 122 253 132 122 253 132 122 253 132 122 253 132 122 253 132 122 253 135 124 254 131 124 253 136 126 255 146 117 255 153 98 251 162 90 250 167 92 255 163 92 255 162 91 255 162 91 255 163 90 255 163 90 255 165 90 255 166 89 255 166 89 255 166 89 255 194 60 255 194 60 255 195 59 255 195 59 255 196 58 255 196 58 255 198 58 255 198 58 255 197 57 252 192 56 252 197 59 255 207 51 255 216 32 250 226 25 251 230 27 255 227 27 255 227 28 255 227 28 255 228 27 255 228 27 255 229 26 255 229 26 255 231 25 255 231 25 255 255 4 255 255 4 255 255 4 255 255 4 255 255 4 255 255 4 255 255 4 255 255 4 255 251 5 255 255 2 254 255 5 254 251 6 247 255 33 255 248 34 254 253 38 255 255 34 252 254 36 255 254 36 255 254 36 255 254 36 255 254 36 255 254 36 255 254 36 255 254 36 255 255 67 255 255 67 255 255 67 255 255 67 255 255 67 255 255 67 255 255 67 255 255 67 255 254 71 255 255 65 253 255 67 251 250 69 246 255 98 255 250 101 255 253 103 254 255 96 248 255 100 254 255 100 254 255 100 254 255 100 254 255 100 254 255 100 254 255 100 254 255 100 254 255 132 255 255 132 255 255 132 255 255 132 255 255 132 255 255 132 255 255 132 255 255 132 255 251 135 255 254 130 254 255 131 251 248 134 245 255 163 255 250 167 255 253 169 255 255 163 250 255 165 255 255 165 255 255 165 255 255 165 255 255 165 255 255 165 255 255 165 255 255 165 255 255 195 255 255 195 255 255 195 255 255 195 255 255 195 255 255 195 255 255 195 255 255 195 255 252 198 255 254 193 253 255 194 251 249 197 245 255 228 255 250 230 255 254 232 255 255 226 250 255 226 255 253 229 255 252 229 255 254 228 255 255 225 255 255 227 255 245 233 255 232 239 255 10 232 245 8 245 253 4 253 255 3 250 255 6 245 252 12 244 254 9 248 255 2 249 254 6 248 252 
3 248 251 7 250 255 16 242 255 25 223 250 36 216 251 40 218 255 36 218 255 37 219 255 37 219 255 39 219 255 39 219 255 40 218 255 40 218 255 41 217 255 41 217 255 68 185 254 68 185 254 68 185 254 68 185 254 68 185 254 68 185 254 68 185 254 68 185 254 73 186 255 8 249 255 8 249 255 8 249 255 8 249 255 8 249 255 8 249 255 8 249 255 8 249 255 6 248 252 3 248 251 7 250 255 16 242 255 25 223 250 36 216 251 40 218 255 36 218 255 37 219 255 37 219 255 39 219 255 39 219 255 40 218 255 40 218 255 41 217 255 41 217 255 68 185 254 68 185 254 68 185 254 68 185 254 68 185 254 68 185 254 68 185 254 68 185 254 72 185 255 67 184 254 73 187 255 82 179 255 89 160 252 99 151 252 104 153 255 100 153 255 101 153 255 101 153 255 101 153 255 101 153 255 101 153 255 101 153 255 101 153 255 101 153 255 130 123 255 132 122 255 132 122 255 133 121 255 133 121 255 134 120 255 134 120 255 136 120 255 135 119 252 129 119 252 134 122 255 145 113 255 152 95 250 164 87 251 168 89 255 163 90 255 163 90 255 165 90 255 165 90 255 166 89 255 166 89 255 167 88 255 167 88 255 169 88 255 195 59 255 195 59 255 196 58 255 196 58 255 198 58 255 199 57 255 199 57 255 199 57 255 198 58 253 194 58 254 198 60 255 209 51 255 218 33 251 230 25 252 236 26 255 232 26 255 229 26 255 231 25 255 231 25 255 232 25 255 232 25 255 234 24 255 234 24 255 235 23 255 255 6 255 255 6 255 255 6 255 255 6 255 255 6 255 255 6 255 255 6 255 255 6 255 253 9 255 255 2 251 255 4 250 250 7 245 255 37 255 251 40 255 254 41 253 255 36 248 255 39 254 255 39 254 255 39 254 255 39 254 255 39 254 255 39 254 255 39 254 255 39 254 255 69 254 255 69 254 255 69 254 255 69 254 255 69 254 255 69 254 255 69 254 255 69 254 252 72 255 252 66 253 255 67 251 248 71 247 255 100 255 249 104 255 254 106 255 254 100 250 255 102 255 255 102 255 255 102 255 255 102 255 255 102 255 255 102 255 255 102 255 255 102 255 255 133 254 255 133 254 255 133 254 255 133 254 255 133 254 255 133 254 255 133 254 255 133 254 252 136 255 255 131 255 255 132 252 249 135 246 255 165 255 251 168 255 254 170 255 255 165 252 255 166 254 255 166 254 255 166 254 255 166 254 255 166 254 255 166 254 255 166 254 255 166 254 255 197 255 255 197 255 255 197 255 255 197 255 255 197 255 255 197 255 255 197 255 255 197 255 252 198 255 255 195 255 255 199 255 252 200 248 255 227 255 248 228 255 254 232 255 255 228 252 255 228 253 253 231 254 251 232 254 254 230 254 255 229 255 255 230 255 244 237 255 234 244 255 11 231 245 11 243 253 7 252 255 5 250 255 7 244 252 13 244 254 12 246 255 5 248 254 11 245 254 5 246 255 10 248 255 20 239 255 28 221 252 40 213 253 44 215 255 39 216 255 38 215 255 39 215 255 39 215 255 41 214 255 41 214 255 42 213 255 42 213 255 44 213 255 70 184 255 70 184 255 71 183 255 71 183 255 72 183 255 74 182 255 74 182 255 74 182 255 72 183 255 8 249 255 8 249 255 8 249 255 8 249 255 8 249 255 8 249 255 8 249 255 
8 249 255 6 248 252 3 248 251 7 250 255 16 242 255 25 223 250 36 216 251 40 218 255 36 218 255 37 219 255 37 219 255 39 219 255 39 219 255 40 218 255 40 218 255 41 217 255 41 217 255 68 185 254 68 185 254 68 185 254 68 185 254 68 185 254 68 185 254 68 185 254 68 185 254 72 185 255 67 184 254 73 187 255 82 179 255 89 160 252 99 151 252 104 153 255 100 153 255 101 153 255 101 153 255 101 153 255 101 153 255 101 153 255 101 153 255 101 153 255 101 153 255 130 123 255 132 122 255 132 122 255 133 121 255 133 121 255 134 120 255 134 120 255 136 120 255 135 119 252 129 119 252 134 122 255 145 113 255 152 95 250 164 87 251 168 89 255 163 90 255 163 90 255 165 90 255 165 90 255 166 89 255 166 89 255 167 88 255 167 88 255 169 88 255 195 59 255 195 59 255 196 58 255 196 58 255 198 58 255 199 57 255 199 57 255 199 57 255 198 58 253 194 58 254 198 60 255 209 51 255 218 33 251 230 25 252 236 26 255 232 26 255 229 26 255 231 25 255 231 25 255 232 25 255 232 25 255 234 24 255 234 24 255 235 23 255 255 6 255 255 6 255 255 6 255 255 6 255 255 6 255 255 6 255 255 6 255 255 6 255 253 9 255 255 2 251 255 4 250 250 7 245 255 37 255 251 40 255 254 41 253 255 36 248 255 39 254 255 39 254 255 39 254 255 39 254 255 39 254 255 39 254 255 39 254 255 39 254 255 69 254 255 69 254 255 69 254 255 69 254 255 69 254 255 69 254 255 69 254 255 69 254 252 72 255 252 66 253 255 67 251 248 71 247 255 100 255 249 104 255 254 106 255 254 100 250 255 102 255 255 102 255 255 102 255 255 102 255 255 102 255 255 102 255 255 102 255 255 102 255 255 133 254 255 133 254 255 133 254 255 133 254 255 133 254 255 133 254 255 133 254 255 133 254 252 136 255 255 131 255 255 132 252 249 135 246 255 165 255 251 168 255 254 170 255 255 165 252 255 166 254 255 166 254 255 166 254 255 166 254 255 166 254 255 166 254 255 166 254 255 166 254 255 197 255 255 197 255 255 197 255 255 197 255 255 197 255 255 197 255 255 197 255 255 197 255 252 198 255 255 195 255 255 199 255 252 200 248 255 227 255 248 228 255 254 232 255 255 228 252 255 228 253 253 231 254 251 232 254 254 230 254 255 229 255 255 230 255 244 237 255 234 244 255 11 231 245 11 243 253 7 252 255 5 250 255 7 244 252 13 244 254 12 246 255 5 248 254 11 245 254 5 246 255 10 248 255 20 239 255 28 221 252 40 213 253 44 215 255 39 216 255 38 215 255 39 215 255 39 215 255 41 214 255 41 214 255 42 213 255 42 213 255 44 213 255 70 184 255 70 184 255 71 183 255 71 183 255 72 183 255 74 182 255 74 182 255 74 182 255 72 183 255 8 249 255 8 249 255 8 249 255 8 249 255 8 249 255 8 249 255 8 249 255 8 249 255 6 248 252 3 248 251 7 250 255 16 242 255 25 223 250 36 216 251 40 218 255 36 218 255 37 219 255 37 219 255 39 219 255 39 219 255 40 218 255 40 218 255 41 217 255 41 217 255 68 185 254 68 185 254 68 185 254 68 185 254 68 185 254 68 185 254 68 185 254 68 185 254 72 185 255 67 184 254 73 187 255 82 179 255 89 160 252 99 151 252 
104 153 255 100 153 255 101 153 255 101 153 255 101 153 255 101 153 255 101 153 255 101 153 255 101 153 255 101 153 255 130 123 255 132 122 255 132 122 255 133 121 255 133 121 255 134 120 255 134 120 255 136 120 255 135 119 252 129 119 252 134 122 255 145 113 255 152 95 250 164 87 251 168 89 255 163 90 255 163 90 255 165 90 255 165 90 255 166 89 255 166 89 255 167 88 255 167 88 255 169 88 255 195 59 255 195 59 255 196 58 255 196 58 255 198 58 255 199 57 255 199 57 255 199 57 255 198 58 253 194 58 254 198 60 255 209 51 255 218 33 251 230 25 252 236 26 255 232 26 255 229 26 255 231 25 255 231 25 255 232 25 255 232 25 255 234 24 255 234 24 255 235 23 255 255 6 255 255 6 255 255 6 255 255 6 255 255 6 255 255 6 255 255 6 255 255 6 255 253 9 255 255 2 251 255 4 250 250 7 245 255 37 255 251 40 255 254 41 253 255 36 248 255 39 254 255 39 254 255 39 254 255 39 254 255 39 254 255 39 254 255 39 254 255 39 254 255 69 254 255 69 254 255 69 254 255 69 254 255 69 254 255 69 254 255 69 254 255 69 254 252 72 255 252 66 253 255 67 251 248 71 247 255 100 255 249 104 255 254 106 255 254 100 250 255 102 255 255 102 255 255 102 255 255 102 255 255 102 255 255 102 255 255 102 255 255 102 255 255 133 254 255 133 254 255 133 254 255 133 254 255 133 254 255 133 254 255 133 254 255 133 254 252 136 255 255 131 255 255 132 252 249 135 246 255 165 255 251 168 255 254 170 255 255 165 252 255 166 254 255 166 254 255 166 254 255 166 254 255 166 254 255 166 254 255 166 254 255 166 254 255 197 255 255 197 255 255 197 255 255 197 255 255 197 255 255 197 255 255 197 255 255 197 255 252 198 255 255 195 255 255 199 255 252 200 248 255 227 255 248 228 255 254 232 255 255 228 252 255 228 253 253 231 254 251 232 254 254 230 254 255 229 255 255 230 255 244 237 255 234 244 255 11 231 245 11 243 253 7 252 255 5 250 255 7 244 252 13 244 254 12 246 255 5 248 254 11 245 254 5 246 255 10 248 255 20 239 255 28 221 252 40 213 253 44 215 255 39 216 255 38 215 255 39 215 255 39 215 255 41 214 255 41 214 255 42 213 255 42 213 255 44 213 255 70 184 255 70 184 255 71 183 255 71 183 255 72 183 255 74 182 255 74 182 255 74 182 255 72 183 255 8 249 255 8 249 255 8 249 255 8 249 255 8 249 255 8 249 255 8 249 255 8 249 255 6 248 252 3 248 251 7 250 255 16 242 255 25 223 250 36 216 251 40 218 255 36 218 255 37 219 255 37 219 255 39 219 255 39 219 255 40 218 255 40 218 255 41 217 255 41 217 255 68 185 254 68 185 254 68 185 254 68 185 254 68 185 254 68 185 254 68 185 254 68 185 254 72 185 255 67 184 254 73 187 255 82 179 255 89 160 252 99 151 252 104 153 255 100 153 255 101 153 255 101 153 255 101 153 255 101 153 255 101 153 255 101 153 255 101 153 255 101 153 255 130 123 255 132 122 255 132 122 255 133 121 255 133 121 255 134 120 255 134 120 255 136 120 255 135 119 252 129 119 252 134 122 255 145 113 255 152 95 250 164 87 251 168 89 255 163 90 255 163 90 255 165 90 255 165 90 255 166 89 255 166 89 255 
167 88 255 167 88 255 169 88 255 195 59 255 195 59 255 196 58 255 196 58 255 198 58 255 199 57 255 199 57 255 199 57 255 198 58 253 194 58 254 198 60 255 209 51 255 218 33 251 230 25 252 236 26 255 232 26 255 229 26 255 231 25 255 231 25 255 232 25 255 232 25 255 234 24 255 234 24 255 235 23 255 255 6 255 255 6 255 255 6 255 255 6 255 255 6 255 255 6 255 255 6 255 255 6 255 253 9 255 255 2 251 255 4 250 250 7 245 255 37 255 251 40 255 254 41 253 255 36 248 255 39 254 255 39 254 255 39 254 255 39 254 255 39 254 255 39 254 255 39 254 255 39 254 255 69 254 255 69 254 255 69 254 255 69 254 255 69 254 255 69 254 255 69 254 255 69 254 252 72 255 252 66 253 255 67 251 248 71 247 255 100 255 249 104 255 254 106 255 254 100 250 255 102 255 255 102 255 255 102 255 255 102 255 255 102 255 255 102 255 255 102 255 255 102 255 255 133 254 255 133 254 255 133 254 255 133 254 255 133 254 255 133 254 255 133 254 255 133 254 252 136 255 255 131 255 255 132 252 249 135 246 255 165 255 251 168 255 254 170 255 255 165 252 255 166 254 255 166 254 255 166 254 255 166 254 255 166 254 255 166 254 255 166 254 255 166 254 255 197 255 255 197 255 255 197 255 255 197 255 255 197 255 255 197 255 255 197 255 255 197 255 252 198 255 255 195 255 255 199 255 252 200 248 255 227 255 248 228 255 254 232 255 255 228 252 255 228 253 253 231 254 251 232 254 254 230 254 255 229 255 255 230 255 244 237 255 234 244 255 11 231 245 11 243 253 7 252 255 5 250 255 7 244 252 13 244 254 12 246 255 5 248 254 11 245 254 5 246 255 10 248 255 20 239 255 28 221 252 40 213 253 44 215 255 39 216 255 38 215 255 39 215 255 39 215 255 41 214 255 41 214 255 42 213 255 42 213 255 44 213 255 70 184 255 70 184 255 71 183 255 71 183 255 72 183 255 74 182 255 74 182 255 74 182 255 72 183 255 8 249 255 8 249 255 8 249 255 8 249 255 8 249 255 8 249 255 8 249 255 8 249 255 6 248 252 3 248 251 7 250 255 16 242 255 25 223 250 36 216 251 40 218 255 36 218 255 37 219 255 37 219 255 39 219 255 39 219 255 40 218 255 40 218 255 41 217 255 41 217 255 68 185 254 68 185 254 68 185 254 68 185 254 68 185 254 68 185 254 68 185 254 68 185 254 72 185 255 67 184 254 73 187 255 82 179 255 89 160 252 99 151 252 104 153 255 100 153 255 101 153 255 101 153 255 101 153 255 101 153 255 101 153 255 101 153 255 101 153 255 101 153 255 130 123 255 132 122 255 132 122 255 133 121 255 133 121 255 134 120 255 134 120 255 136 120 255 135 119 252 129 119 252 134 122 255 145 113 255 152 95 250 164 87 251 168 89 255 163 90 255 163 90 255 165 90 255 165 90 255 166 89 255 166 89 255 167 88 255 167 88 255 169 88 255 195 59 255 195 59 255 196 58 255 196 58 255 198 58 255 199 57 255 199 57 255 199 57 255 198 58 253 194 58 254 198 60 255 209 51 255 218 33 251 230 25 252 236 26 255 232 26 255 229 26 255 231 25 255 231 25 255 232 25 255 232 25 255 234 24 255 234 24 255 235 23 255 255 6 255 255 6 255 255 6 255 255 6 255 
255 6 255 255 6 255 255 6 255 255 6 255 253 9 255 255 2 251 255 4 250 250 7 245 255 37 255 251 40 255 254 41 253 255 36 248 255 39 254 255 39 254 255 39 254 255 39 254 255 39 254 255 39 254 255 39 254 255 39 254 255 69 254 255 69 254 255 69 254 255 69 254 255 69 254 255 69 254 255 69 254 255 69 254 252 72 255 252 66 253 255 67 251 248 71 247 255 100 255 249 104 255 254 106 255 254 100 250 255 102 255 255 102 255 255 102 255 255 102 255 255 102 255 255 102 255 255 102 255 255 102 255 255 133 254 255 133 254 255 133 254 255 133 254 255 133 254 255 133 254 255 133 254 255 133 254 252 136 255 255 131 255 255 132 252 249 135 246 255 165 255 251 168 255 254 170 255 255 165 252 255 166 254 255 166 254 255 166 254 255 166 254 255 166 254 255 166 254 255 166 254 255 166 254 255 197 255 255 197 255 255 197 255 255 197 255 255 197 255 255 197 255 255 197 255 255 197 255 252 198 255 255 195 255 255 199 255 252 200 248 255 227 255 248 228 255 254 232 255 255 228 252 255 228 253 253 231 254 251 232 254 254 230 254 255 229 255 255 230 255 244 237 255 234 244 255 11 231 245 11 243 253 7 252 255 5 250 255 7 244 252 13 244 254 12 246 255 5 248 254 11 245 254 5 246 255 10 248 255 20 239 255 28 221 252 40 213 253 44 215 255 39 216 255 38 215 255 39 215 255 39 215 255 41 214 255 41 214 255 42 213 255 42 213 255 44 213 255 70 184 255 70 184 255 71 183 255 71 183 255 72 183 255 74 182 255 74 182 255 74 182 255 72 183 255 8 249 255 8 249 255 8 249 255 8 249 255 8 249 255 8 249 255 8 249 255 8 249 255 6 248 252 3 248 251 7 250 255 16 242 255 25 223 250 36 216 251 40 218 255 36 218 255 37 219 255 37 219 255 39 219 255 39 219 255 40 218 255 40 218 255 41 217 255 41 217 255 68 185 254 68 185 254 68 185 254 68 185 254 68 185 254 68 185 254 68 185 254 68 185 254 72 185 255 67 184 254 73 187 255 82 179 255 89 160 252 99 151 252 104 153 255 100 153 255 101 153 255 101 153 255 101 153 255 101 153 255 101 153 255 101 153 255 101 153 255 101 153 255 130 123 255 132 122 255 132 122 255 133 121 255 133 121 255 134 120 255 134 120 255 136 120 255 135 119 252 129 119 252 134 122 255 145 113 255 152 95 250 164 87 251 168 89 255 163 90 255 163 90 255 165 90 255 165 90 255 166 89 255 166 89 255 167 88 255 167 88 255 169 88 255 195 59 255 195 59 255 196 58 255 196 58 255 198 58 255 199 57 255 199 57 255 199 57 255 198 58 253 194 58 254 198 60 255 209 51 255 218 33 251 230 25 252 236 26 255 232 26 255 229 26 255 231 25 255 231 25 255 232 25 255 232 25 255 234 24 255 234 24 255 235 23 255 255 6 255 255 6 255 255 6 255 255 6 255 255 6 255 255 6 255 255 6 255 255 6 255 253 9 255 255 2 251 255 4 250 250 7 245 255 37 255 251 40 255 254 41 253 255 36 248 255 39 254 255 39 254 255 39 254 255 39 254 255 39 254 255 39 254 255 39 254 255 39 254 255 69 254 255 69 254 255 69 254 255 69 254 255 69 254 255 69 254 255 69 254 255 69 254 252 72 255 252 66 253 255 67 251 
248 71 247 255 100 255 249 104 255 254 106 255 254 100 250 255 102 255 255 102 255 255 102 255 255 102 255 255 102 255 255 102 255 255 102 255 255 102 255 255 133 254 255 133 254 255 133 254 255 133 254 255 133 254 255 133 254 255 133 254 255 133 254 252 136 255 255 131 255 255 132 252 249 135 246 255 165 255 251 168 255 254 170 255 255 165 252 255 166 254 255 166 254 255 166 254 255 166 254 255 166 254 255 166 254 255 166 254 255 166 254 255 197 255 255 197 255 255 197 255 255 197 255 255 197 255 255 197 255 255 197 255 255 197 255 252 198 255 255 195 255 255 199 255 252 200 248 255 227 255 248 228 255 254 232 255 255 228 252 255 228 253 253 231 254 251 232 254 254 230 254 255 229 255 255 230 255 244 237 255 234 244 255 11 231 245 11 243 253 7 252 255 5 250 255 7 244 252 13 244 254 12 246 255 5 248 254 11 245 254 5 246 255 10 248 255 20 239 255 28 221 252 40 213 253 44 215 255 39 216 255 38 215 255 39 215 255 39 215 255 41 214 255 41 214 255 42 213 255 42 213 255 44 213 255 70 184 255 70 184 255 71 183 255 71 183 255 72 183 255 74 182 255 74 182 255 74 182 255 72 183 255 8 249 255 8 249 255 8 249 255 8 249 255 8 249 255 8 249 255 8 249 255 8 249 255 6 248 252 3 248 251 7 250 255 16 242 255 25 223 250 36 216 251 40 218 255 36 218 255 37 219 255 37 219 255 39 219 255 39 219 255 40 218 255 40 218 255 41 217 255 41 217 255 68 185 254 68 185 254 68 185 254 68 185 254 68 185 254 68 185 254 68 185 254 68 185 254 72 185 255 67 184 254 73 187 255 82 179 255 89 160 252 99 151 252 104 153 255 100 153 255 101 153 255 101 153 255 101 153 255 101 153 255 101 153 255 101 153 255 101 153 255 101 153 255 130 123 255 132 122 255 132 122 255 133 121 255 133 121 255 134 120 255 134 120 255 136 120 255 135 119 252 129 119 252 134 122 255 145 113 255 152 95 250 164 87 251 168 89 255 163 90 255 163 90 255 165 90 255 165 90 255 166 89 255 166 89 255 167 88 255 167 88 255 169 88 255 195 59 255 195 59 255 196 58 255 196 58 255 198 58 255 199 57 255 199 57 255 199 57 255 198 58 253 194 58 254 198 60 255 209 51 255 218 33 251 230 25 252 236 26 255 232 26 255 229 26 255 231 25 255 231 25 255 232 25 255 232 25 255 234 24 255 234 24 255 235 23 255 255 6 255 255 6 255 255 6 255 255 6 255 255 6 255 255 6 255 255 6 255 255 6 255 253 9 255 255 2 251 255 4 250 250 7 245 255 37 255 251 40 255 254 41 253 255 36 248 255 39 254 255 39 254 255 39 254 255 39 254 255 39 254 255 39 254 255 39 254 255 39 254 255 69 254 255 69 254 255 69 254 255 69 254 255 69 254 255 69 254 255 69 254 255 69 254 252 72 255 252 66 253 255 67 251 248 71 247 255 100 255 249 104 255 254 106 255 254 100 250 255 102 255 255 102 255 255 102 255 255 102 255 255 102 255 255 102 255 255 102 255 255 102 255 255 133 254 255 133 254 255 133 254 255 133 254 255 133 254 255 133 254 255 133 254 255 133 254 252 136 255 255 131 255 255 132 252 249 135 246 255 165 255 251 168 255 254 170 255 255 165 252 255 166 254 255 166 254 
255 166 254 255 166 254 255 166 254 255 166 254 255 166 254 255 166 254 255 197 255 255 197 255 255 197 255 255 197 255 255 197 255 255 197 255 255 197 255 255 197 255 252 198 255 255 195 255 255 199 255 252 200 248 255 227 255 248 228 255 254 232 255 255 228 252 255 228 253 253 231 254 251 232 254 254 230 254 255 229 255 255 230 255 244 237 255 234 244 255 11 231 245 11 243 253 7 252 255 5 250 255 7 244 252 13 244 254 12 246 255 5 248 254 11 245 254 5 246 255 10 248 255 20 239 255 28 221 252 40 213 253 44 215 255 39 216 255 38 215 255 39 215 255 39 215 255 41 214 255 41 214 255 42 213 255 42 213 255 44 213 255 70 184 255 70 184 255 71 183 255 71 183 255 72 183 255 74 182 255 74 182 255 74 182 255 72 183 255 8 249 255 8 249 255 8 249 255 8 249 255 8 249 255 8 249 255 8 249 255 8 249 255 6 248 252 3 248 251 7 250 255 16 242 255 25 223 250 36 216 251 40 218 255 36 218 255 37 219 255 37 219 255 39 219 255 39 219 255 40 218 255 40 218 255 41 217 255 41 217 255 68 185 254 68 185 254 68 185 254 68 185 254 68 185 254 68 185 254 68 185 254 68 185 254 72 185 255 67 184 254 73 187 255 82 179 255 89 160 252 99 151 252 104 153 255 100 153 255 101 153 255 101 153 255 101 153 255 101 153 255 101 153 255 101 153 255 101 153 255 101 153 255 130 123 255 132 122 255 132 122 255 133 121 255 133 121 255 134 120 255 134 120 255 136 120 255 135 119 252 129 119 252 134 122 255 145 113 255 152 95 250 164 87 251 168 89 255 163 90 255 163 90 255 165 90 255 165 90 255 166 89 255 166 89 255 167 88 255 167 88 255 169 88 255 195 59 255 195 59 255 196 58 255 196 58 255 198 58 255 199 57 255 199 57 255 199 57 255 198 58 253 194 58 254 198 60 255 209 51 255 218 33 251 230 25 252 236 26 255 232 26 255 229 26 255 231 25 255 231 25 255 232 25 255 232 25 255 234 24 255 234 24 255 235 23 255 255 6 255 255 6 255 255 6 255 255 6 255 255 6 255 255 6 255 255 6 255 255 6 255 253 9 255 255 2 251 255 4 250 250 7 245 255 37 255 251 40 255 254 41 253 255 36 248 255 39 254 255 39 254 255 39 254 255 39 254 255 39 254 255 39 254 255 39 254 255 39 254 255 69 254 255 69 254 255 69 254 255 69 254 255 69 254 255 69 254 255 69 254 255 69 254 252 72 255 252 66 253 255 67 251 248 71 247 255 100 255 249 104 255 254 106 255 254 100 250 255 102 255 255 102 255 255 102 255 255 102 255 255 102 255 255 102 255 255 102 255 255 102 255 255 133 254 255 133 254 255 133 254 255 133 254 255 133 254 255 133 254 255 133 254 255 133 254 252 136 255 255 131 255 255 132 252 249 135 246 255 165 255 251 168 255 254 170 255 255 165 252 255 166 254 255 166 254 255 166 254 255 166 254 255 166 254 255 166 254 255 166 254 255 166 254 255 197 255 255 197 255 255 197 255 255 197 255 255 197 255 255 197 255 255 197 255 255 197 255 252 198 255 255 195 255 255 199 255 252 200 248 255 227 255 248 228 255 254 232 255 255 228 252 255 228 253 253 231 254 251 232 254 254 230 254 255 229 255 255 230 255 244 237 255 234 244 255 11 231 245 
11 243 253 7 252 255 5 250 255 7 244 252 13 244 254 12 246 255 5 248 254 11 245 254 5 246 255 10 248 255 20 239 255 28 221 252 40 213 253 44 215 255 39 216 255 38 215 255 39 215 255 39 215 255 41 214 255 41 214 255 42 213 255 42 213 255 44 213 255 70 184 255 70 184 255 71 183 255 71 183 255 72 183 255 74 182 255 74 182 255 74 182 255 72 183 255 8 247 254 8 247 254 8 247 254 8 247 254 8 247 254 8 247 254 8 247 254 8 247 254 6 248 252 1 249 251 7 250 255 16 242 255 24 224 250 36 216 251 40 218 255 35 219 255 34 218 255 35 217 255 35 217 255 37 216 255 37 216 255 38 215 255 39 215 255 39 215 255 65 186 255 65 186 255 67 185 255 67 185 255 68 185 255 70 184 255 70 184 255 71 183 255 69 186 255 64 185 254 70 188 255 80 179 255 89 160 252 99 151 252 105 152 255 101 152 255 101 153 255 101 153 255 101 153 255 101 153 255 101 153 255 101 153 255 101 153 255 101 153 255 134 120 255 134 120 255 134 120 255 134 120 255 134 120 255 134 120 255 134 120 255 134 120 255 134 121 253 130 120 253 135 123 255 143 114 255 152 95 250 162 87 250 166 89 255 162 89 255 162 89 254 162 89 254 164 89 254 164 89 254 165 88 254 166 87 254 166 87 254 166 87 254 196 58 255 196 58 255 196 58 255 196 58 255 196 58 255 196 58 255 196 58 255 196 58 255 195 58 252 191 57 252 197 59 255 208 50 255 217 32 250 229 24 251 233 26 255 229 26 255 228 25 254 228 25 254 228 25 254 228 25 254 228 25 254 228 25 254 228 25 254 228 25 254 254 5 255 254 5 255 254 5 255 254 5 255 254 5 255 254 5 255 254 5 255 254 5 255 254 10 255 255 3 252 255 5 251 251 8 246 255 38 255 252 41 255 255 43 255 255 37 249 254 39 254 254 39 254 254 39 254 254 39 254 254 39 254 254 39 254 254 39 254 254 39 254 255 69 254 255 69 254 255 69 254 255 69 254 255 69 254 255 69 254 255 69 254 255 69 254 253 73 255 253 67 252 255 69 251 248 72 243 255 100 255 248 104 254 253 105 253 253 99 247 255 102 254 255 102 254 255 102 254 255 102 254 255 102 254 255 102 254 255 102 254 255 102 254 253 134 254 253 134 254 253 134 254 253 134 254 253 134 254 253 134 254 253 134 254 253 134 254 251 136 255 253 129 251 255 131 249 248 135 243 255 164 255 250 167 255 253 169 254 255 163 248 253 167 254 253 167 254 253 167 254 253 167 254 253 167 254 253 167 254 253 167 254 253 167 254 255 197 255 255 197 255 255 197 255 255 197 255 255 197 255 255 197 255 255 197 255 255 197 255 251 200 255 255 197 253 255 201 253 251 202 247 255 229 255 248 230 254 253 234 254 255 230 252 255 230 255 254 232 255 252 233 255 255 231 255 255 229 255 255 230 255 244 237 255 233 243 255 11 231 245 10 244 253 5 252 255 3 250 255 7 244 252 13 244 254 10 247 255 4 249 254 8 247 254 4 247 255 8 249 255 18 241 255 25 223 252 37 215 253 41 217 255 38 217 255 37 216 255 37 216 255 37 216 255 38 215 255 39 215 255 39 215 255 41 214 255 41 214 255 71 182 254 71 182 254 71 182 254 71 182 254 71 182 254 71 182 254 71 182 254 71 182 254 
73 181 254 8 247 254 8 247 254 8 247 254 8 247 254 8 247 254 8 247 254 8 247 254 8 247 254 6 248 252 3 248 251 7 250 255 16 242 255 24 224 250 36 216 251 40 218 255 36 218 255 35 217 255 35 217 255 35 217 255 37 216 255 38 215 255 38 215 255 39 215 255 39 215 255 65 186 255 67 185 255 67 185 255 68 185 255 68 185 255 70 184 255 71 183 255 71 183 255 69 186 255 64 185 254 71 187 255 82 179 255 89 160 252 101 150 252 105 152 255 101 152 255 101 153 255 101 153 255 101 153 255 101 153 255 101 153 255 101 153 255 101 153 255 101 153 255 134 120 255 134 120 255 134 120 255 134 120 255 134 120 255 134 120 255 134 120 255 134 120 255 134 121 253 130 120 253 135 123 255 145 113 255 152 95 250 162 87 250 166 89 255 162 89 255 162 89 254 162 89 254 164 89 254 164 89 254 165 88 254 166 87 254 166 87 254 168 87 254 198 58 255 198 58 255 198 58 255 198 58 255 198 58 255 198 58 255 198 58 255 198 58 255 195 58 252 191 57 252 197 59 255 208 50 255 217 32 250 229 24 251 235 25 255 231 25 255 230 24 254 230 24 254 230 24 254 230 24 254 230 24 254 230 24 254 230 24 254 230 24 254 254 5 255 254 5 255 254 5 255 254 5 255 254 5 255 254 5 255 254 5 255 254 5 255 254 10 255 255 3 252 255 5 251 251 8 246 255 38 255 252 41 255 255 43 255 255 37 249 254 39 254 254 39 254 254 39 254 254 39 254 254 39 254 254 39 254 254 39 254 254 39 254 255 69 254 255 69 254 255 69 254 255 69 254 255 69 254 255 69 254 255 69 254 255 69 254 253 73 255 253 67 252 255 69 251 248 72 243 255 100 255 248 104 254 253 105 253 253 99 247 255 102 254 255 102 254 255 102 254 255 102 254 255 102 254 255 102 254 255 102 254 255 102 254 253 134 254 253 134 254 253 134 254 253 134 254 253 134 254 253 134 254 253 134 254 253 134 254 251 136 255 254 130 252 255 131 249 248 135 243 255 165 255 250 167 255 253 169 254 255 164 249 253 167 254 253 167 254 253 167 254 253 167 254 253 167 254 253 167 254 253 167 254 253 167 254 255 197 255 255 197 255 255 197 255 255 197 255 255 197 255 255 197 255 255 197 255 255 197 255 251 200 255 255 197 253 255 201 253 251 202 247 255 229 255 248 230 254 253 234 254 255 230 252 255 230 255 254 232 255 252 233 255 255 231 255 255 229 255 255 230 255 244 237 255 233 243 255 11 231 245 10 244 253 5 252 255 5 250 255 7 244 252 13 244 254 10 247 255 4 249 254 8 247 254 4 247 255 8 249 255 18 241 255 27 222 252 37 215 253 41 217 255 38 217 255 37 216 255 37 216 255 38 215 255 38 215 255 39 215 255 41 214 255 41 214 255 41 214 255 71 182 254 71 182 254 71 182 254 71 182 254 71 182 254 71 182 254 71 182 254 71 182 254 73 181 254 8 247 254 8 247 254 8 247 254 8 247 254 8 247 254 8 247 254 8 247 254 8 247 254 6 248 252 3 248 251 7 250 255 18 241 255 25 223 250 36 216 251 40 218 255 36 218 255 35 217 255 35 217 255 37 216 255 37 216 255 38 215 255 39 215 255 39 215 255 41 214 255 67 185 255 67 185 255 68 185 255 68 185 255 70 184 255 71 183 255 
71 183 255 71 183 255 69 186 255 64 185 254 71 187 255 82 179 255 90 159 252 101 150 252 107 151 255 103 152 255 103 152 255 103 152 255 103 152 255 103 152 255 103 152 255 103 152 255 103 152 255 103 152 255 134 120 255 134 120 255 134 120 255 134 120 255 134 120 255 134 120 255 134 120 255 134 120 255 136 120 253 131 119 253 136 122 255 145 113 255 152 95 250 163 86 250 167 88 255 164 88 255 164 89 254 164 89 254 164 89 254 165 88 254 166 87 254 166 87 254 168 87 254 168 87 254 198 58 255 198 58 255 198 58 255 198 58 255 198 58 255 198 58 255 198 58 255 198 58 255 197 57 252 192 56 252 199 58 255 209 50 255 217 32 250 230 23 251 235 25 255 231 25 255 230 24 254 230 24 254 230 24 254 230 24 254 230 24 254 230 24 254 230 24 254 230 24 254 254 5 255 254 5 255 254 5 255 254 5 255 254 5 255 254 5 255 254 5 255 254 5 255 254 10 255 255 3 252 255 5 251 251 8 246 255 38 255 252 41 255 255 43 255 255 37 249 254 39 254 254 39 254 254 39 254 254 39 254 254 39 254 254 39 254 254 39 254 254 39 254 255 69 254 255 69 254 255 69 254 255 69 254 255 69 254 255 69 254 255 69 254 255 69 254 253 73 255 254 68 253 255 69 251 248 72 243 255 101 255 249 105 255 253 105 253 254 100 248 255 102 254 255 102 254 255 102 254 255 102 254 255 102 254 255 102 254 255 102 254 255 102 254 254 135 255 254 135 255 254 135 255 254 135 255 254 135 255 254 135 255 254 135 255 254 135 255 251 136 255 254 130 252 255 132 250 248 135 243 255 165 255 250 167 255 253 169 254 255 164 249 253 167 254 253 167 254 253 167 254 253 167 254 253 167 254 253 167 254 253 167 254 253 167 254 255 198 255 255 198 255 255 198 255 255 198 255 255 198 255 255 198 255 255 198 255 255 198 255 251 200 255 255 197 253 255 201 253 251 202 247 255 229 255 248 230 254 253 234 254 255 230 252 255 230 255 254 232 255 252 233 255 255 231 255 255 229 255 255 230 255 244 237 255 233 243 255 11 231 245 11 243 253 7 252 255 5 250 255 9 243 252 13 244 254 12 246 255 5 248 254 9 246 254 4 247 255 10 248 255 19 240 255 27 222 252 38 214 253 43 216 255 38 217 255 37 216 255 38 215 255 38 215 255 39 215 255 39 215 255 41 214 255 42 213 255 42 213 255 71 182 254 71 182 254 71 182 254 71 182 254 71 182 254 71 182 254 71 182 254 71 182 254 73 181 254 8 247 254 8 247 254 8 247 254 8 247 254 8 247 254 8 247 254 8 247 254 8 247 254 8 247 252 4 247 251 8 249 255 18 241 255 27 222 250 37 215 251 41 217 255 38 217 255 37 216 255 37 216 255 37 216 255 38 215 255 39 215 255 39 215 255 41 214 255 41 214 255 67 185 255 68 185 255 68 185 255 70 184 255 71 183 255 71 183 255 72 183 255 72 183 255 71 185 255 66 184 254 73 187 255 83 178 255 92 158 252 102 150 252 107 151 255 103 152 255 103 152 255 103 152 255 103 152 255 103 152 255 103 152 255 103 152 255 103 152 255 103 152 255 134 120 255 134 120 255 134 120 255 134 120 255 134 120 255 134 120 255 134 120 255 134 120 255 137 119 253 131 119 253 136 122 255 146 112 255 154 94 250 
163 86 250 169 88 255 164 88 255 164 89 254 164 89 254 165 88 254 166 87 254 166 87 254 168 87 254 168 87 254 169 86 254 199 57 255 199 57 255 199 57 255 199 57 255 199 57 255 199 57 255 199 57 255 199 57 255 198 56 252 193 55 252 199 58 255 209 50 255 219 31 250 230 23 251 236 24 255 232 24 255 231 24 254 231 24 254 231 24 254 231 24 254 231 24 254 231 24 254 231 24 254 231 24 254 255 6 255 255 6 255 255 6 255 255 6 255 255 6 255 255 6 255 255 6 255 255 6 255 254 10 255 255 3 252 255 5 251 251 8 246 255 38 255 252 41 255 255 43 255 255 37 249 254 39 254 254 39 254 254 39 254 254 39 254 254 39 254 254 39 254 254 39 254 254 39 254 255 70 255 255 70 255 255 70 255 255 70 255 255 70 255 255 70 255 255 70 255 255 70 255 254 74 255 254 68 253 255 70 252 249 73 244 255 101 255 249 105 255 254 106 254 254 100 248 255 102 254 255 102 254 255 102 254 255 102 254 255 102 254 255 102 254 255 102 254 255 102 254 254 135 255 254 135 255 254 135 255 254 135 255 254 135 255 254 135 255 254 135 255 254 135 255 252 137 255 254 130 252 255 132 250 249 136 244 255 165 255 251 168 255 254 170 255 255 164 249 253 167 254 253 167 254 253 167 254 253 167 254 253 167 254 253 167 254 253 167 254 253 167 254 255 198 255 255 198 255 255 198 255 255 198 255 255 198 255 255 198 255 255 198 255 255 198 255 251 200 255 255 197 253 255 201 253 251 202 247 255 229 255 248 230 254 253 234 254 255 230 252 255 230 255 254 232 255 252 233 255 255 231 255 255 229 255 255 230 255 244 237 255 233 243 255 13 230 245 12 243 253 8 251 255 6 249 255 9 243 252 15 243 254 12 246 255 6 247 254 9 246 254 5 246 255 10 248 255 20 239 255 28 221 252 38 214 253 43 216 255 39 216 255 38 215 255 38 215 255 39 215 255 39 215 255 41 214 255 42 213 255 42 213 255 42 213 255 71 182 254 71 182 254 71 182 254 71 182 254 71 182 254 71 182 254 71 182 254 71 182 254 73 181 254 8 247 254 8 247 254 8 247 254 8 247 254 8 247 254 8 247 254 8 247 254 8 247 254 9 246 252 4 247 251 10 249 255 19 240 255 27 222 250 38 214 251 43 216 255 38 217 255 37 216 255 38 215 255 38 215 255 39 215 255 39 215 255 41 214 255 42 213 255 42 213 255 68 185 255 68 185 255 70 184 255 70 184 255 71 183 255 72 183 255 72 183 255 74 182 255 72 185 255 67 184 254 73 187 255 83 178 255 92 158 252 102 150 252 108 151 255 104 151 255 104 151 255 104 151 255 104 151 255 104 151 255 104 151 255 104 151 255 104 151 255 104 151 255 134 120 255 134 120 255 134 120 255 134 120 255 134 120 255 134 120 255 134 120 255 134 120 255 137 119 253 132 118 253 138 121 255 146 112 255 155 94 250 164 86 250 169 88 255 165 88 255 165 88 254 165 88 254 166 87 254 166 87 254 168 87 254 169 86 254 169 86 254 169 86 254 198 56 254 198 56 254 198 56 254 198 56 254 198 56 254 198 56 254 198 56 254 198 56 254 198 56 252 193 55 252 200 58 255 211 49 255 220 30 250 232 22 251 236 24 255 232 24 255 231 24 254 231 24 254 231 24 254 231 24 254 
231 24 254 231 24 254 231 24 254 231 24 254 255 6 255 255 6 255 255 6 255 255 6 255 255 6 255 255 6 255 255 6 255 255 6 255 254 10 255 255 3 252 255 5 251 251 8 246 255 38 255 252 41 255 255 43 255 255 37 249 254 39 254 254 39 254 254 39 254 254 39 254 254 39 254 254 39 254 254 39 254 254 39 254 255 70 255 255 70 255 255 70 255 255 70 255 255 70 255 255 70 255 255 70 255 255 70 255 254 74 255 255 69 254 255 70 252 249 73 244 255 102 255 250 106 255 254 106 254 255 101 249 255 102 254 255 102 254 255 102 254 255 102 254 255 102 254 255 102 254 255 102 254 255 102 254 255 136 255 255 136 255 255 136 255 255 136 255 255 136 255 255 136 255 255 136 255 255 136 255 252 137 255 255 131 253 255 133 251 249 136 244 255 166 255 251 168 255 254 170 255 255 165 250 253 167 254 253 167 254 253 167 254 253 167 254 253 167 254 253 167 254 253 167 254 253 167 254 255 199 255 255 199 255 255 199 255 255 199 255 255 199 255 255 199 255 255 199 255 255 199 255 251 200 255 255 197 253 255 201 253 251 202 247 255 229 255 248 230 254 253 234 254 255 230 252 255 230 255 254 232 255 252 233 255 255 231 255 255 229 255 255 230 255 244 237 255 233 243 255 14 230 245 12 243 253 8 251 255 6 249 255 10 242 252 16 242 254 13 245 255 6 247 254 11 245 254 7 245 255 11 247 255 20 239 255 28 221 252 40 213 253 44 215 255 40 215 255 39 215 255 39 215 255 39 215 255 41 214 255 42 213 255 42 213 255 44 213 255 44 213 255 71 182 254 71 182 254 71 182 254 71 182 254 71 182 254 71 182 254 71 182 254 71 182 254 73 181 254 8 247 254 8 247 254 8 247 254 8 247 254 8 247 254 8 247 254 8 247 254 8 247 254 9 246 252 5 247 251 10 249 255 20 239 255 28 222 250 38 214 251 43 216 255 39 216 255 38 215 255 38 215 255 39 215 255 39 215 255 41 214 255 42 213 255 42 213 255 42 213 255 70 184 255 70 184 255 70 184 255 71 183 255 72 183 255 72 183 255 74 182 255 74 182 255 72 185 255 67 184 254 74 186 255 85 177 255 93 158 252 104 149 252 109 150 255 106 150 255 104 151 255 104 151 255 104 151 255 104 151 255 104 151 255 104 151 255 104 151 255 104 151 255 134 120 255 134 120 255 134 120 255 134 120 255 134 120 255 134 120 255 134 120 255 134 120 255 139 119 253 134 118 253 139 121 255 147 112 255 155 94 250 166 85 250 170 87 255 166 87 255 165 88 254 166 87 254 166 87 254 168 87 254 169 86 254 169 86 254 171 85 254 171 85 254 200 55 254 200 55 254 200 55 254 200 55 254 200 55 254 200 55 254 200 55 254 200 55 254 200 56 252 195 55 252 200 58 255 212 48 255 220 30 250 232 22 251 237 24 255 234 24 255 233 23 254 233 23 254 233 23 254 233 23 254 233 23 254 233 23 254 233 23 254 233 23 254 255 7 255 255 7 255 255 7 255 255 7 255 255 7 255 255 7 255 255 7 255 255 7 255 254 10 255 255 3 252 255 5 251 251 8 246 255 38 255 252 41 255 255 43 255 255 37 249 254 39 254 254 39 254 254 39 254 254 39 254 254 39 254 254 39 254 254 39 254 254 39 254 255 71 255 255 71 255 255 71 255 
255 71 255 255 71 255 255 71 255 255 71 255 255 71 255 255 75 255 255 69 254 255 71 253 250 74 245 255 102 255 250 106 255 255 107 255 255 101 249 255 102 254 255 102 254 255 102 254 255 102 254 255 102 254 255 102 254 255 102 254 255 102 254 255 136 255 255 136 255 255 136 255 255 136 255 255 136 255 255 136 255 255 136 255 255 136 255 253 138 255 255 131 253 255 133 251 250 137 245 255 166 255 252 169 255 255 171 255 255 165 250 253 167 254 253 167 254 253 167 254 253 167 254 253 167 254 253 167 254 253 167 254 253 167 254 255 199 255 255 199 255 255 199 255 255 199 255 255 199 255 255 199 255 255 199 255 255 199 255 251 200 255 255 197 253 255 201 253 251 202 247 255 229 255 248 230 254 253 234 254 255 230 252 255 230 255 254 232 255 252 233 255 255 231 255 255 229 255 255 230 255 244 237 255 233 243 255 14 230 245 14 242 253 9 250 255 7 248 255 11 242 252 16 242 254 14 245 255 8 247 254 12 244 254 7 245 255 11 247 255 22 238 255 30 220 252 40 213 253 46 215 255 40 215 255 39 215 255 39 215 255 41 214 255 42 213 255 42 213 255 44 213 255 44 213 255 45 212 255 71 182 254 71 182 254 71 182 254 71 182 254 71 182 254 71 182 254 71 182 254 71 182 254 73 181 254 8 247 254 8 247 254 8 247 254 8 247 254 8 247 254 8 247 254 8 247 254 8 247 254 11 245 252 7 246 251 11 248 255 20 239 255 28 222 250 40 214 251 44 216 255 40 216 255 38 215 255 39 215 255 39 215 255 41 214 255 42 213 255 42 213 255 44 213 255 44 213 255 70 184 255 70 184 255 71 183 255 72 183 255 72 183 255 74 182 255 74 182 255 75 181 255 73 184 255 69 183 254 74 186 255 86 177 255 93 158 252 104 149 252 109 150 255 106 150 255 106 150 255 106 150 255 106 150 255 106 150 255 106 150 255 106 150 255 106 150 255 106 150 255 134 120 255 134 120 255 134 120 255 134 120 255 134 120 255 134 120 255 134 120 255 134 120 255 139 119 253 134 118 253 139 121 255 149 111 255 157 93 250 166 85 250 170 87 255 166 87 255 166 87 254 166 87 254 168 87 254 168 87 254 169 86 254 171 85 254 171 85 254 171 85 254 199 54 253 199 54 253 199 54 253 199 54 253 199 54 253 199 54 253 199 54 253 199 54 253 200 56 252 195 55 252 202 57 255 212 48 255 221 29 250 233 22 251 239 23 255 235 23 255 233 23 254 233 23 254 233 23 254 233 23 254 233 23 254 233 23 254 233 23 254 233 23 254 255 7 255 255 7 255 255 7 255 255 7 255 255 7 255 255 7 255 255 7 255 255 7 255 254 10 255 255 3 252 255 5 251 251 8 246 255 38 255 252 41 255 255 43 255 255 37 249 254 39 254 254 39 254 254 39 254 254 39 254 254 39 254 254 39 254 254 39 254 254 39 254 255 71 255 255 71 255 255 71 255 255 71 255 255 71 255 255 71 255 255 71 255 255 71 255 255 75 255 255 69 254 255 71 253 250 74 245 255 102 255 250 106 255 255 107 255 255 101 249 255 102 254 255 102 254 255 102 254 255 102 254 255 102 254 255 102 254 255 102 254 255 102 254 255 136 255 255 136 255 255 136 255 255 136 255 255 136 255 255 136 255 255 136 255 255 136 255 253 138 255 255 132 254 
255 133 251 250 137 245 255 167 255 252 169 255 255 171 255 255 166 251 253 167 254 253 167 254 253 167 254 253 167 254 253 167 254 253 167 254 253 167 254 253 167 254 255 200 255 255 200 255 255 200 255 255 200 255 255 200 255 255 200 255 255 200 255 255 200 255 251 200 255 255 197 253 255 201 253 251 202 247 255 229 255 248 230 254 253 234 254 255 230 252 255 230 255 254 232 255 252 233 255 255 231 255 255 229 255 255 230 255 244 237 255 233 243 255 16 229 245 14 242 253 9 250 255 9 248 255 11 242 252 18 242 254 14 245 255 8 247 254 12 244 254 8 244 255 13 246 255 22 238 255 31 220 252 41 213 253 46 215 255 42 215 255 41 214 255 41 214 255 41 214 255 42 213 255 44 213 255 44 213 255 45 212 255 45 212 255 71 182 254 71 182 254 71 182 254 71 182 254 71 182 254 71 182 254 71 182 254 71 182 254 73 181 254 8 247 254 8 247 254 8 247 254 8 247 254 8 247 254 8 247 254 8 247 254 8 247 254 11 245 252 7 246 251 11 248 255 20 239 255 30 221 250 40 214 251 44 216 255 40 216 255 39 215 255 39 215 255 39 215 255 41 214 255 42 213 255 42 213 255 44 213 255 44 213 255 70 184 255 71 183 255 71 183 255 72 183 255 74 182 255 74 182 255 75 181 255 75 181 255 73 184 255 69 183 254 75 185 255 86 177 255 94 157 252 105 148 252 109 150 255 106 150 255 106 150 255 106 150 255 106 150 255 106 150 255 106 150 255 106 150 255 106 150 255 106 150 255 134 120 255 134 120 255 134 120 255 134 120 255 134 120 255 134 120 255 134 120 255 134 120 255 140 118 253 134 118 253 139 121 255 149 111 255 157 93 250 166 85 250 172 86 255 166 87 255 166 87 254 166 87 254 168 87 254 169 86 254 169 86 254 171 85 254 171 85 254 172 84 254 200 53 253 200 53 253 200 53 253 200 53 253 200 53 253 200 53 253 200 53 253 200 53 253 201 55 252 196 54 252 202 57 255 212 48 255 221 29 250 233 22 251 239 23 255 235 23 255 234 22 254 234 22 254 234 22 254 234 22 254 234 22 254 234 22 254 234 22 254 234 22 254 255 7 255 255 7 255 255 7 255 255 7 255 255 7 255 255 7 255 255 7 255 255 7 255 254 10 255 255 3 252 255 5 251 251 8 246 255 38 255 252 41 255 255 43 255 255 37 249 254 39 254 254 39 254 254 39 254 254 39 254 254 39 254 254 39 254 254 39 254 254 39 254 255 71 255 255 71 255 255 71 255 255 71 255 255 71 255 255 71 255 255 71 255 255 71 255 255 75 255 255 70 255 255 71 253 250 74 245 255 102 255 251 107 255 255 107 255 255 102 250 255 102 254 255 102 254 255 102 254 255 102 254 255 102 254 255 102 254 255 102 254 255 102 254 255 136 255 255 136 255 255 136 255 255 136 255 255 136 255 255 136 255 255 136 255 255 136 255 253 138 255 255 132 254 255 134 252 250 137 245 255 167 255 252 169 255 255 171 255 255 166 251 253 167 254 253 167 254 253 167 254 253 167 254 253 167 254 253 167 254 253 167 254 253 167 254 255 200 255 255 200 255 255 200 255 255 200 255 255 200 255 255 200 255 255 200 255 255 200 255 251 200 255 255 197 253 255 201 253 251 202 247 255 229 255 248 230 254 253 234 254 255 230 252 255 230 255 
254 232 255 252 233 255 255 231 255 255 229 255 255 230 255 244 237 255 233 243 255 16 229 245 15 241 253 11 250 255 9 248 255 11 242 252 18 242 254 16 244 255 9 246 254 12 244 254 8 244 255 13 246 255 23 238 255 31 220 252 41 213 253 46 215 255 42 215 255 41 214 255 41 214 255 42 213 255 42 213 255 44 213 255 45 212 255 45 212 255 45 212 255 71 182 254 71 182 254 71 182 254 71 182 254 71 182 254 71 182 254 71 182 254 71 182 254 73 181 254 8 247 254 8 247 254 8 247 254 8 247 254 8 247 254 8 247 254 8 247 254 8 247 254 11 245 254 5 246 255 10 248 255 20 239 255 28 221 252 40 213 253 44 215 255 39 216 255 38 215 255 39 215 255 39 215 255 41 214 255 41 214 255 42 213 255 42 213 255 44 213 255 70 184 255 70 184 255 71 183 255 71 183 255 72 183 255 74 182 255 74 182 255 74 182 255 72 183 254 69 183 254 73 185 255 84 176 255 93 158 252 105 150 253 110 151 255 107 151 255 104 151 255 106 150 255 106 150 255 107 150 255 107 150 255 108 149 255 108 149 255 110 148 255 134 120 255 134 120 255 134 120 255 134 120 255 134 120 255 134 120 255 134 120 255 134 120 255 136 120 253 131 119 253 138 121 255 147 112 255 157 93 250 167 84 250 173 85 255 169 86 255 166 87 254 166 87 254 168 87 254 168 87 254 169 86 254 169 86 254 171 85 254 171 85 254 200 55 255 200 55 255 200 55 255 200 55 255 200 55 255 200 55 255 200 55 255 200 55 255 200 55 254 195 54 254 202 57 255 212 48 255 221 29 252 233 21 255 237 23 255 234 23 255 233 23 255 233 23 255 233 23 255 233 23 255 233 23 255 233 23 255 233 23 255 233 23 255 254 8 255 254 8 255 254 8 255 254 8 255 254 8 255 254 8 255 254 8 255 254 8 255 253 10 255 254 4 252 255 6 251 250 9 246 255 38 255 251 42 255 254 44 255 255 38 249 255 40 255 255 40 255 255 40 255 255 40 255 255 40 255 255 40 255 255 40 255 255 40 255 255 71 255 255 71 255 255 71 255 255 71 255 255 71 255 255 71 255 255 71 255 255 71 255 253 73 255 255 70 255 255 74 255 252 76 247 255 101 255 248 104 254 254 106 254 255 104 252 254 104 255 254 104 255 254 104 255 254 104 255 254 104 255 254 104 255 254 104 255 254 104 255 255 136 254 255 136 254 255 136 254 255 136 254 255 136 254 255 136 254 255 136 254 255 136 254 251 137 255 255 134 255 255 138 255 251 139 247 255 166 255 247 167 254 253 171 255 255 168 252 253 167 254 253 167 254 253 167 254 253 167 254 253 167 254 253 167 254 253 167 254 253 167 254 255 200 255 255 200 255 255 200 255 255 200 255 255 200 255 255 200 255 255 200 255 255 200 255 251 200 255 255 197 253 255 201 253 251 202 247 255 229 255 248 230 254 253 234 254 255 230 252 255 231 255 255 233 255 253 234 255 255 232 255 255 230 255 255 231 255 245 238 255 234 244 255 16 229 245 14 242 253 9 250 255 7 248 255 11 242 252 18 242 254 14 245 255 8 247 254 12 244 254 8 244 255 13 246 255 22 238 255 30 220 252 41 213 253 46 215 255 42 215 255 41 214 255 41 214 255 41 214 255 42 213 255 44 213 255 44 213 255 45 212 255 45 212 255 
73 181 254 73 181 254 73 181 254 73 181 254 73 181 254 73 181 254 73 181 254 73 181 254 73 181 254 8 247 254 8 247 254 8 247 254 8 247 254 8 247 254 8 247 254 8 247 254 8 247 254 11 245 254 5 246 255 10 248 255 20 239 255 28 221 252 40 213 253 44 215 255 39 216 255 38 215 255 39 215 255 39 215 255 41 214 255 41 214 255 42 213 255 42 213 255 44 213 255 70 184 255 70 184 255 71 183 255 71 183 255 72 183 255 74 182 255 74 182 255 74 182 255 72 183 254 69 183 254 73 185 255 84 176 255 93 158 252 105 150 253 110 151 255 107 151 255 104 151 255 106 150 255 106 150 255 107 150 255 107 150 255 108 149 255 108 149 255 110 148 255 134 120 255 134 120 255 134 120 255 134 120 255 134 120 255 134 120 255 134 120 255 134 120 255 136 120 253 131 119 253 138 121 255 147 112 255 157 93 250 167 84 250 173 85 255 169 86 255 166 87 254 166 87 254 168 87 254 168 87 254 169 86 254 169 86 254 171 85 254 171 85 254 200 55 255 200 55 255 200 55 255 200 55 255 200 55 255 200 55 255 200 55 255 200 55 255 200 55 254 195 54 254 202 57 255 212 48 255 221 29 252 233 21 255 237 23 255 234 23 255 233 23 255 233 23 255 233 23 255 233 23 255 233 23 255 233 23 255 233 23 255 233 23 255 254 8 255 254 8 255 254 8 255 254 8 255 254 8 255 254 8 255 254 8 255 254 8 255 253 10 255 254 4 252 255 6 251 250 9 246 255 38 255 251 42 255 254 44 255 255 38 249 255 40 255 255 40 255 255 40 255 255 40 255 255 40 255 255 40 255 255 40 255 255 40 255 255 71 255 255 71 255 255 71 255 255 71 255 255 71 255 255 71 255 255 71 255 255 71 255 253 73 255 255 70 255 255 74 255 252 76 247 255 101 255 248 104 254 254 106 254 255 104 252 254 104 255 254 104 255 254 104 255 254 104 255 254 104 255 254 104 255 254 104 255 254 104 255 255 136 254 255 136 254 255 136 254 255 136 254 255 136 254 255 136 254 255 136 254 255 136 254 251 137 255 255 134 255 255 138 255 251 139 247 255 166 255 247 167 254 253 171 255 255 168 252 253 167 254 253 167 254 253 167 254 253 167 254 253 167 254 253 167 254 253 167 254 253 167 254 255 200 255 255 200 255 255 200 255 255 200 255 255 200 255 255 200 255 255 200 255 255 200 255 251 200 255 255 197 253 255 201 253 251 202 247 255 229 255 248 230 254 253 234 254 255 230 252 255 231 255 255 233 255 253 234 255 255 232 255 255 230 255 255 231 255 245 238 255 234 244 255 16 229 245 14 242 253 9 250 255 7 248 255 11 242 252 18 242 254 14 245 255 8 247 254 12 244 254 8 244 255 13 246 255 22 238 255 30 220 252 41 213 253 46 215 255 42 215 255 41 214 255 41 214 255 41 214 255 42 213 255 44 213 255 44 213 255 45 212 255 45 212 255 73 181 254 73 181 254 73 181 254 73 181 254 73 181 254 73 181 254 73 181 254 73 181 254 73 181 254 8 247 254 8 247 254 8 247 254 8 247 254 8 247 254 8 247 254 8 247 254 8 247 254 11 245 254 5 246 255 10 248 255 20 239 255 28 221 252 40 213 253 44 215 255 39 216 255 38 215 255 39 215 255 39 215 255 41 214 255 41 214 255 42 213 255 
42 213 255 44 213 255 70 184 255 70 184 255 71 183 255 71 183 255 72 183 255 74 182 255 74 182 255 74 182 255 72 183 254 69 183 254 73 185 255 84 176 255 93 158 252 105 150 253 110 151 255 107 151 255 104 151 255 106 150 255 106 150 255 107 150 255 107 150 255 108 149 255 108 149 255 110 148 255 134 120 255 134 120 255 134 120 255 134 120 255 134 120 255 134 120 255 134 120 255 134 120 255 136 120 253 131 119 253 138 121 255 147 112 255 157 93 250 167 84 250 173 85 255 169 86 255 166 87 254 166 87 254 168 87 254 168 87 254 169 86 254 169 86 254 171 85 254 171 85 254 200 55 255 200 55 255 200 55 255 200 55 255 200 55 255 200 55 255 200 55 255 200 55 255 200 55 254 195 54 254 202 57 255 212 48 255 221 29 252 233 21 255 237 23 255 234 23 255 233 23 255 233 23 255 233 23 255 233 23 255 233 23 255 233 23 255 233 23 255 233 23 255 254 8 255 254 8 255 254 8 255 254 8 255 254 8 255 254 8 255 254 8 255 254 8 255 253 10 255 254 4 252 255 6 251 250 9 246 255 38 255 251 42 255 254 44 255 255 38 249 255 40 255 255 40 255 255 40 255 255 40 255 255 40 255 255 40 255 255 40 255 255 40 255 255 71 255 255 71 255 255 71 255 255 71 255 255 71 255 255 71 255 255 71 255 255 71 255 253 73 255 255 70 255 255 74 255 252 76 247 255 101 255 248 104 254 254 106 254 255 104 252 254 104 255 254 104 255 254 104 255 254 104 255 254 104 255 254 104 255 254 104 255 254 104 255 255 136 254 255 136 254 255 136 254 255 136 254 255 136 254 255 136 254 255 136 254 255 136 254 251 137 255 255 134 255 255 138 255 251 139 247 255 166 255 247 167 254 253 171 255 255 168 252 253 167 254 253 167 254 253 167 254 253 167 254 253 167 254 253 167 254 253 167 254 253 167 254 255 200 255 255 200 255 255 200 255 255 200 255 255 200 255 255 200 255 255 200 255 255 200 255 251 200 255 255 197 253 255 201 253 251 202 247 255 229 255 248 230 254 253 234 254 255 230 252 255 231 255 255 233 255 253 234 255 255 232 255 255 230 255 255 231 255 245 238 255 234 244 255 16 229 245 14 242 253 9 250 255 7 248 255 11 242 252 18 242 254 14 245 255 8 247 254 12 244 254 8 244 255 13 246 255 22 238 255 30 220 252 41 213 253 46 215 255 42 215 255 41 214 255 41 214 255 41 214 255 42 213 255 44 213 255 44 213 255 45 212 255 45 212 255 73 181 254 73 181 254 73 181 254 73 181 254 73 181 254 73 181 254 73 181 254 73 181 254 73 181 254 8 247 254 8 247 254 8 247 254 8 247 254 8 247 254 8 247 254 8 247 254 8 247 254 11 245 254 5 246 255 10 248 255 20 239 255 28 221 252 40 213 253 44 215 255 39 216 255 38 215 255 39 215 255 39 215 255 41 214 255 41 214 255 42 213 255 42 213 255 44 213 255 70 184 255 70 184 255 71 183 255 71 183 255 72 183 255 74 182 255 74 182 255 74 182 255 72 183 254 69 183 254 73 185 255 84 176 255 93 158 252 105 150 253 110 151 255 107 151 255 104 151 255 106 150 255 106 150 255 107 150 255 107 150 255 108 149 255 108 149 255 110 148 255 134 120 255 134 120 255 134 120 255 134 120 255 134 120 255 
134 120 255 134 120 255 134 120 255 136 120 253 131 119 253 138 121 255 147 112 255 157 93 250 167 84 250 173 85 255 169 86 255 166 87 254 166 87 254 168 87 254 168 87 254 169 86 254 169 86 254 171 85 254 171 85 254 200 55 255 200 55 255 200 55 255 200 55 255 200 55 255 200 55 255 200 55 255 200 55 255 200 55 254 195 54 254 202 57 255 212 48 255 221 29 252 233 21 255 237 23 255 234 23 255 233 23 255 233 23 255 233 23 255 233 23 255 233 23 255 233 23 255 233 23 255 233 23 255 254 8 255 254 8 255 254 8 255 254 8 255 254 8 255 254 8 255 254 8 255 254 8 255 253 10 255 254 4 252 255 6 251 250 9 246 255 38 255 251 42 255 254 44 255 255 38 249 255 40 255 255 40 255 255 40 255 255 40 255 255 40 255 255 40 255 255 40 255 255 40 255 255 71 255 255 71 255 255 71 255 255 71 255 255 71 255 255 71 255 255 71 255 255 71 255 253 73 255 255 70 255 255 74 255 252 76 247 255 101 255 248 104 254 254 106 254 255 104 252 254 104 255 254 104 255 254 104 255 254 104 255 254 104 255 254 104 255 254 104 255 254 104 255 255 136 254 255 136 254 255 136 254 255 136 254 255 136 254 255 136 254 255 136 254 255 136 254 251 137 255 255 134 255 255 138 255 251 139 247 255 166 255 247 167 254 253 171 255 255 168 252 253 167 254 253 167 254 253 167 254 253 167 254 253 167 254 253 167 254 253 167 254 253 167 254 255 200 255 255 200 255 255 200 255 255 200 255 255 200 255 255 200 255 255 200 255 255 200 255 251 200 255 255 197 253 255 201 253 251 202 247 255 229 255 248 230 254 253 234 254 255 230 252 255 231 255 255 233 255 253 234 255 255 232 255 255 230 255 255 231 255 245 238 255 234 244 255 16 229 245 14 242 253 9 250 255 7 248 255 11 242 252 18 242 254 14 245 255 8 247 254 12 244 254 8 244 255 13 246 255 22 238 255 30 220 252 41 213 253 46 215 255 42 215 255 41 214 255 41 214 255 41 214 255 42 213 255 44 213 255 44 213 255 45 212 255 45 212 255 73 181 254 73 181 254 73 181 254 73 181 254 73 181 254 73 181 254 73 181 254 73 181 254 73 181 254 8 247 254 8 247 254 8 247 254 8 247 254 8 247 254 8 247 254 8 247 254 8 247 254 11 245 254 5 246 255 10 248 255 20 239 255 28 221 252 40 213 253 44 215 255 39 216 255 38 215 255 39 215 255 39 215 255 41 214 255 41 214 255 42 213 255 42 213 255 44 213 255 70 184 255 70 184 255 71 183 255 71 183 255 72 183 255 74 182 255 74 182 255 74 182 255 72 183 254 69 183 254 73 185 255 84 176 255 93 158 252 105 150 253 110 151 255 107 151 255 104 151 255 106 150 255 106 150 255 107 150 255 107 150 255 108 149 255 108 149 255 110 148 255 134 120 255 134 120 255 134 120 255 134 120 255 134 120 255 134 120 255 134 120 255 134 120 255 136 120 253 131 119 253 138 121 255 147 112 255 157 93 250 167 84 250 173 85 255 169 86 255 166 87 254 166 87 254 168 87 254 168 87 254 169 86 254 169 86 254 171 85 254 171 85 254 200 55 255 200 55 255 200 55 255 200 55 255 200 55 255 200 55 255 200 55 255 200 55 255 200 55 254 195 54 254 202 57 255 212 48 255 
221 29 252 233 21 255 237 23 255 234 23 255 233 23 255 233 23 255 233 23 255 233 23 255 233 23 255 233 23 255 233 23 255 233 23 255 254 8 255 254 8 255 254 8 255 254 8 255 254 8 255 254 8 255 254 8 255 254 8 255 253 10 255 254 4 252 255 6 251 250 9 246 255 38 255 251 42 255 254 44 255 255 38 249 255 40 255 255 40 255 255 40 255 255 40 255 255 40 255 255 40 255 255 40 255 255 40 255 255 71 255 255 71 255 255 71 255 255 71 255 255 71 255 255 71 255 255 71 255 255 71 255 253 73 255 255 70 255 255 74 255 252 76 247 255 101 255 248 104 254 254 106 254 255 104 252 254 104 255 254 104 255 254 104 255 254 104 255 254 104 255 254 104 255 254 104 255 254 104 255 255 136 254 255 136 254 255 136 254 255 136 254 255 136 254 255 136 254 255 136 254 255 136 254 251 137 255 255 134 255 255 138 255 251 139 247 255 166 255 247 167 254 253 171 255 255 168 252 253 167 254 253 167 254 253 167 254 253 167 254 253 167 254 253 167 254 253 167 254 253 167 254 255 200 255 255 200 255 255 200 255 255 200 255 255 200 255 255 200 255 255 200 255 255 200 255 251 200 255 255 197 253 255 201 253 251 202 247 255 229 255 248 230 254 253 234 254 255 230 252 255 231 255 255 233 255 253 234 255 255 232 255 255 230 255 255 231 255 245 238 255 234 244 255 16 229 245 14 242 253 9 250 255 7 248 255 11 242 252 18 242 254 14 245 255 8 247 254 12 244 254 8 244 255 13 246 255 22 238 255 30 220 252 41 213 253 46 215 255 42 215 255 41 214 255 41 214 255 41 214 255 42 213 255 44 213 255 44 213 255 45 212 255 45 212 255 73 181 254 73 181 254 73 181 254 73 181 254 73 181 254 73 181 254 73 181 254 73 181 254 73 181 254 8 247 254 8 247 254 8 247 254 8 247 254 8 247 254 8 247 254 8 247 254 8 247 254 11 245 254 5 246 255 10 248 255 20 239 255 28 221 252 40 213 253 44 215 255 39 216 255 38 215 255 39 215 255 39 215 255 41 214 255 41 214 255 42 213 255 42 213 255 44 213 255 70 184 255 70 184 255 71 183 255 71 183 255 72 183 255 74 182 255 74 182 255 74 182 255 72 183 254 69 183 254 73 185 255 84 176 255 93 158 252 105 150 253 110 151 255 107 151 255 104 151 255 106 150 255 106 150 255 107 150 255 107 150 255 108 149 255 108 149 255 110 148 255 134 120 255 134 120 255 134 120 255 134 120 255 134 120 255 134 120 255 134 120 255 134 120 255 136 120 253 131 119 253 138 121 255 147 112 255 157 93 250 167 84 250 173 85 255 169 86 255 166 87 254 166 87 254 168 87 254 168 87 254 169 86 254 169 86 254 171 85 254 171 85 254 200 55 255 200 55 255 200 55 255 200 55 255 200 55 255 200 55 255 200 55 255 200 55 255 200 55 254 195 54 254 202 57 255 212 48 255 221 29 252 233 21 255 237 23 255 234 23 255 233 23 255 233 23 255 233 23 255 233 23 255 233 23 255 233 23 255 233 23 255 233 23 255 254 8 255 254 8 255 254 8 255 254 8 255 254 8 255 254 8 255 254 8 255 254 8 255 253 10 255 254 4 252 255 6 251 250 9 246 255 38 255 251 42 255 254 44 255 255 38 249 255 40 255 255 40 255 255 40 255 
255 40 255 255 40 255 255 40 255 255 40 255 255 40 255 255 71 255 255 71 255 255 71 255 255 71 255 255 71 255 255 71 255 255 71 255 255 71 255 253 73 255 255 70 255 255 74 255 252 76 247 255 101 255 248 104 254 254 106 254 255 104 252 254 104 255 254 104 255 254 104 255 254 104 255 254 104 255 254 104 255 254 104 255 254 104 255 255 136 254 255 136 254 255 136 254 255 136 254 255 136 254 255 136 254 255 136 254 255 136 254 251 137 255 255 134 255 255 138 255 251 139 247 255 166 255 247 167 254 253 171 255 255 168 252 253 167 254 253 167 254 253 167 254 253 167 254 253 167 254 253 167 254 253 167 254 253 167 254 255 200 255 255 200 255 255 200 255 255 200 255 255 200 255 255 200 255 255 200 255 255 200 255 251 200 255 255 197 253 255 201 253 251 202 247 255 229 255 248 230 254 253 234 254 255 230 252 255 231 255 255 233 255 253 234 255 255 232 255 255 230 255 255 231 255 245 238 255 234 244 255 16 229 245 14 242 253 9 250 255 7 248 255 11 242 252 18 242 254 14 245 255 8 247 254 12 244 254 8 244 255 13 246 255 22 238 255 30 220 252 41 213 253 46 215 255 42 215 255 41 214 255 41 214 255 41 214 255 42 213 255 44 213 255 44 213 255 45 212 255 45 212 255 73 181 254 73 181 254 73 181 254 73 181 254 73 181 254 73 181 254 73 181 254 73 181 254 73 181 254 8 247 254 8 247 254 8 247 254 8 247 254 8 247 254 8 247 254 8 247 254 8 247 254 11 245 254 5 246 255 10 248 255 20 239 255 28 221 252 40 213 253 44 215 255 39 216 255 38 215 255 39 215 255 39 215 255 41 214 255 41 214 255 42 213 255 42 213 255 44 213 255 70 184 255 70 184 255 71 183 255 71 183 255 72 183 255 74 182 255 74 182 255 74 182 255 72 183 254 69 183 254 73 185 255 84 176 255 93 158 252 105 150 253 110 151 255 107 151 255 104 151 255 106 150 255 106 150 255 107 150 255 107 150 255 108 149 255 108 149 255 110 148 255 134 120 255 134 120 255 134 120 255 134 120 255 134 120 255 134 120 255 134 120 255 134 120 255 136 120 253 131 119 253 138 121 255 147 112 255 157 93 250 167 84 250 173 85 255 169 86 255 166 87 254 166 87 254 168 87 254 168 87 254 169 86 254 169 86 254 171 85 254 171 85 254 200 55 255 200 55 255 200 55 255 200 55 255 200 55 255 200 55 255 200 55 255 200 55 255 200 55 254 195 54 254 202 57 255 212 48 255 221 29 252 233 21 255 237 23 255 234 23 255 233 23 255 233 23 255 233 23 255 233 23 255 233 23 255 233 23 255 233 23 255 233 23 255 254 8 255 254 8 255 254 8 255 254 8 255 254 8 255 254 8 255 254 8 255 254 8 255 253 10 255 254 4 252 255 6 251 250 9 246 255 38 255 251 42 255 254 44 255 255 38 249 255 40 255 255 40 255 255 40 255 255 40 255 255 40 255 255 40 255 255 40 255 255 40 255 255 71 255 255 71 255 255 71 255 255 71 255 255 71 255 255 71 255 255 71 255 255 71 255 253 73 255 255 70 255 255 74 255 252 76 247 255 101 255 248 104 254 254 106 254 255 104 252 254 104 255 254 104 255 254 104 255 254 104 255 254 104 255 254 104 255 254 104 255 254 104 255 255 136 254 255 136 254 
255 136 254 255 136 254 255 136 254 255 136 254 255 136 254 255 136 254 251 137 255 255 134 255 255 138 255 251 139 247 255 166 255 247 167 254 253 171 255 255 168 252 253 167 254 253 167 254 253 167 254 253 167 254 253 167 254 253 167 254 253 167 254 253 167 254 255 200 255 255 200 255 255 200 255 255 200 255 255 200 255 255 200 255 255 200 255 255 200 255 251 200 255 255 197 253 255 201 253 251 202 247 255 229 255 248 230 254 253 234 254 255 230 252 255 231 255 255 233 255 253 234 255 255 232 255 255 230 255 255 231 255 245 238 255 234 244 255 16 229 245 14 242 253 9 250 255 7 248 255 11 242 252 18 242 254 14 245 255 8 247 254 12 244 254 8 244 255 13 246 255 22 238 255 30 220 252 41 213 253 46 215 255 42 215 255 41 214 255 41 214 255 41 214 255 42 213 255 44 213 255 44 213 255 45 212 255 45 212 255 73 181 254 73 181 254 73 181 254 73 181 254 73 181 254 73 181 254 73 181 254 73 181 254 73 181 254 8 247 254 8 247 254 8 247 254 8 247 254 8 247 254 8 247 254 8 247 254 8 247 254 11 245 254 5 246 255 10 248 255 20 239 255 28 221 252 40 213 253 44 215 255 39 216 255 38 215 255 39 215 255 39 215 255 41 214 255 41 214 255 42 213 255 42 213 255 44 213 255 70 184 255 70 184 255 71 183 255 71 183 255 72 183 255 74 182 255 74 182 255 74 182 255 72 183 254 69 183 254 73 185 255 84 176 255 93 158 252 105 150 253 110 151 255 107 151 255 104 151 255 106 150 255 106 150 255 107 150 255 107 150 255 108 149 255 108 149 255 110 148 255 134 120 255 134 120 255 134 120 255 134 120 255 134 120 255 134 120 255 134 120 255 134 120 255 136 120 253 131 119 253 138 121 255 147 112 255 157 93 250 167 84 250 173 85 255 169 86 255 166 87 254 166 87 254 168 87 254 168 87 254 169 86 254 169 86 254 171 85 254 171 85 254 200 55 255 200 55 255 200 55 255 200 55 255 200 55 255 200 55 255 200 55 255 200 55 255 200 55 254 195 54 254 202 57 255 212 48 255 221 29 252 233 21 255 237 23 255 234 23 255 233 23 255 233 23 255 233 23 255 233 23 255 233 23 255 233 23 255 233 23 255 233 23 255 254 8 255 254 8 255 254 8 255 254 8 255 254 8 255 254 8 255 254 8 255 254 8 255 253 10 255 254 4 252 255 6 251 250 9 246 255 38 255 251 42 255 254 44 255 255 38 249 255 40 255 255 40 255 255 40 255 255 40 255 255 40 255 255 40 255 255 40 255 255 40 255 255 71 255 255 71 255 255 71 255 255 71 255 255 71 255 255 71 255 255 71 255 255 71 255 253 73 255 255 70 255 255 74 255 252 76 247 255 101 255 248 104 254 254 106 254 255 104 252 254 104 255 254 104 255 254 104 255 254 104 255 254 104 255 254 104 255 254 104 255 254 104 255 255 136 254 255 136 254 255 136 254 255 136 254 255 136 254 255 136 254 255 136 254 255 136 254 251 137 255 255 134 255 255 138 255 251 139 247 255 166 255 247 167 254 253 171 255 255 168 252 253 167 254 253 167 254 253 167 254 253 167 254 253 167 254 253 167 254 253 167 254 253 167 254 255 200 255 255 200 255 255 200 255 255 200 255 255 200 255 255 200 255 255 200 255 255 200 255 251 200 255 
255 197 253 255 201 253 251 202 247 255 229 255 248 230 254 253 234 254 255 230 252 255 231 255 255 233 255 253 234 255 255 232 255 255 230 255 255 231 255 245 238 255 234 244 255 16 229 245 14 242 253 9 250 255 7 248 255 11 242 252 18 242 254 14 245 255 8 247 254 12 244 254 8 244 255 13 246 255 22 238 255 30 220 252 41 213 253 46 215 255 42 215 255 41 214 255 41 214 255 41 214 255 42 213 255 44 213 255 44 213 255 45 212 255 45 212 255 73 181 254 73 181 254 73 181 254 73 181 254 73 181 254 73 181 254 73 181 254 73 181 254 73 181 254 12 244 254 12 244 254 12 244 254 12 244 254 12 244 254 12 244 254 12 244 254 12 244 254 12 244 254 8 244 255 13 246 255 22 238 255 30 220 252 41 213 253 46 215 255 42 215 255 41 214 255 41 214 255 41 214 255 42 213 255 44 213 255 44 213 255 45 212 255 45 212 255 73 181 254 73 181 254 73 181 254 73 181 254 73 181 254 73 181 254 73 181 254 73 181 254 73 181 253 68 180 252 75 183 255 85 174 255 93 156 251 105 148 252 111 149 255 107 149 255 103 150 254 105 149 254 105 149 254 106 149 254 106 149 254 107 148 254 107 148 254 109 147 254 138 117 254 138 117 254 138 117 254 138 117 254 138 117 254 138 117 254 138 117 254 138 117 254 138 118 252 133 117 252 138 120 255 149 111 255 158 92 250 170 85 251 175 86 255 172 86 255 169 86 254 171 85 254 171 85 254 172 84 254 172 84 254 173 84 254 173 84 254 175 83 254 204 53 255 204 53 255 204 53 255 204 53 255 204 53 255 204 53 255 204 53 255 204 53 255 204 53 254 199 52 254 203 54 255 213 46 255 222 27 251 231 19 253 235 21 255 231 20 255 234 20 255 234 20 255 234 20 255 234 20 255 234 20 255 234 20 255 234 20 255 234 20 255 255 10 255 255 10 255 255 10 255 255 10 255 255 10 255 255 10 255 255 10 255 255 10 255 254 11 255 255 6 254 255 7 252 251 10 247 255 39 255 252 43 255 255 45 255 255 39 250 255 42 255 255 42 255 255 42 255 255 42 255 255 42 255 255 42 255 255 42 255 255 42 255 255 73 254 255 73 254 255 73 254 255 73 254 255 73 254 255 73 254 255 73 254 255 73 254 252 77 255 255 71 253 255 73 252 249 76 244 255 106 255 251 109 255 254 111 255 255 105 250 253 107 254 253 107 254 253 107 254 253 107 254 253 107 254 253 107 254 253 107 254 253 107 254 254 137 254 254 137 254 254 137 254 254 137 254 254 137 254 254 137 254 254 137 254 254 137 254 253 139 255 255 134 255 255 136 253 250 138 246 255 169 255 251 171 255 255 173 255 255 168 252 255 170 255 255 170 255 255 170 255 255 170 255 255 170 255 255 170 255 255 170 255 255 170 255 255 200 255 255 200 255 255 200 255 255 200 255 255 200 255 255 200 255 255 200 255 255 200 255 253 202 255 255 197 253 255 199 251 250 201 246 255 232 255 252 234 255 255 236 255 255 230 252 255 232 255 254 235 255 251 236 255 255 234 255 255 232 255 255 233 255 244 240 255 233 245 255 16 227 246 14 240 254 10 248 255 8 244 255 12 240 253 18 239 255 15 243 255 8 244 255 14 242 253 9 241 253 14 244 255 25 235 255 33 217 251 43 210 252 47 212 255 44 212 255 
45 210 255 45 210 255 45 210 255 45 210 255 45 210 255 45 210 255 45 210 255 45 210 255 74 180 254 74 180 254 74 180 254 74 180 254 74 180 254 74 180 254 74 180 254 74 180 254 74 180 254 12 244 254 12 244 254 12 244 254 12 244 254 12 244 254 12 244 254 12 244 254 12 244 254 12 244 254 8 244 255 13 246 255 22 238 255 30 220 252 41 213 253 46 215 255 42 215 255 41 214 255 41 214 255 41 214 255 42 213 255 44 213 255 44 213 255 45 212 255 45 212 255 73 181 254 73 181 254 73 181 254 73 181 254 73 181 254 73 181 254 73 181 254 73 181 254 73 181 253 68 180 252 75 183 255 85 174 255 93 156 251 105 148 252 111 149 255 107 149 255 103 150 254 105 149 254 105 149 254 106 149 254 106 149 254 107 148 254 107 148 254 109 147 254 138 117 254 138 117 254 138 117 254 138 117 254 138 117 254 138 117 254 138 117 254 138 117 254 138 118 252 133 117 252 138 120 255 149 111 255 158 92 250 170 85 251 175 86 255 172 86 255 169 86 254 171 85 254 171 85 254 172 84 254 172 84 254 173 84 254 173 84 254 175 83 254 204 53 255 204 53 255 204 53 255 204 53 255 204 53 255 204 53 255 204 53 255 204 53 255 204 53 254 199 52 254 203 54 255 213 46 255 222 27 251 231 19 253 235 21 255 231 20 255 234 20 255 234 20 255 234 20 255 234 20 255 234 20 255 234 20 255 234 20 255 234 20 255 255 10 255 255 10 255 255 10 255 255 10 255 255 10 255 255 10 255 255 10 255 255 10 255 254 11 255 255 6 254 255 7 252 251 10 247 255 39 255 252 43 255 255 45 255 255 39 250 255 42 255 255 42 255 255 42 255 255 42 255 255 42 255 255 42 255 255 42 255 255 42 255 255 73 254 255 73 254 255 73 254 255 73 254 255 73 254 255 73 254 255 73 254 255 73 254 252 77 255 255 71 253 255 73 252 249 76 244 255 106 255 251 109 255 254 111 255 255 105 250 253 107 254 253 107 254 253 107 254 253 107 254 253 107 254 253 107 254 253 107 254 253 107 254 254 137 254 254 137 254 254 137 254 254 137 254 254 137 254 254 137 254 254 137 254 254 137 254 253 139 255 255 134 255 255 136 253 250 138 246 255 169 255 251 171 255 255 173 255 255 168 252 255 170 255 255 170 255 255 170 255 255 170 255 255 170 255 255 170 255 255 170 255 255 170 255 255 200 255 255 200 255 255 200 255 255 200 255 255 200 255 255 200 255 255 200 255 255 200 255 253 202 255 255 197 253 255 199 251 250 201 246 255 232 255 252 234 255 255 236 255 255 230 252 255 232 255 254 235 255 251 236 255 255 234 255 255 232 255 255 233 255 244 240 255 233 245 255 16 227 246 14 240 254 10 248 255 8 244 255 12 240 253 18 239 255 15 243 255 8 244 255 14 242 253 9 241 253 14 244 255 25 235 255 33 217 251 43 210 252 47 212 255 44 212 255 45 210 255 45 210 255 45 210 255 45 210 255 45 210 255 45 210 255 45 210 255 45 210 255 74 180 254 74 180 254 74 180 254 74 180 254 74 180 254 74 180 254 74 180 254 74 180 254 74 180 254 12 244 254 12 244 254 12 244 254 12 244 254 12 244 254 12 244 254 12 244 254 12 244 254 12 244 254 8 244 255 13 246 255 22 238 255 30 220 252 41 213 253 
46 215 255 42 215 255 41 214 255 41 214 255 41 214 255 42 213 255 44 213 255 44 213 255 45 212 255 45 212 255 73 181 254 73 181 254 73 181 254 73 181 254 73 181 254 73 181 254 73 181 254 73 181 254 73 181 253 68 180 252 75 183 255 85 174 255 93 156 251 105 148 252 111 149 255 107 149 255 103 150 254 105 149 254 105 149 254 106 149 254 106 149 254 107 148 254 107 148 254 109 147 254 138 117 254 138 117 254 138 117 254 138 117 254 138 117 254 138 117 254 138 117 254 138 117 254 138 118 252 133 117 252 138 120 255 149 111 255 158 92 250 170 85 251 175 86 255 172 86 255 169 86 254 171 85 254 171 85 254 172 84 254 172 84 254 173 84 254 173 84 254 175 83 254 204 53 255 204 53 255 204 53 255 204 53 255 204 53 255 204 53 255 204 53 255 204 53 255 204 53 254 199 52 254 203 54 255 213 46 255 222 27 251 231 19 253 235 21 255 231 20 255 234 20 255 234 20 255 234 20 255 234 20 255 234 20 255 234 20 255 234 20 255 234 20 255 255 10 255 255 10 255 255 10 255 255 10 255 255 10 255 255 10 255 255 10 255 255 10 255 254 11 255 255 6 254 255 7 252 251 10 247 255 39 255 252 43 255 255 45 255 255 39 250 255 42 255 255 42 255 255 42 255 255 42 255 255 42 255 255 42 255 255 42 255 255 42 255 255 73 254 255 73 254 255 73 254 255 73 254 255 73 254 255 73 254 255 73 254 255 73 254 252 77 255 255 71 253 255 73 252 249 76 244 255 106 255 251 109 255 254 111 255 255 105 250 253 107 254 253 107 254 253 107 254 253 107 254 253 107 254 253 107 254 253 107 254 253 107 254 254 137 254 254 137 254 254 137 254 254 137 254 254 137 254 254 137 254 254 137 254 254 137 254 253 139 255 255 134 255 255 136 253 250 138 246 255 169 255 251 171 255 255 173 255 255 168 252 255 170 255 255 170 255 255 170 255 255 170 255 255 170 255 255 170 255 255 170 255 255 170 255 255 200 255 255 200 255 255 200 255 255 200 255 255 200 255 255 200 255 255 200 255 255 200 255 253 202 255 255 197 253 255 199 251 250 201 246 255 232 255 252 234 255 255 236 255 255 230 252 255 232 255 254 235 255 251 236 255 255 234 255 255 232 255 255 233 255 244 240 255 233 245 255 16 227 246 14 240 254 10 248 255 8 244 255 12 240 253 18 239 255 15 243 255 8 244 255 14 242 253 9 241 253 14 244 255 25 235 255 33 217 251 43 210 252 47 212 255 44 212 255 45 210 255 45 210 255 45 210 255 45 210 255 45 210 255 45 210 255 45 210 255 45 210 255 74 180 254 74 180 254 74 180 254 74 180 254 74 180 254 74 180 254 74 180 254 74 180 254 74 180 254 12 244 254 12 244 254 12 244 254 12 244 254 12 244 254 12 244 254 12 244 254 12 244 254 12 244 254 8 244 255 13 246 255 22 238 255 30 220 252 41 213 253 46 215 255 42 215 255 41 214 255 41 214 255 41 214 255 42 213 255 44 213 255 44 213 255 45 212 255 45 212 255 73 181 254 73 181 254 73 181 254 73 181 254 73 181 254 73 181 254 73 181 254 73 181 254 73 181 253 68 180 252 75 183 255 85 174 255 93 156 251 105 148 252 111 149 255 107 149 255 103 150 254 105 149 254 105 149 254 106 149 254 106 149 254 
107 148 254 107 148 254 109 147 254 138 117 254 138 117 254 138 117 254 138 117 254 138 117 254 138 117 254 138 117 254 138 117 254 138 118 252 133 117 252 138 120 255 149 111 255 158 92 250 170 85 251 175 86 255 172 86 255 169 86 254 171 85 254 171 85 254 172 84 254 172 84 254 173 84 254 173 84 254 175 83 254 204 53 255 204 53 255 204 53 255 204 53 255 204 53 255 204 53 255 204 53 255 204 53 255 204 53 254 199 52 254 203 54 255 213 46 255 222 27 251 231 19 253 235 21 255 231 20 255 234 20 255 234 20 255 234 20 255 234 20 255 234 20 255 234 20 255 234 20 255 234 20 255 255 10 255 255 10 255 255 10 255 255 10 255 255 10 255 255 10 255 255 10 255 255 10 255 254 11 255 255 6 254 255 7 252 251 10 247 255 39 255 252 43 255 255 45 255 255 39 250 255 42 255 255 42 255 255 42 255 255 42 255 255 42 255 255 42 255 255 42 255 255 42 255 255 73 254 255 73 254 255 73 254 255 73 254 255 73 254 255 73 254 255 73 254 255 73 254 252 77 255 255 71 253 255 73 252 249 76 244 255 106 255 251 109 255 254 111 255 255 105 250 253 107 254 253 107 254 253 107 254 253 107 254 253 107 254 253 107 254 253 107 254 253 107 254 254 137 254 254 137 254 254 137 254 254 137 254 254 137 254 254 137 254 254 137 254 254 137 254 253 139 255 255 134 255 255 136 253 250 138 246 255 169 255 251 171 255 255 173 255 255 168 252 255 170 255 255 170 255 255 170 255 255 170 255 255 170 255 255 170 255 255 170 255 255 170 255 255 200 255 255 200 255 255 200 255 255 200 255 255 200 255 255 200 255 255 200 255 255 200 255 253 202 255 255 197 253 255 199 251 250 201 246 255 232 255 252 234 255 255 236 255 255 230 252 255 232 255 254 235 255 251 236 255 255 234 255 255 232 255 255 233 255 244 240 255 233 245 255 16 227 246 14 240 254 10 248 255 8 244 255 12 240 253 18 239 255 15 243 255 8 244 255 14 242 253 9 241 253 14 244 255 25 235 255 33 217 251 43 210 252 47 212 255 44 212 255 45 210 255 45 210 255 45 210 255 45 210 255 45 210 255 45 210 255 45 210 255 45 210 255 74 180 254 74 180 254 74 180 254 74 180 254 74 180 254 74 180 254 74 180 254 74 180 254 74 180 254 12 244 254 12 244 254 12 244 254 12 244 254 12 244 254 12 244 254 12 244 254 12 244 254 12 244 254 8 244 255 13 246 255 22 238 255 30 220 252 41 213 253 46 215 255 42 215 255 41 214 255 41 214 255 41 214 255 42 213 255 44 213 255 44 213 255 45 212 255 45 212 255 73 181 254 73 181 254 73 181 254 73 181 254 73 181 254 73 181 254 73 181 254 73 181 254 73 181 253 68 180 252 75 183 255 85 174 255 93 156 251 105 148 252 111 149 255 107 149 255 103 150 254 105 149 254 105 149 254 106 149 254 106 149 254 107 148 254 107 148 254 109 147 254 138 117 254 138 117 254 138 117 254 138 117 254 138 117 254 138 117 254 138 117 254 138 117 254 138 118 252 133 117 252 138 120 255 149 111 255 158 92 250 170 85 251 175 86 255 172 86 255 169 86 254 171 85 254 171 85 254 172 84 254 172 84 254 173 84 254 173 84 254 175 83 254 204 53 255 204 53 255 204 53 255 204 53 255 
204 53 255 204 53 255 204 53 255 204 53 255 204 53 254 199 52 254 203 54 255 213 46 255 222 27 251 231 19 253 235 21 255 231 20 255 234 20 255 234 20 255 234 20 255 234 20 255 234 20 255 234 20 255 234 20 255 234 20 255 255 10 255 255 10 255 255 10 255 255 10 255 255 10 255 255 10 255 255 10 255 255 10 255 254 11 255 255 6 254 255 7 252 251 10 247 255 39 255 252 43 255 255 45 255 255 39 250 255 42 255 255 42 255 255 42 255 255 42 255 255 42 255 255 42 255 255 42 255 255 42 255 255 73 254 255 73 254 255 73 254 255 73 254 255 73 254 255 73 254 255 73 254 255 73 254 252 77 255 255 71 253 255 73 252 249 76 244 255 106 255 251 109 255 254 111 255 255 105 250 253 107 254 253 107 254 253 107 254 253 107 254 253 107 254 253 107 254 253 107 254 253 107 254 254 137 254 254 137 254 254 137 254 254 137 254 254 137 254 254 137 254 254 137 254 254 137 254 253 139 255 255 134 255 255 136 253 250 138 246 255 169 255 251 171 255 255 173 255 255 168 252 255 170 255 255 170 255 255 170 255 255 170 255 255 170 255 255 170 255 255 170 255 255 170 255 255 200 255 255 200 255 255 200 255 255 200 255 255 200 255 255 200 255 255 200 255 255 200 255 253 202 255 255 197 253 255 199 251 250 201 246 255 232 255 252 234 255 255 236 255 255 230 252 255 232 255 254 235 255 251 236 255 255 234 255 255 232 255 255 233 255 244 240 255 233 245 255 16 227 246 14 240 254 10 248 255 8 244 255 12 240 253 18 239 255 15 243 255 8 244 255 14 242 253 9 241 253 14 244 255 25 235 255 33 217 251 43 210 252 47 212 255 44 212 255 45 210 255 45 210 255 45 210 255 45 210 255 45 210 255 45 210 255 45 210 255 45 210 255 74 180 254 74 180 254 74 180 254 74 180 254 74 180 254 74 180 254 74 180 254 74 180 254 74 180 254 12 244 254 12 244 254 12 244 254 12 244 254 12 244 254 12 244 254 12 244 254 12 244 254 12 244 254 8 244 255 13 246 255 22 238 255 30 220 252 41 213 253 46 215 255 42 215 255 41 214 255 41 214 255 41 214 255 42 213 255 44 213 255 44 213 255 45 212 255 45 212 255 73 181 254 73 181 254 73 181 254 73 181 254 73 181 254 73 181 254 73 181 254 73 181 254 73 181 253 68 180 252 75 183 255 85 174 255 93 156 251 105 148 252 111 149 255 107 149 255 103 150 254 105 149 254 105 149 254 106 149 254 106 149 254 107 148 254 107 148 254 109 147 254 138 117 254 138 117 254 138 117 254 138 117 254 138 117 254 138 117 254 138 117 254 138 117 254 138 118 252 133 117 252 138 120 255 149 111 255 158 92 250 170 85 251 175 86 255 172 86 255 169 86 254 171 85 254 171 85 254 172 84 254 172 84 254 173 84 254 173 84 254 175 83 254 204 53 255 204 53 255 204 53 255 204 53 255 204 53 255 204 53 255 204 53 255 204 53 255 204 53 254 199 52 254 203 54 255 213 46 255 222 27 251 231 19 253 235 21 255 231 20 255 234 20 255 234 20 255 234 20 255 234 20 255 234 20 255 234 20 255 234 20 255 234 20 255 255 10 255 255 10 255 255 10 255 255 10 255 255 10 255 255 10 255 255 10 255 255 10 255 254 11 255 255 6 254 255 7 252 
251 10 247 255 39 255 252 43 255 255 45 255 255 39 250 255 42 255 255 42 255 255 42 255 255 42 255 255 42 255 255 42 255 255 42 255 255 42 255 255 73 254 255 73 254 255 73 254 255 73 254 255 73 254 255 73 254 255 73 254 255 73 254 252 77 255 255 71 253 255 73 252 249 76 244 255 106 255 251 109 255 254 111 255 255 105 250 253 107 254 253 107 254 253 107 254 253 107 254 253 107 254 253 107 254 253 107 254 253 107 254 254 137 254 254 137 254 254 137 254 254 137 254 254 137 254 254 137 254 254 137 254 254 137 254 253 139 255 255 134 255 255 136 253 250 138 246 255 169 255 251 171 255 255 173 255 255 168 252 255 170 255 255 170 255 255 170 255 255 170 255 255 170 255 255 170 255 255 170 255 255 170 255 255 200 255 255 200 255 255 200 255 255 200 255 255 200 255 255 200 255 255 200 255 255 200 255 253 202 255 255 197 253 255 199 251 250 201 246 255 232 255 252 234 255 255 236 255 255 230 252 255 232 255 254 235 255 251 236 255 255 234 255 255 232 255 255 233 255 244 240 255 233 245 255 16 227 246 14 240 254 10 248 255 8 244 255 12 240 253 18 239 255 15 243 255 8 244 255 14 242 253 9 241 253 14 244 255 25 235 255 33 217 251 43 210 252 47 212 255 44 212 255 45 210 255 45 210 255 45 210 255 45 210 255 45 210 255 45 210 255 45 210 255 45 210 255 74 180 254 74 180 254 74 180 254 74 180 254 74 180 254 74 180 254 74 180 254 74 180 254 74 180 254 12 244 254 12 244 254 12 244 254 12 244 254 12 244 254 12 244 254 12 244 254 12 244 254 12 244 254 8 244 255 13 246 255 22 238 255 30 220 252 41 213 253 46 215 255 42 215 255 41 214 255 41 214 255 41 214 255 42 213 255 44 213 255 44 213 255 45 212 255 45 212 255 73 181 254 73 181 254 73 181 254 73 181 254 73 181 254 73 181 254 73 181 254 73 181 254 73 181 253 68 180 252 75 183 255 85 174 255 93 156 251 105 148 252 111 149 255 107 149 255 103 150 254 105 149 254 105 149 254 106 149 254 106 149 254 107 148 254 107 148 254 109 147 254 138 117 254 138 117 254 138 117 254 138 117 254 138 117 254 138 117 254 138 117 254 138 117 254 138 118 252 133 117 252 138 120 255 149 111 255 158 92 250 170 85 251 175 86 255 172 86 255 169 86 254 171 85 254 171 85 254 172 84 254 172 84 254 173 84 254 173 84 254 175 83 254 204 53 255 204 53 255 204 53 255 204 53 255 204 53 255 204 53 255 204 53 255 204 53 255 204 53 254 199 52 254 203 54 255 213 46 255 222 27 251 231 19 253 235 21 255 231 20 255 234 20 255 234 20 255 234 20 255 234 20 255 234 20 255 234 20 255 234 20 255 234 20 255 255 10 255 255 10 255 255 10 255 255 10 255 255 10 255 255 10 255 255 10 255 255 10 255 254 11 255 255 6 254 255 7 252 251 10 247 255 39 255 252 43 255 255 45 255 255 39 250 255 42 255 255 42 255 255 42 255 255 42 255 255 42 255 255 42 255 255 42 255 255 42 255 255 73 254 255 73 254 255 73 254 255 73 254 255 73 254 255 73 254 255 73 254 255 73 254 252 77 255 255 71 253 255 73 252 249 76 244 255 106 255 251 109 255 254 111 255 255 105 250 253 107 254 253 107 254 
253 107 254 253 107 254 253 107 254 253 107 254 253 107 254 253 107 254 254 137 254 254 137 254 254 137 254 254 137 254 254 137 254 254 137 254 254 137 254 254 137 254 253 139 255 255 134 255 255 136 253 250 138 246 255 169 255 251 171 255 255 173 255 255 168 252 255 170 255 255 170 255 255 170 255 255 170 255 255 170 255 255 170 255 255 170 255 255 170 255 255 200 255 255 200 255 255 200 255 255 200 255 255 200 255 255 200 255 255 200 255 255 200 255 253 202 255 255 197 253 255 199 251 250 201 246 255 232 255 252 234 255 255 236 255 255 230 252 255 232 255 254 235 255 251 236 255 255 234 255 255 232 255 255 233 255 244 240 255 233 245 255 16 227 246 14 240 254 10 248 255 8 244 255 12 240 253 18 239 255 15 243 255 8 244 255 14 242 253 9 241 253 14 244 255 25 235 255 33 217 251 43 210 252 47 212 255 44 212 255 45 210 255 45 210 255 45 210 255 45 210 255 45 210 255 45 210 255 45 210 255 45 210 255 74 180 254 74 180 254 74 180 254 74 180 254 74 180 254 74 180 254 74 180 254 74 180 254 74 180 254 12 244 254 12 244 254 12 244 254 12 244 254 12 244 254 12 244 254 12 244 254 12 244 254 12 244 254 8 244 255 13 246 255 22 238 255 30 220 252 41 213 253 46 215 255 42 215 255 41 214 255 41 214 255 41 214 255 42 213 255 44 213 255 44 213 255 45 212 255 45 212 255 73 181 254 73 181 254 73 181 254 73 181 254 73 181 254 73 181 254 73 181 254 73 181 254 73 181 253 68 180 252 75 183 255 85 174 255 93 156 251 105 148 252 111 149 255 107 149 255 103 150 254 105 149 254 105 149 254 106 149 254 106 149 254 107 148 254 107 148 254 109 147 254 138 117 254 138 117 254 138 117 254 138 117 254 138 117 254 138 117 254 138 117 254 138 117 254 138 118 252 133 117 252 138 120 255 149 111 255 158 92 250 170 85 251 175 86 255 172 86 255 169 86 254 171 85 254 171 85 254 172 84 254 172 84 254 173 84 254 173 84 254 175 83 254 204 53 255 204 53 255 204 53 255 204 53 255 204 53 255 204 53 255 204 53 255 204 53 255 204 53 254 199 52 254 203 54 255 213 46 255 222 27 251 231 19 253 235 21 255 231 20 255 234 20 255 234 20 255 234 20 255 234 20 255 234 20 255 234 20 255 234 20 255 234 20 255 255 10 255 255 10 255 255 10 255 255 10 255 255 10 255 255 10 255 255 10 255 255 10 255 254 11 255 255 6 254 255 7 252 251 10 247 255 39 255 252 43 255 255 45 255 255 39 250 255 42 255 255 42 255 255 42 255 255 42 255 255 42 255 255 42 255 255 42 255 255 42 255 255 73 254 255 73 254 255 73 254 255 73 254 255 73 254 255 73 254 255 73 254 255 73 254 252 77 255 255 71 253 255 73 252 249 76 244 255 106 255 251 109 255 254 111 255 255 105 250 253 107 254 253 107 254 253 107 254 253 107 254 253 107 254 253 107 254 253 107 254 253 107 254 254 137 254 254 137 254 254 137 254 254 137 254 254 137 254 254 137 254 254 137 254 254 137 254 253 139 255 255 134 255 255 136 253 250 138 246 255 169 255 251 171 255 255 173 255 255 168 252 255 170 255 255 170 255 255 170 255 255 170 255 255 170 255 255 170 255 255 170 255 255 170 255 255 200 255 
255 200 255 255 200 255 255 200 255 255 200 255 255 200 255 255 200 255 255 200 255 253 202 255 255 197 253 255 199 251 250 201 246 255 232 255 252 234 255 255 236 255 255 230 252 255 232 255 254 235 255 251 236 255 255 234 255 255 232 255 255 233 255 244 240 255 233 245 255 16 227 246 14 240 254 10 248 255 8 244 255 12 240 253 18 239 255 15 243 255 8 244 255 14 242 253 9 241 253 14 244 255 25 235 255 33 217 251 43 210 252 47 212 255 44 212 255 45 210 255 45 210 255 45 210 255 45 210 255 45 210 255 45 210 255 45 210 255 45 210 255 74 180 254 74 180 254 74 180 254 74 180 254 74 180 254 74 180 254 74 180 254 74 180 254 74 180 254 8 244 255 8 244 255 8 244 255 8 244 255 8 244 255 8 244 255 8 244 255 8 244 255 10 244 253 5 243 253 10 246 255 21 237 255 29 219 251 39 212 252 43 214 255 39 214 255 41 212 255 41 212 255 41 212 255 41 212 255 41 212 255 41 212 255 41 212 255 41 212 255 70 182 254 70 182 254 70 182 254 70 182 254 70 182 254 70 182 254 70 182 254 70 182 254 71 182 253 67 181 252 73 183 255 84 175 255 93 156 251 105 148 252 111 149 255 107 149 255 103 150 254 103 150 254 105 149 254 105 149 254 106 149 254 107 148 254 107 148 254 107 148 254 135 117 253 135 117 253 135 117 253 135 117 253 135 117 253 135 117 253 135 117 253 135 117 253 135 117 251 130 116 251 137 119 255 148 110 255 157 91 249 168 83 249 173 85 255 168 85 255 168 85 255 168 85 255 170 84 255 170 84 255 171 83 255 172 82 255 172 82 255 172 82 255 203 52 255 203 52 255 203 52 255 203 52 255 203 52 255 203 52 255 203 52 255 203 52 255 205 52 254 200 51 254 205 53 255 215 45 255 223 27 251 232 18 253 237 20 255 232 20 255 233 21 255 233 21 255 233 21 255 233 21 255 233 21 255 233 21 255 233 21 255 233 21 255 255 10 255 255 10 255 255 10 255 255 10 255 255 10 255 255 10 255 255 10 255 255 10 255 252 12 255 253 7 254 255 7 252 248 11 247 255 40 255 249 45 255 254 46 255 254 40 250 255 42 254 255 42 254 255 42 254 255 42 254 255 42 254 255 42 254 255 42 254 255 42 254 253 74 254 253 74 254 253 74 254 253 74 254 253 74 254 253 74 254 253 74 254 253 74 254 251 76 255 254 70 252 255 71 250 248 75 243 255 105 255 250 108 255 253 110 254 255 103 248 255 109 255 255 109 255 255 109 255 255 109 255 255 109 255 255 109 255 255 109 255 255 109 255 254 137 254 254 137 254 254 137 254 254 137 254 254 137 254 254 137 254 254 137 254 254 137 254 251 141 255 254 135 251 255 137 250 248 139 244 255 170 255 250 172 255 253 174 255 255 169 250 255 171 255 255 171 255 255 171 255 255 171 255 255 171 255 255 171 255 255 171 255 255 171 255 255 199 254 255 199 254 255 199 254 255 199 254 255 199 254 255 199 254 255 199 254 255 199 254 253 202 255 255 197 253 255 199 251 250 201 246 255 232 255 252 234 255 255 236 255 255 230 252 255 234 255 255 236 255 252 238 255 255 236 255 255 233 255 255 235 255 245 241 255 234 247 255 17 226 246 17 238 254 13 247 255 10 244 255 13 239 253 19 239 255 18 241 255 11 243 255 
10 244 253 5 243 253 12 245 255 22 237 255 30 219 251 43 210 252 47 212 255 44 212 255 43 212 255 43 212 255 43 212 255 44 211 255 45 210 255 45 210 255 47 209 255 47 209 255 73 179 253 73 179 253 73 179 253 73 179 253 73 179 253 73 179 253 73 179 253 73 179 253 73 179 253 8 244 255 8 244 255 8 244 255 8 244 255 8 244 255 8 244 255 8 244 255 8 244 255 11 243 253 5 243 253 12 245 255 21 237 255 29 219 251 40 212 252 45 214 255 39 214 255 41 212 255 41 212 255 41 212 255 41 212 255 41 212 255 41 212 255 41 212 255 41 212 255 71 182 254 71 182 254 71 182 254 71 182 254 71 182 254 71 182 254 71 182 254 71 182 254 73 181 253 68 180 252 73 183 255 84 175 255 93 156 251 105 148 252 111 149 255 107 149 255 103 150 254 103 150 254 105 149 254 105 149 254 106 149 254 107 148 254 107 148 254 109 147 254 137 116 253 137 116 253 137 116 253 137 116 253 137 116 253 137 116 253 137 116 253 137 116 253 135 117 251 130 116 251 137 119 255 148 110 255 157 91 249 168 83 249 174 85 255 170 84 255 168 85 255 168 85 255 170 84 255 170 84 255 171 83 255 172 82 255 172 82 255 174 82 255 203 52 255 203 52 255 203 52 255 203 52 255 203 52 255 203 52 255 203 52 255 203 52 255 205 52 254 200 51 254 205 53 255 215 45 255 223 27 251 232 18 253 237 20 255 232 20 255 233 21 255 233 21 255 233 21 255 233 21 255 233 21 255 233 21 255 233 21 255 233 21 255 255 10 255 255 10 255 255 10 255 255 10 255 255 10 255 255 10 255 255 10 255 255 10 255 252 12 255 253 7 254 255 7 252 248 11 247 255 40 255 249 45 255 254 46 255 254 40 250 255 42 254 255 42 254 255 42 254 255 42 254 255 42 254 255 42 254 255 42 254 255 42 254 253 74 254 253 74 254 253 74 254 253 74 254 253 74 254 253 74 254 253 74 254 253 74 254 251 76 255 254 70 252 255 72 251 248 75 243 255 105 255 250 108 255 253 110 254 255 104 249 255 109 255 255 109 255 255 109 255 255 109 255 255 109 255 255 109 255 255 109 255 255 109 255 254 137 254 254 137 254 254 137 254 254 137 254 254 137 254 254 137 254 254 137 254 254 137 254 251 141 255 254 135 251 255 137 250 248 139 244 255 170 255 250 172 255 253 174 255 255 169 250 255 171 255 255 171 255 255 171 255 255 171 255 255 171 255 255 171 255 255 171 255 255 171 255 255 200 255 255 200 255 255 200 255 255 200 255 255 200 255 255 200 255 255 200 255 255 200 255 253 202 255 255 197 253 255 199 251 250 201 246 255 232 255 253 235 255 255 236 255 255 230 252 255 234 255 255 236 255 252 238 255 255 236 255 255 233 255 255 235 255 245 241 255 234 247 255 17 226 246 17 238 254 13 247 255 10 244 255 13 239 253 19 239 255 18 241 255 11 243 255 10 244 253 5 243 253 12 245 255 22 237 255 31 218 251 43 210 252 47 212 255 44 212 255 43 212 255 43 212 255 44 211 255 44 211 255 45 210 255 47 209 255 47 209 255 47 209 255 73 179 253 73 179 253 73 179 253 73 179 253 73 179 253 73 179 253 73 179 253 73 179 253 73 179 253 10 244 255 10 244 255 10 244 255 10 244 255 10 244 255 10 244 255 
10 244 255 10 244 255 11 243 253 6 242 253 12 245 255 21 237 255 30 219 251 40 212 252 45 214 255 41 214 255 43 212 255 43 212 255 43 212 255 43 212 255 43 212 255 43 212 255 43 212 255 43 212 255 71 182 254 71 182 254 71 182 254 71 182 254 71 182 254 71 182 254 71 182 254 71 182 254 73 181 253 68 180 252 75 183 255 85 174 255 95 155 251 106 147 252 111 149 255 107 149 255 105 149 254 105 149 254 105 149 254 106 149 254 107 148 254 107 148 254 109 147 254 109 147 254 137 116 253 137 116 253 137 116 253 137 116 253 137 116 253 137 116 253 137 116 253 137 116 253 137 117 251 132 116 251 139 118 255 149 109 255 157 91 249 169 82 249 174 85 255 170 84 255 170 84 255 170 84 255 170 84 255 171 83 255 172 82 255 172 82 255 174 82 255 174 82 255 203 52 255 203 52 255 203 52 255 203 52 255 203 52 255 203 52 255 203 52 255 203 52 255 205 52 254 200 51 254 205 53 255 215 45 255 223 27 251 232 18 253 237 20 255 232 20 255 234 20 255 234 20 255 234 20 255 234 20 255 234 20 255 234 20 255 234 20 255 234 20 255 255 10 255 255 10 255 255 10 255 255 10 255 255 10 255 255 10 255 255 10 255 255 10 255 252 12 255 253 7 254 255 7 252 248 11 247 255 40 255 249 45 255 254 46 255 254 40 250 255 42 254 255 42 254 255 42 254 255 42 254 255 42 254 255 42 254 255 42 254 255 42 254 254 75 255 254 75 255 254 75 255 254 75 255 254 75 255 254 75 255 254 75 255 254 75 255 251 76 255 254 70 252 255 72 251 248 75 243 255 105 255 251 109 255 253 110 254 255 104 249 255 109 255 255 109 255 255 109 255 255 109 255 255 109 255 255 109 255 255 109 255 255 109 255 255 138 255 255 138 255 255 138 255 255 138 255 255 138 255 255 138 255 255 138 255 255 138 255 251 141 255 254 135 251 255 137 250 248 139 244 255 170 255 250 172 255 253 174 255 255 169 250 255 171 255 255 171 255 255 171 255 255 171 255 255 171 255 255 171 255 255 171 255 255 171 255 255 200 255 255 200 255 255 200 255 255 200 255 255 200 255 255 200 255 255 200 255 255 200 255 254 203 255 255 198 253 255 199 251 250 203 247 255 232 255 251 236 255 255 237 255 255 231 252 255 234 255 255 236 255 252 238 255 255 236 255 255 233 255 255 235 255 245 241 255 234 247 255 17 226 246 17 238 254 13 247 255 10 244 255 13 239 253 19 239 255 18 241 255 11 243 255 11 243 253 6 242 253 12 245 255 22 237 255 31 218 251 43 210 252 49 211 255 45 212 255 43 212 255 44 211 255 44 211 255 45 210 255 45 210 255 47 209 255 48 209 255 48 209 255 75 178 253 75 178 253 75 178 253 75 178 253 75 178 253 75 178 253 75 178 253 75 178 253 75 178 253 10 244 255 10 244 255 10 244 255 10 244 255 10 244 255 10 244 255 10 244 255 10 244 255 12 243 253 8 242 253 13 245 255 22 237 255 30 219 251 42 211 252 46 213 255 42 213 255 43 212 255 43 212 255 43 212 255 43 212 255 43 212 255 43 212 255 43 212 255 43 212 255 73 181 254 73 181 254 73 181 254 73 181 254 73 181 254 73 181 254 73 181 254 73 181 254 74 181 253 69 180 252 75 183 255 85 174 255 95 155 251 
106 147 252 112 149 255 108 149 255 105 149 254 105 149 254 106 149 254 107 148 254 107 148 254 109 147 254 109 147 254 110 147 254 138 116 253 138 116 253 138 116 253 138 116 253 138 116 253 138 116 253 138 116 253 138 116 253 138 116 251 133 115 251 139 118 255 149 109 255 158 91 249 169 82 249 176 84 255 171 83 255 170 84 255 170 84 255 171 83 255 172 82 255 172 82 255 174 82 255 174 82 255 175 81 255 203 52 255 203 52 255 203 52 255 203 52 255 203 52 255 203 52 255 203 52 255 203 52 255 205 52 254 200 51 254 205 53 255 215 45 255 223 27 251 232 18 253 237 20 255 232 20 255 234 20 255 234 20 255 234 20 255 234 20 255 234 20 255 234 20 255 234 20 255 234 20 255 255 10 255 255 10 255 255 10 255 255 10 255 255 10 255 255 10 255 255 10 255 255 10 255 252 12 255 253 7 254 255 7 252 248 11 247 255 40 255 249 45 255 254 46 255 254 40 250 255 42 254 255 42 254 255 42 254 255 42 254 255 42 254 255 42 254 255 42 254 255 42 254 254 75 255 254 75 255 254 75 255 254 75 255 254 75 255 254 75 255 254 75 255 254 75 255 252 77 255 255 71 253 255 72 251 249 76 244 255 105 255 251 109 255 254 111 255 255 104 249 255 109 255 255 109 255 255 109 255 255 109 255 255 109 255 255 109 255 255 109 255 255 109 255 255 138 255 255 138 255 255 138 255 255 138 255 255 138 255 255 138 255 255 138 255 255 138 255 251 141 255 254 135 251 255 137 250 248 139 244 255 170 255 250 172 255 253 174 255 255 169 250 255 171 255 255 171 255 255 171 255 255 171 255 255 171 255 255 171 255 255 171 255 255 171 255 255 200 255 255 200 255 255 200 255 255 200 255 255 200 255 255 200 255 255 200 255 255 200 255 253 204 255 255 199 254 255 201 252 250 203 247 255 233 255 251 236 255 255 238 255 255 232 253 255 234 255 255 236 255 252 238 255 255 236 255 255 233 255 255 235 255 245 241 255 234 247 255 17 226 246 17 238 254 13 247 255 10 244 255 13 239 253 19 239 255 18 241 255 11 243 255 11 243 253 6 242 253 13 245 255 24 236 255 33 217 251 44 210 252 50 211 255 46 211 255 44 211 255 44 211 255 45 210 255 45 210 255 47 209 255 48 209 255 48 209 255 48 209 255 75 178 253 75 178 253 75 178 253 75 178 253 75 178 253 75 178 253 75 178 253 75 178 253 75 178 253 11 243 255 11 243 255 11 243 255 11 243 255 11 243 255 11 243 255 11 243 255 11 243 255 12 243 253 8 242 253 13 245 255 24 236 255 31 218 251 42 211 252 46 213 255 42 213 255 44 211 255 44 211 255 44 211 255 44 211 255 44 211 255 44 211 255 44 211 255 44 211 255 73 181 254 73 181 254 73 181 254 73 181 254 73 181 254 73 181 254 73 181 254 73 181 254 74 181 253 69 180 252 76 182 255 87 173 255 96 154 251 108 147 252 114 148 255 110 148 255 106 149 254 106 149 254 107 148 254 107 148 254 109 147 254 110 147 254 110 147 254 110 147 254 138 116 253 138 116 253 138 116 253 138 116 253 138 116 253 138 116 253 138 116 253 138 116 253 138 116 251 133 115 251 140 117 255 151 109 255 160 90 249 170 81 249 176 84 255 171 83 255 171 83 255 171 83 255 172 82 255 172 82 255 
174 82 255 175 81 255 175 81 255 175 81 255 203 52 255 203 52 255 203 52 255 203 52 255 203 52 255 203 52 255 203 52 255 203 52 255 205 52 254 200 51 254 205 53 255 215 45 255 223 27 251 232 18 253 237 20 255 232 20 255 236 20 255 236 20 255 236 20 255 236 20 255 236 20 255 236 20 255 236 20 255 236 20 255 255 10 255 255 10 255 255 10 255 255 10 255 255 10 255 255 10 255 255 10 255 255 10 255 252 12 255 253 7 254 255 7 252 248 11 247 255 40 255 249 45 255 254 46 255 254 40 250 255 42 254 255 42 254 255 42 254 255 42 254 255 42 254 255 42 254 255 42 254 255 42 254 255 76 255 255 76 255 255 76 255 255 76 255 255 76 255 255 76 255 255 76 255 255 76 255 252 77 255 255 71 253 255 73 252 249 76 244 255 106 255 251 109 255 254 111 255 255 105 250 255 109 255 255 109 255 255 109 255 255 109 255 255 109 255 255 109 255 255 109 255 255 109 255 255 139 255 255 139 255 255 139 255 255 139 255 255 139 255 255 139 255 255 139 255 255 139 255 251 141 255 254 135 251 255 137 250 248 139 244 255 170 255 250 172 255 253 174 255 255 169 250 255 171 255 255 171 255 255 171 255 255 171 255 255 171 255 255 171 255 255 171 255 255 171 255 255 202 255 255 202 255 255 202 255 255 202 255 255 202 255 255 202 255 255 202 255 255 202 255 253 206 255 254 199 254 255 201 252 250 205 248 255 234 255 251 237 255 254 239 255 255 233 253 255 234 255 255 236 255 252 238 255 255 236 255 255 233 255 255 235 255 245 241 255 234 247 255 17 226 246 17 238 254 13 247 255 10 244 255 13 239 253 19 239 255 18 241 255 11 243 255 12 243 253 8 242 253 14 244 255 25 235 255 34 217 251 46 209 252 50 211 255 46 211 255 45 210 255 45 210 255 45 210 255 47 209 255 48 209 255 48 209 255 50 208 255 50 208 255 76 178 253 76 178 253 76 178 253 76 178 253 76 178 253 76 178 253 76 178 253 76 178 253 76 178 253 11 243 255 11 243 255 11 243 255 11 243 255 11 243 255 11 243 255 11 243 255 11 243 255 14 242 253 9 241 253 14 244 255 24 236 255 33 217 251 43 210 252 47 212 255 44 212 255 44 211 255 44 211 255 44 211 255 44 211 255 44 211 255 44 211 255 44 211 255 44 211 255 74 180 254 74 180 254 74 180 254 74 180 254 74 180 254 74 180 254 74 180 254 74 180 254 76 180 253 71 179 252 78 181 255 88 172 255 98 154 251 109 146 252 114 148 255 110 148 255 106 149 254 107 148 254 107 148 254 109 147 254 110 147 254 110 147 254 112 146 254 112 146 254 139 115 253 139 115 253 139 115 253 139 115 253 139 115 253 139 115 253 139 115 253 139 115 253 139 115 251 135 114 251 140 117 255 152 108 255 160 90 249 170 81 249 177 83 255 172 82 255 171 83 255 172 82 255 172 82 255 174 82 255 175 81 255 175 81 255 177 80 255 177 80 255 203 52 255 203 52 255 203 52 255 203 52 255 203 52 255 203 52 255 203 52 255 203 52 255 205 52 254 200 51 254 205 53 255 215 45 255 223 27 251 232 18 253 237 20 255 232 20 255 237 19 255 237 19 255 237 19 255 237 19 255 237 19 255 237 19 255 237 19 255 237 19 255 255 10 255 255 10 255 255 10 255 
255 10 255 255 10 255 255 10 255 255 10 255 255 10 255 252 12 255 253 7 254 255 7 252 248 11 247 255 40 255 249 45 255 254 46 255 254 40 250 255 42 254 255 42 254 255 42 254 255 42 254 255 42 254 255 42 254 255 42 254 255 42 254 255 76 255 255 76 255 255 76 255 255 76 255 255 76 255 255 76 255 255 76 255 255 76 255 253 78 255 255 71 253 255 73 252 250 77 245 255 106 255 252 110 255 255 112 255 255 105 250 255 109 255 255 109 255 255 109 255 255 109 255 255 109 255 255 109 255 255 109 255 255 109 255 255 139 255 255 139 255 255 139 255 255 139 255 255 139 255 255 139 255 255 139 255 255 139 255 251 141 255 254 135 251 255 137 250 248 139 244 255 170 255 250 172 255 253 174 255 255 169 250 255 171 255 255 171 255 255 171 255 255 171 255 255 171 255 255 171 255 255 171 255 255 171 255 255 202 255 255 202 255 255 202 255 255 202 255 255 202 255 255 202 255 255 202 255 255 202 255 253 206 255 254 201 255 255 202 253 248 205 248 255 235 255 250 238 255 254 239 255 255 235 254 255 234 255 255 236 255 252 238 255 255 236 255 255 233 255 255 235 255 245 241 255 234 247 255 17 226 246 17 238 254 13 247 255 10 244 255 13 239 253 19 239 255 18 241 255 11 243 255 14 242 253 9 241 253 14 244 255 25 235 255 34 217 251 46 209 252 52 210 255 48 210 255 45 210 255 45 210 255 47 209 255 48 209 255 48 209 255 50 208 255 50 208 255 51 207 255 76 178 253 76 178 253 76 178 253 76 178 253 76 178 253 76 178 253 76 178 253 76 178 253 76 178 253 12 242 255 12 242 255 12 242 255 12 242 255 12 242 255 12 242 255 12 242 255 12 242 255 15 241 253 9 241 253 14 244 255 25 235 255 33 217 251 43 210 252 49 211 255 44 212 255 45 210 255 45 210 255 45 210 255 45 210 255 45 210 255 45 210 255 45 210 255 45 210 255 74 180 254 74 180 254 74 180 254 74 180 254 74 180 254 74 180 254 74 180 254 74 180 254 77 179 253 72 178 252 78 181 255 88 172 255 98 154 251 109 146 252 115 147 255 111 147 255 107 148 254 107 148 254 109 147 254 109 147 254 110 147 254 112 146 254 112 146 254 112 146 254 139 115 253 139 115 253 139 115 253 139 115 253 139 115 253 139 115 253 139 115 253 139 115 253 139 115 251 135 114 251 141 117 255 152 108 255 161 89 249 172 80 249 179 83 255 174 82 255 172 82 255 172 82 255 174 82 255 174 82 255 175 81 255 177 80 255 177 80 255 177 80 255 203 52 255 203 52 255 203 52 255 203 52 255 203 52 255 203 52 255 203 52 255 203 52 255 205 52 254 200 51 254 205 53 255 215 45 255 223 27 251 232 18 253 237 20 255 232 20 255 237 19 255 237 19 255 237 19 255 237 19 255 237 19 255 237 19 255 237 19 255 237 19 255 255 10 255 255 10 255 255 10 255 255 10 255 255 10 255 255 10 255 255 10 255 255 10 255 252 12 255 253 7 254 255 7 252 248 11 247 255 40 255 249 45 255 254 46 255 254 40 250 255 42 254 255 42 254 255 42 254 255 42 254 255 42 254 255 42 254 255 42 254 255 42 254 255 76 255 255 76 255 255 76 255 255 76 255 255 76 255 255 76 255 255 76 255 255 76 255 253 78 255 255 72 254 
255 74 253 250 77 245 255 107 255 252 110 255 255 112 255 255 106 251 255 109 255 255 109 255 255 109 255 255 109 255 255 109 255 255 109 255 255 109 255 255 109 255 255 140 255 255 140 255 255 140 255 255 140 255 255 140 255 255 140 255 255 140 255 255 140 255 251 141 255 254 135 251 255 137 250 248 139 244 255 170 255 250 172 255 253 174 255 255 169 250 255 171 255 255 171 255 255 171 255 255 171 255 255 171 255 255 171 255 255 171 255 255 171 255 254 204 255 254 204 255 254 204 255 254 204 255 254 204 255 254 204 255 254 204 255 254 204 255 251 207 255 254 201 255 255 203 253 248 205 248 255 236 255 251 239 255 253 240 255 255 235 254 255 234 255 255 236 255 252 238 255 255 236 255 255 233 255 255 235 255 245 241 255 234 247 255 17 226 246 17 238 254 13 247 255 10 244 255 13 239 253 19 239 255 18 241 255 11 243 255 14 242 253 9 241 253 16 243 255 26 235 255 36 216 251 47 208 252 52 210 255 48 210 255 47 209 255 47 209 255 47 209 255 48 209 255 50 208 255 50 208 255 51 207 255 51 207 255 77 177 253 77 177 253 77 177 253 77 177 253 77 177 253 77 177 253 77 177 253 77 177 253 77 177 253 12 242 255 12 242 255 12 242 255 12 242 255 12 242 255 12 242 255 12 242 255 12 242 255 15 241 253 10 240 253 16 243 255 25 235 255 33 217 251 44 210 252 49 211 255 45 212 255 45 210 255 45 210 255 45 210 255 45 210 255 45 210 255 45 210 255 45 210 255 45 210 255 76 179 254 76 179 254 76 179 254 76 179 254 76 179 254 76 179 254 76 179 254 76 179 254 77 179 253 72 178 252 78 181 255 90 172 255 98 154 251 109 146 252 115 147 255 111 147 255 107 148 254 107 148 254 109 147 254 110 147 254 110 147 254 112 146 254 112 146 254 113 145 254 141 114 253 141 114 253 141 114 253 141 114 253 141 114 253 141 114 253 141 114 253 141 114 253 141 115 251 136 114 251 141 117 255 152 108 255 161 89 249 172 80 249 179 83 255 174 82 255 172 82 255 172 82 255 174 82 255 175 81 255 175 81 255 177 80 255 177 80 255 178 80 255 203 52 255 203 52 255 203 52 255 203 52 255 203 52 255 203 52 255 203 52 255 203 52 255 205 52 254 200 51 254 205 53 255 215 45 255 223 27 251 232 18 253 237 20 255 232 20 255 237 19 255 237 19 255 237 19 255 237 19 255 237 19 255 237 19 255 237 19 255 237 19 255 255 10 255 255 10 255 255 10 255 255 10 255 255 10 255 255 10 255 255 10 255 255 10 255 252 12 255 253 7 254 255 7 252 248 11 247 255 40 255 249 45 255 254 46 255 254 40 250 255 42 254 255 42 254 255 42 254 255 42 254 255 42 254 255 42 254 255 42 254 255 42 254 255 77 255 255 77 255 255 77 255 255 77 255 255 77 255 255 77 255 255 77 255 255 77 255 253 78 255 255 72 254 255 74 253 250 77 245 255 107 255 252 110 255 255 112 255 255 106 251 255 109 255 255 109 255 255 109 255 255 109 255 255 109 255 255 109 255 255 109 255 255 109 255 255 140 255 255 140 255 255 140 255 255 140 255 255 140 255 255 140 255 255 140 255 255 140 255 251 141 255 254 135 251 255 137 250 248 139 244 255 170 255 250 172 255 253 174 255 255 169 250 255 171 255 
255 171 255 255 171 255 255 171 255 255 171 255 255 171 255 255 171 255 255 171 255 254 204 255 254 204 255 254 204 255 254 204 255 254 204 255 254 204 255 254 204 255 254 204 255 252 208 255 254 201 255 255 203 253 249 206 249 255 236 255 251 239 255 254 241 255 255 235 254 255 234 255 255 236 255 252 238 255 255 236 255 255 233 255 255 235 255 245 241 255 234 247 255 17 226 246 17 238 254 13 247 255 10 244 255 13 239 253 19 239 255 18 241 255 11 243 255 14 242 253 9 241 253 16 243 255 26 235 255 36 216 251 47 208 252 53 209 255 49 209 255 47 209 255 47 209 255 48 209 255 48 209 255 50 208 255 51 207 255 51 207 255 51 207 255 77 177 253 77 177 253 77 177 253 77 177 253 77 177 253 77 177 253 77 177 253 77 177 253 77 177 253 12 242 255 12 242 255 12 242 255 12 242 255 12 242 255 12 242 255 12 242 255 12 242 255 14 242 253 9 241 253 14 244 255 25 235 255 33 217 251 43 210 252 47 212 255 44 212 255 45 210 255 45 210 255 45 210 255 45 210 255 45 210 255 45 210 255 45 210 255 45 210 255 74 180 254 74 180 254 74 180 254 74 180 254 74 180 254 74 180 254 74 180 254 74 180 254 76 180 253 71 179 252 78 181 255 88 172 255 98 154 251 109 146 252 115 147 255 111 147 255 107 148 254 107 148 254 109 147 254 109 147 254 110 147 254 110 147 254 112 146 254 112 146 254 135 117 255 137 116 255 137 116 255 138 115 255 138 115 255 139 115 255 139 115 255 141 114 255 139 115 253 135 114 253 141 116 255 152 107 255 161 89 251 172 80 253 177 83 255 172 82 255 172 82 255 172 82 255 174 82 255 174 82 255 175 81 255 175 81 255 177 80 255 177 80 255 201 52 255 203 52 255 203 52 255 204 51 255 204 51 255 206 50 255 206 50 255 207 50 255 207 50 253 201 50 253 206 53 255 217 44 255 225 26 251 235 17 253 241 20 255 234 20 255 236 20 255 236 20 255 236 20 255 236 20 255 236 20 255 236 20 255 236 20 255 236 20 255 255 11 255 255 11 255 255 11 255 255 11 255 255 11 255 255 11 255 255 11 255 255 11 255 253 13 255 254 9 254 255 9 251 249 13 245 255 43 255 250 46 255 255 47 255 255 42 250 253 43 254 253 43 254 253 43 254 253 43 254 253 43 254 253 43 254 253 43 254 253 43 254 254 75 254 254 75 254 254 75 254 254 75 254 254 75 254 254 75 254 254 75 254 254 75 254 252 77 255 255 73 255 255 77 255 252 79 247 255 105 255 249 107 255 254 111 255 255 107 252 255 109 255 255 109 255 255 109 255 255 109 255 255 109 255 255 109 255 255 109 255 255 109 255 255 139 254 255 139 254 255 139 254 255 139 254 255 139 254 255 139 254 255 139 254 255 139 254 252 142 255 255 136 252 255 138 251 249 140 245 255 171 255 251 173 255 254 175 255 255 170 251 255 171 255 255 171 255 255 171 255 255 171 255 255 171 255 255 171 255 255 171 255 255 171 255 254 204 255 254 204 255 254 204 255 254 204 255 254 204 255 254 204 255 254 204 255 254 204 255 250 206 255 253 200 252 255 202 251 247 205 245 255 235 255 250 239 255 252 240 254 255 234 249 255 235 255 254 237 255 251 238 255 255 236 255 255 234 255 255 236 255 244 242 255 233 248 255 
17 226 246 17 238 254 13 247 255 10 244 255 13 239 253 19 239 255 18 241 255 11 243 255 14 242 253 9 241 253 16 243 255 26 235 255 34 217 251 46 209 252 52 210 255 48 210 255 47 209 255 47 209 255 47 209 255 48 209 255 50 208 255 50 208 255 51 207 255 51 207 255 75 178 255 75 178 255 76 177 255 76 177 255 77 177 255 79 176 255 79 176 255 79 176 255 77 177 255 12 242 255 12 242 255 12 242 255 12 242 255 12 242 255 12 242 255 12 242 255 12 242 255 14 242 253 9 241 253 14 244 255 25 235 255 33 217 251 43 210 252 47 212 255 44 212 255 45 210 255 45 210 255 45 210 255 45 210 255 45 210 255 45 210 255 45 210 255 45 210 255 74 180 254 74 180 254 74 180 254 74 180 254 74 180 254 74 180 254 74 180 254 74 180 254 76 180 253 71 179 252 78 181 255 88 172 255 98 154 251 109 146 252 115 147 255 111 147 255 107 148 254 107 148 254 109 147 254 109 147 254 110 147 254 110 147 254 112 146 254 112 146 254 135 117 255 137 116 255 137 116 255 138 115 255 138 115 255 139 115 255 139 115 255 141 114 255 139 115 253 135 114 253 141 116 255 152 107 255 161 89 251 172 80 253 177 83 255 172 82 255 172 82 255 172 82 255 174 82 255 174 82 255 175 81 255 175 81 255 177 80 255 177 80 255 201 52 255 203 52 255 203 52 255 204 51 255 204 51 255 206 50 255 206 50 255 207 50 255 207 50 253 201 50 253 206 53 255 217 44 255 225 26 251 235 17 253 241 20 255 234 20 255 236 20 255 236 20 255 236 20 255 236 20 255 236 20 255 236 20 255 236 20 255 236 20 255 255 11 255 255 11 255 255 11 255 255 11 255 255 11 255 255 11 255 255 11 255 255 11 255 253 13 255 254 9 254 255 9 251 249 13 245 255 43 255 250 46 255 255 47 255 255 42 250 253 43 254 253 43 254 253 43 254 253 43 254 253 43 254 253 43 254 253 43 254 253 43 254 254 75 254 254 75 254 254 75 254 254 75 254 254 75 254 254 75 254 254 75 254 254 75 254 252 77 255 255 73 255 255 77 255 252 79 247 255 105 255 249 107 255 254 111 255 255 107 252 255 109 255 255 109 255 255 109 255 255 109 255 255 109 255 255 109 255 255 109 255 255 109 255 255 139 254 255 139 254 255 139 254 255 139 254 255 139 254 255 139 254 255 139 254 255 139 254 252 142 255 255 136 252 255 138 251 249 140 245 255 171 255 251 173 255 254 175 255 255 170 251 255 171 255 255 171 255 255 171 255 255 171 255 255 171 255 255 171 255 255 171 255 255 171 255 254 204 255 254 204 255 254 204 255 254 204 255 254 204 255 254 204 255 254 204 255 254 204 255 250 206 255 253 200 252 255 202 251 247 205 245 255 235 255 250 239 255 252 240 254 255 234 249 255 235 255 254 237 255 251 238 255 255 236 255 255 234 255 255 236 255 244 242 255 233 248 255 17 226 246 17 238 254 13 247 255 10 244 255 13 239 253 19 239 255 18 241 255 11 243 255 14 242 253 9 241 253 16 243 255 26 235 255 34 217 251 46 209 252 52 210 255 48 210 255 47 209 255 47 209 255 47 209 255 48 209 255 50 208 255 50 208 255 51 207 255 51 207 255 75 178 255 75 178 255 76 177 255 76 177 255 77 177 255 79 176 255 79 176 255 
79 176 255 77 177 255 12 242 255 12 242 255 12 242 255 12 242 255 12 242 255 12 242 255 12 242 255 12 242 255 14 242 253 9 241 253 14 244 255 25 235 255 33 217 251 43 210 252 47 212 255 44 212 255 45 210 255 45 210 255 45 210 255 45 210 255 45 210 255 45 210 255 45 210 255 45 210 255 74 180 254 74 180 254 74 180 254 74 180 254 74 180 254 74 180 254 74 180 254 74 180 254 76 180 253 71 179 252 78 181 255 88 172 255 98 154 251 109 146 252 115 147 255 111 147 255 107 148 254 107 148 254 109 147 254 109 147 254 110 147 254 110 147 254 112 146 254 112 146 254 135 117 255 137 116 255 137 116 255 138 115 255 138 115 255 139 115 255 139 115 255 141 114 255 139 115 253 135 114 253 141 116 255 152 107 255 161 89 251 172 80 253 177 83 255 172 82 255 172 82 255 172 82 255 174 82 255 174 82 255 175 81 255 175 81 255 177 80 255 177 80 255 201 52 255 203 52 255 203 52 255 204 51 255 204 51 255 206 50 255 206 50 255 207 50 255 207 50 253 201 50 253 206 53 255 217 44 255 225 26 251 235 17 253 241 20 255 234 20 255 236 20 255 236 20 255 236 20 255 236 20 255 236 20 255 236 20 255 236 20 255 236 20 255 255 11 255 255 11 255 255 11 255 255 11 255 255 11 255 255 11 255 255 11 255 255 11 255 253 13 255 254 9 254 255 9 251 249 13 245 255 43 255 250 46 255 255 47 255 255 42 250 253 43 254 253 43 254 253 43 254 253 43 254 253 43 254 253 43 254 253 43 254 253 43 254 254 75 254 254 75 254 254 75 254 254 75 254 254 75 254 254 75 254 254 75 254 254 75 254 252 77 255 255 73 255 255 77 255 252 79 247 255 105 255 249 107 255 254 111 255 255 107 252 255 109 255 255 109 255 255 109 255 255 109 255 255 109 255 255 109 255 255 109 255 255 109 255 255 139 254 255 139 254 255 139 254 255 139 254 255 139 254 255 139 254 255 139 254 255 139 254 252 142 255 255 136 252 255 138 251 249 140 245 255 171 255 251 173 255 254 175 255 255 170 251 255 171 255 255 171 255 255 171 255 255 171 255 255 171 255 255 171 255 255 171 255 255 171 255 254 204 255 254 204 255 254 204 255 254 204 255 254 204 255 254 204 255 254 204 255 254 204 255 250 206 255 253 200 252 255 202 251 247 205 245 255 235 255 250 239 255 252 240 254 255 234 249 255 235 255 254 237 255 251 238 255 255 236 255 255 234 255 255 236 255 244 242 255 233 248 255 17 226 246 17 238 254 13 247 255 10 244 255 13 239 253 19 239 255 18 241 255 11 243 255 14 242 253 9 241 253 16 243 255 26 235 255 34 217 251 46 209 252 52 210 255 48 210 255 47 209 255 47 209 255 47 209 255 48 209 255 50 208 255 50 208 255 51 207 255 51 207 255 75 178 255 75 178 255 76 177 255 76 177 255 77 177 255 79 176 255 79 176 255 79 176 255 77 177 255 12 242 255 12 242 255 12 242 255 12 242 255 12 242 255 12 242 255 12 242 255 12 242 255 14 242 253 9 241 253 14 244 255 25 235 255 33 217 251 43 210 252 47 212 255 44 212 255 45 210 255 45 210 255 45 210 255 45 210 255 45 210 255 45 210 255 45 210 255 45 210 255 74 180 254 74 180 254 74 180 254 74 180 254 74 180 254 
74 180 254 74 180 254 74 180 254 76 180 253 71 179 252 78 181 255 88 172 255 98 154 251 109 146 252 115 147 255 111 147 255 107 148 254 107 148 254 109 147 254 109 147 254 110 147 254 110 147 254 112 146 254 112 146 254 135 117 255 137 116 255 137 116 255 138 115 255 138 115 255 139 115 255 139 115 255 141 114 255 139 115 253 135 114 253 141 116 255 152 107 255 161 89 251 172 80 253 177 83 255 172 82 255 172 82 255 172 82 255 174 82 255 174 82 255 175 81 255 175 81 255 177 80 255 177 80 255 201 52 255 203 52 255 203 52 255 204 51 255 204 51 255 206 50 255 206 50 255 207 50 255 207 50 253 201 50 253 206 53 255 217 44 255 225 26 251 235 17 253 241 20 255 234 20 255 236 20 255 236 20 255 236 20 255 236 20 255 236 20 255 236 20 255 236 20 255 236 20 255 255 11 255 255 11 255 255 11 255 255 11 255 255 11 255 255 11 255 255 11 255 255 11 255 253 13 255 254 9 254 255 9 251 249 13 245 255 43 255 250 46 255 255 47 255 255 42 250 253 43 254 253 43 254 253 43 254 253 43 254 253 43 254 253 43 254 253 43 254 253 43 254 254 75 254 254 75 254 254 75 254 254 75 254 254 75 254 254 75 254 254 75 254 254 75 254 252 77 255 255 73 255 255 77 255 252 79 247 255 105 255 249 107 255 254 111 255 255 107 252 255 109 255 255 109 255 255 109 255 255 109 255 255 109 255 255 109 255 255 109 255 255 109 255 255 139 254 255 139 254 255 139 254 255 139 254 255 139 254 255 139 254 255 139 254 255 139 254 252 142 255 255 136 252 255 138 251 249 140 245 255 171 255 251 173 255 254 175 255 255 170 251 255 171 255 255 171 255 255 171 255 255 171 255 255 171 255 255 171 255 255 171 255 255 171 255 254 204 255 254 204 255 254 204 255 254 204 255 254 204 255 254 204 255 254 204 255 254 204 255 250 206 255 253 200 252 255 202 251 247 205 245 255 235 255 250 239 255 252 240 254 255 234 249 255 235 255 254 237 255 251 238 255 255 236 255 255 234 255 255 236 255 244 242 255 233 248 255 17 226 246 17 238 254 13 247 255 10 244 255 13 239 253 19 239 255 18 241 255 11 243 255 14 242 253 9 241 253 16 243 255 26 235 255 34 217 251 46 209 252 52 210 255 48 210 255 47 209 255 47 209 255 47 209 255 48 209 255 50 208 255 50 208 255 51 207 255 51 207 255 75 178 255 75 178 255 76 177 255 76 177 255 77 177 255 79 176 255 79 176 255 79 176 255 77 177 255 12 242 255 12 242 255 12 242 255 12 242 255 12 242 255 12 242 255 12 242 255 12 242 255 14 242 253 9 241 253 14 244 255 25 235 255 33 217 251 43 210 252 47 212 255 44 212 255 45 210 255 45 210 255 45 210 255 45 210 255 45 210 255 45 210 255 45 210 255 45 210 255 74 180 254 74 180 254 74 180 254 74 180 254 74 180 254 74 180 254 74 180 254 74 180 254 76 180 253 71 179 252 78 181 255 88 172 255 98 154 251 109 146 252 115 147 255 111 147 255 107 148 254 107 148 254 109 147 254 109 147 254 110 147 254 110 147 254 112 146 254 112 146 254 135 117 255 137 116 255 137 116 255 138 115 255 138 115 255 139 115 255 139 115 255 141 114 255 139 115 253 135 114 253 141 116 255 152 107 255 
161 89 251 172 80 253 177 83 255 172 82 255 172 82 255 172 82 255 174 82 255 174 82 255 175 81 255 175 81 255 177 80 255 177 80 255 201 52 255 203 52 255 203 52 255 204 51 255 204 51 255 206 50 255 206 50 255 207 50 255 207 50 253 201 50 253 206 53 255 217 44 255 225 26 251 235 17 253 241 20 255 234 20 255 236 20 255 236 20 255 236 20 255 236 20 255 236 20 255 236 20 255 236 20 255 236 20 255 255 11 255 255 11 255 255 11 255 255 11 255 255 11 255 255 11 255 255 11 255 255 11 255 253 13 255 254 9 254 255 9 251 249 13 245 255 43 255 250 46 255 255 47 255 255 42 250 253 43 254 253 43 254 253 43 254 253 43 254 253 43 254 253 43 254 253 43 254 253 43 254 254 75 254 254 75 254 254 75 254 254 75 254 254 75 254 254 75 254 254 75 254 254 75 254 252 77 255 255 73 255 255 77 255 252 79 247 255 105 255 249 107 255 254 111 255 255 107 252 255 109 255 255 109 255 255 109 255 255 109 255 255 109 255 255 109 255 255 109 255 255 109 255 255 139 254 255 139 254 255 139 254 255 139 254 255 139 254 255 139 254 255 139 254 255 139 254 252 142 255 255 136 252 255 138 251 249 140 245 255 171 255 251 173 255 254 175 255 255 170 251 255 171 255 255 171 255 255 171 255 255 171 255 255 171 255 255 171 255 255 171 255 255 171 255 254 204 255 254 204 255 254 204 255 254 204 255 254 204 255 254 204 255 254 204 255 254 204 255 250 206 255 253 200 252 255 202 251 247 205 245 255 235 255 250 239 255 252 240 254 255 234 249 255 235 255 254 237 255 251 238 255 255 236 255 255 234 255 255 236 255 244 242 255 233 248 255 17 226 246 17 238 254 13 247 255 10 244 255 13 239 253 19 239 255 18 241 255 11 243 255 14 242 253 9 241 253 16 243 255 26 235 255 34 217 251 46 209 252 52 210 255 48 210 255 47 209 255 47 209 255 47 209 255 48 209 255 50 208 255 50 208 255 51 207 255 51 207 255 75 178 255 75 178 255 76 177 255 76 177 255 77 177 255 79 176 255 79 176 255 79 176 255 77 177 255 12 242 255 12 242 255 12 242 255 12 242 255 12 242 255 12 242 255 12 242 255 12 242 255 14 242 253 9 241 253 14 244 255 25 235 255 33 217 251 43 210 252 47 212 255 44 212 255 45 210 255 45 210 255 45 210 255 45 210 255 45 210 255 45 210 255 45 210 255 45 210 255 74 180 254 74 180 254 74 180 254 74 180 254 74 180 254 74 180 254 74 180 254 74 180 254 76 180 253 71 179 252 78 181 255 88 172 255 98 154 251 109 146 252 115 147 255 111 147 255 107 148 254 107 148 254 109 147 254 109 147 254 110 147 254 110 147 254 112 146 254 112 146 254 135 117 255 137 116 255 137 116 255 138 115 255 138 115 255 139 115 255 139 115 255 141 114 255 139 115 253 135 114 253 141 116 255 152 107 255 161 89 251 172 80 253 177 83 255 172 82 255 172 82 255 172 82 255 174 82 255 174 82 255 175 81 255 175 81 255 177 80 255 177 80 255 201 52 255 203 52 255 203 52 255 204 51 255 204 51 255 206 50 255 206 50 255 207 50 255 207 50 253 201 50 253 206 53 255 217 44 255 225 26 251 235 17 253 241 20 255 234 20 255 236 20 255 236 20 255 236 20 255 
236 20 255 236 20 255 236 20 255 236 20 255 236 20 255 255 11 255 255 11 255 255 11 255 255 11 255 255 11 255 255 11 255 255 11 255 255 11 255 253 13 255 254 9 254 255 9 251 249 13 245 255 43 255 250 46 255 255 47 255 255 42 250 253 43 254 253 43 254 253 43 254 253 43 254 253 43 254 253 43 254 253 43 254 253 43 254 254 75 254 254 75 254 254 75 254 254 75 254 254 75 254 254 75 254 254 75 254 254 75 254 252 77 255 255 73 255 255 77 255 252 79 247 255 105 255 249 107 255 254 111 255 255 107 252 255 109 255 255 109 255 255 109 255 255 109 255 255 109 255 255 109 255 255 109 255 255 109 255 255 139 254 255 139 254 255 139 254 255 139 254 255 139 254 255 139 254 255 139 254 255 139 254 252 142 255 255 136 252 255 138 251 249 140 245 255 171 255 251 173 255 254 175 255 255 170 251 255 171 255 255 171 255 255 171 255 255 171 255 255 171 255 255 171 255 255 171 255 255 171 255 254 204 255 254 204 255 254 204 255 254 204 255 254 204 255 254 204 255 254 204 255 254 204 255 250 206 255 253 200 252 255 202 251 247 205 245 255 235 255 250 239 255 252 240 254 255 234 249 255 235 255 254 237 255 251 238 255 255 236 255 255 234 255 255 236 255 244 242 255 233 248 255 17 226 246 17 238 254 13 247 255 10 244 255 13 239 253 19 239 255 18 241 255 11 243 255 14 242 253 9 241 253 16 243 255 26 235 255 34 217 251 46 209 252 52 210 255 48 210 255 47 209 255 47 209 255 47 209 255 48 209 255 50 208 255 50 208 255 51 207 255 51 207 255 75 178 255 75 178 255 76 177 255 76 177 255 77 177 255 79 176 255 79 176 255 79 176 255 77 177 255 12 242 255 12 242 255 12 242 255 12 242 255 12 242 255 12 242 255 12 242 255 12 242 255 14 242 253 9 241 253 14 244 255 25 235 255 33 217 251 43 210 252 47 212 255 44 212 255 45 210 255 45 210 255 45 210 255 45 210 255 45 210 255 45 210 255 45 210 255 45 210 255 74 180 254 74 180 254 74 180 254 74 180 254 74 180 254 74 180 254 74 180 254 74 180 254 76 180 253 71 179 252 78 181 255 88 172 255 98 154 251 109 146 252 115 147 255 111 147 255 107 148 254 107 148 254 109 147 254 109 147 254 110 147 254 110 147 254 112 146 254 112 146 254 135 117 255 137 116 255 137 116 255 138 115 255 138 115 255 139 115 255 139 115 255 141 114 255 139 115 253 135 114 253 141 116 255 152 107 255 161 89 251 172 80 253 177 83 255 172 82 255 172 82 255 172 82 255 174 82 255 174 82 255 175 81 255 175 81 255 177 80 255 177 80 255 201 52 255 203 52 255 203 52 255 204 51 255 204 51 255 206 50 255 206 50 255 207 50 255 207 50 253 201 50 253 206 53 255 217 44 255 225 26 251 235 17 253 241 20 255 234 20 255 236 20 255 236 20 255 236 20 255 236 20 255 236 20 255 236 20 255 236 20 255 236 20 255 255 11 255 255 11 255 255 11 255 255 11 255 255 11 255 255 11 255 255 11 255 255 11 255 253 13 255 254 9 254 255 9 251 249 13 245 255 43 255 250 46 255 255 47 255 255 42 250 253 43 254 253 43 254 253 43 254 253 43 254 253 43 254 253 43 254 253 43 254 253 43 254 254 75 254 254 75 254 
254 75 254 254 75 254 254 75 254 254 75 254 254 75 254 254 75 254 252 77 255 255 73 255 255 77 255 252 79 247 255 105 255 249 107 255 254 111 255 255 107 252 255 109 255 255 109 255 255 109 255 255 109 255 255 109 255 255 109 255 255 109 255 255 109 255 255 139 254 255 139 254 255 139 254 255 139 254 255 139 254 255 139 254 255 139 254 255 139 254 252 142 255 255 136 252 255 138 251 249 140 245 255 171 255 251 173 255 254 175 255 255 170 251 255 171 255 255 171 255 255 171 255 255 171 255 255 171 255 255 171 255 255 171 255 255 171 255 254 204 255 254 204 255 254 204 255 254 204 255 254 204 255 254 204 255 254 204 255 254 204 255 250 206 255 253 200 252 255 202 251 247 205 245 255 235 255 250 239 255 252 240 254 255 234 249 255 235 255 254 237 255 251 238 255 255 236 255 255 234 255 255 236 255 244 242 255 233 248 255 17 226 246 17 238 254 13 247 255 10 244 255 13 239 253 19 239 255 18 241 255 11 243 255 14 242 253 9 241 253 16 243 255 26 235 255 34 217 251 46 209 252 52 210 255 48 210 255 47 209 255 47 209 255 47 209 255 48 209 255 50 208 255 50 208 255 51 207 255 51 207 255 75 178 255 75 178 255 76 177 255 76 177 255 77 177 255 79 176 255 79 176 255 79 176 255 77 177 255 12 242 255 12 242 255 12 242 255 12 242 255 12 242 255 12 242 255 12 242 255 12 242 255 14 242 253 9 241 253 14 244 255 25 235 255 33 217 251 43 210 252 47 212 255 44 212 255 45 210 255 45 210 255 45 210 255 45 210 255 45 210 255 45 210 255 45 210 255 45 210 255 74 180 254 74 180 254 74 180 254 74 180 254 74 180 254 74 180 254 74 180 254 74 180 254 76 180 253 71 179 252 78 181 255 88 172 255 98 154 251 109 146 252 115 147 255 111 147 255 107 148 254 107 148 254 109 147 254 109 147 254 110 147 254 110 147 254 112 146 254 112 146 254 135 117 255 137 116 255 137 116 255 138 115 255 138 115 255 139 115 255 139 115 255 141 114 255 139 115 253 135 114 253 141 116 255 152 107 255 161 89 251 172 80 253 177 83 255 172 82 255 172 82 255 172 82 255 174 82 255 174 82 255 175 81 255 175 81 255 177 80 255 177 80 255 201 52 255 203 52 255 203 52 255 204 51 255 204 51 255 206 50 255 206 50 255 207 50 255 207 50 253 201 50 253 206 53 255 217 44 255 225 26 251 235 17 253 241 20 255 234 20 255 236 20 255 236 20 255 236 20 255 236 20 255 236 20 255 236 20 255 236 20 255 236 20 255 255 11 255 255 11 255 255 11 255 255 11 255 255 11 255 255 11 255 255 11 255 255 11 255 253 13 255 254 9 254 255 9 251 249 13 245 255 43 255 250 46 255 255 47 255 255 42 250 253 43 254 253 43 254 253 43 254 253 43 254 253 43 254 253 43 254 253 43 254 253 43 254 254 75 254 254 75 254 254 75 254 254 75 254 254 75 254 254 75 254 254 75 254 254 75 254 252 77 255 255 73 255 255 77 255 252 79 247 255 105 255 249 107 255 254 111 255 255 107 252 255 109 255 255 109 255 255 109 255 255 109 255 255 109 255 255 109 255 255 109 255 255 109 255 255 139 254 255 139 254 255 139 254 255 139 254 255 139 254 255 139 254 255 139 254 255 139 254 252 142 255 
255 136 252 255 138 251 249 140 245 255 171 255 251 173 255 254 175 255 255 170 251 255 171 255 255 171 255 255 171 255 255 171 255 255 171 255 255 171 255 255 171 255 255 171 255 254 204 255 254 204 255 254 204 255 254 204 255 254 204 255 254 204 255 254 204 255 254 204 255 250 206 255 253 200 252 255 202 251 247 205 245 255 235 255 250 239 255 252 240 254 255 234 249 255 235 255 254 237 255 251 238 255 255 236 255 255 234 255 255 236 255 244 242 255 233 248 255 17 226 246 17 238 254 13 247 255 10 244 255 13 239 253 19 239 255 18 241 255 11 243 255 14 242 253 9 241 253 16 243 255 26 235 255 34 217 251 46 209 252 52 210 255 48 210 255 47 209 255 47 209 255 47 209 255 48 209 255 50 208 255 50 208 255 51 207 255 51 207 255 75 178 255 75 178 255 76 177 255 76 177 255 77 177 255 79 176 255 79 176 255 79 176 255 77 177 255 14 242 255 14 242 255 14 242 255 14 242 255 14 242 255 14 242 255 14 242 255 14 242 255 14 242 253 9 241 253 16 243 255 26 235 255 34 217 251 46 209 252 52 210 255 48 210 255 44 211 255 45 210 255 45 210 255 47 209 255 47 209 255 48 209 255 48 209 255 50 208 255 75 178 255 75 178 255 76 177 255 76 177 255 77 177 255 79 176 255 79 176 255 79 176 255 77 177 253 73 176 253 78 179 255 89 170 255 98 152 252 109 143 253 115 145 255 111 144 255 109 145 255 111 145 255 111 145 255 112 144 255 112 144 255 113 143 255 113 143 255 115 142 255 139 115 255 139 115 255 141 114 255 141 114 255 142 113 255 142 113 255 144 112 255 144 112 255 144 113 253 139 112 253 144 115 255 153 107 255 163 88 251 172 80 253 177 83 255 172 82 255 172 82 255 172 82 255 174 82 255 174 82 255 175 81 255 175 81 255 177 80 255 177 80 255 203 49 255 203 49 255 203 49 255 205 49 255 206 48 255 206 48 255 207 47 255 207 47 255 207 48 255 203 47 253 208 50 255 217 42 255 225 24 254 236 15 253 241 18 255 236 17 255 238 16 255 238 16 255 238 16 255 238 16 255 238 16 255 238 16 255 238 16 255 238 16 255 255 15 255 255 15 255 255 15 255 255 15 255 255 15 255 255 15 255 255 15 255 255 15 255 250 15 255 255 11 255 255 15 255 250 17 248 255 43 255 247 45 255 252 49 255 255 45 252 254 44 253 254 44 253 254 44 253 254 44 253 254 44 253 254 44 253 254 44 253 254 44 253 255 78 255 255 78 255 255 78 255 255 78 255 255 78 255 255 78 255 255 78 255 255 78 255 252 79 255 255 75 255 255 79 255 252 81 248 255 107 255 248 108 255 254 112 255 255 109 253 255 110 255 255 110 255 255 110 255 255 110 255 255 110 255 255 110 255 255 110 255 255 110 255 255 142 255 255 142 255 255 142 255 255 142 255 255 142 255 255 142 255 255 142 255 255 142 255 251 143 255 255 141 254 255 143 253 250 145 246 255 171 255 246 173 252 253 177 252 255 174 250 255 173 255 255 173 255 255 173 255 255 173 255 255 173 255 255 173 255 255 173 255 255 173 255 255 205 254 255 205 254 255 205 254 255 205 254 255 205 254 255 205 254 255 205 254 255 205 254 253 209 255 255 202 254 255 204 253 249 207 247 255 236 255 250 239 255 253 241 255 255 234 249 
255 237 255 252 239 255 251 240 255 255 238 255 255 235 255 255 237 255 246 242 255 235 248 255 21 224 241 19 236 251 14 245 255 11 241 254 16 236 252 23 235 255 19 238 255 13 240 255 18 238 254 14 237 254 19 240 255 28 232 255 37 213 252 47 205 253 52 208 255 47 207 255 47 207 255 47 207 255 49 207 255 49 207 255 50 206 255 50 206 255 51 205 255 51 205 255 76 177 255 77 177 255 77 177 255 79 176 255 79 176 255 80 175 255 80 175 255 82 175 255 80 175 255 14 242 255 14 242 255 14 242 255 14 242 255 14 242 255 14 242 255 14 242 255 14 242 255 14 242 253 9 241 253 16 243 255 26 235 255 34 217 251 46 209 252 52 210 255 48 210 255 44 211 255 45 210 255 45 210 255 47 209 255 47 209 255 48 209 255 48 209 255 50 208 255 75 178 255 75 178 255 76 177 255 76 177 255 77 177 255 79 176 255 79 176 255 79 176 255 77 177 253 73 176 253 78 179 255 89 170 255 98 152 252 109 143 253 115 145 255 111 144 255 109 145 255 111 145 255 111 145 255 112 144 255 112 144 255 113 143 255 113 143 255 115 142 255 139 115 255 139 115 255 141 114 255 141 114 255 142 113 255 142 113 255 144 112 255 144 112 255 144 113 253 139 112 253 144 115 255 153 107 255 163 88 251 172 80 253 177 83 255 172 82 255 172 82 255 172 82 255 174 82 255 174 82 255 175 81 255 175 81 255 177 80 255 177 80 255 203 49 255 203 49 255 203 49 255 205 49 255 206 48 255 206 48 255 207 47 255 207 47 255 207 48 255 203 47 253 208 50 255 217 42 255 225 24 254 236 15 253 241 18 255 236 17 255 238 16 255 238 16 255 238 16 255 238 16 255 238 16 255 238 16 255 238 16 255 238 16 255 255 15 255 255 15 255 255 15 255 255 15 255 255 15 255 255 15 255 255 15 255 255 15 255 250 15 255 255 11 255 255 15 255 250 17 248 255 43 255 247 45 255 252 49 255 255 45 252 254 44 253 254 44 253 254 44 253 254 44 253 254 44 253 254 44 253 254 44 253 254 44 253 255 78 255 255 78 255 255 78 255 255 78 255 255 78 255 255 78 255 255 78 255 255 78 255 252 79 255 255 75 255 255 79 255 252 81 248 255 107 255 248 108 255 254 112 255 255 109 253 255 110 255 255 110 255 255 110 255 255 110 255 255 110 255 255 110 255 255 110 255 255 110 255 255 142 255 255 142 255 255 142 255 255 142 255 255 142 255 255 142 255 255 142 255 255 142 255 251 143 255 255 141 254 255 143 253 250 145 246 255 171 255 246 173 252 253 177 252 255 174 250 255 173 255 255 173 255 255 173 255 255 173 255 255 173 255 255 173 255 255 173 255 255 173 255 255 205 254 255 205 254 255 205 254 255 205 254 255 205 254 255 205 254 255 205 254 255 205 254 253 209 255 255 202 254 255 204 253 249 207 247 255 236 255 250 239 255 253 241 255 255 234 249 255 237 255 252 239 255 251 240 255 255 238 255 255 235 255 255 237 255 246 242 255 235 248 255 21 224 241 19 236 251 14 245 255 11 241 254 16 236 252 23 235 255 19 238 255 13 240 255 18 238 254 14 237 254 19 240 255 28 232 255 37 213 252 47 205 253 52 208 255 47 207 255 47 207 255 47 207 255 49 207 255 49 207 255 50 206 255 50 206 255 51 205 255 
51 205 255 76 177 255 77 177 255 77 177 255 79 176 255 79 176 255 80 175 255 80 175 255 82 175 255 80 175 255 14 242 255 14 242 255 14 242 255 14 242 255 14 242 255 14 242 255 14 242 255 14 242 255 14 242 253 9 241 253 16 243 255 26 235 255 34 217 251 46 209 252 52 210 255 48 210 255 44 211 255 45 210 255 45 210 255 47 209 255 47 209 255 48 209 255 48 209 255 50 208 255 75 178 255 75 178 255 76 177 255 76 177 255 77 177 255 79 176 255 79 176 255 79 176 255 77 177 253 73 176 253 78 179 255 89 170 255 98 152 252 109 143 253 115 145 255 111 144 255 109 145 255 111 145 255 111 145 255 112 144 255 112 144 255 113 143 255 113 143 255 115 142 255 139 115 255 139 115 255 141 114 255 141 114 255 142 113 255 142 113 255 144 112 255 144 112 255 144 113 253 139 112 253 144 115 255 153 107 255 163 88 251 172 80 253 177 83 255 172 82 255 172 82 255 172 82 255 174 82 255 174 82 255 175 81 255 175 81 255 177 80 255 177 80 255 203 49 255 203 49 255 203 49 255 205 49 255 206 48 255 206 48 255 207 47 255 207 47 255 207 48 255 203 47 253 208 50 255 217 42 255 225 24 254 236 15 253 241 18 255 236 17 255 238 16 255 238 16 255 238 16 255 238 16 255 238 16 255 238 16 255 238 16 255 238 16 255 255 15 255 255 15 255 255 15 255 255 15 255 255 15 255 255 15 255 255 15 255 255 15 255 250 15 255 255 11 255 255 15 255 250 17 248 255 43 255 247 45 255 252 49 255 255 45 252 254 44 253 254 44 253 254 44 253 254 44 253 254 44 253 254 44 253 254 44 253 254 44 253 255 78 255 255 78 255 255 78 255 255 78 255 255 78 255 255 78 255 255 78 255 255 78 255 252 79 255 255 75 255 255 79 255 252 81 248 255 107 255 248 108 255 254 112 255 255 109 253 255 110 255 255 110 255 255 110 255 255 110 255 255 110 255 255 110 255 255 110 255 255 110 255 255 142 255 255 142 255 255 142 255 255 142 255 255 142 255 255 142 255 255 142 255 255 142 255 251 143 255 255 141 254 255 143 253 250 145 246 255 171 255 246 173 252 253 177 252 255 174 250 255 173 255 255 173 255 255 173 255 255 173 255 255 173 255 255 173 255 255 173 255 255 173 255 255 205 254 255 205 254 255 205 254 255 205 254 255 205 254 255 205 254 255 205 254 255 205 254 253 209 255 255 202 254 255 204 253 249 207 247 255 236 255 250 239 255 253 241 255 255 234 249 255 237 255 252 239 255 251 240 255 255 238 255 255 235 255 255 237 255 246 242 255 235 248 255 21 224 241 19 236 251 14 245 255 11 241 254 16 236 252 23 235 255 19 238 255 13 240 255 18 238 254 14 237 254 19 240 255 28 232 255 37 213 252 47 205 253 52 208 255 47 207 255 47 207 255 47 207 255 49 207 255 49 207 255 50 206 255 50 206 255 51 205 255 51 205 255 76 177 255 77 177 255 77 177 255 79 176 255 79 176 255 80 175 255 80 175 255 82 175 255 80 175 255 14 242 255 14 242 255 14 242 255 14 242 255 14 242 255 14 242 255 14 242 255 14 242 255 14 242 253 9 241 253 16 243 255 26 235 255 34 217 251 46 209 252 52 210 255 48 210 255 44 211 255 45 210 255 45 210 255 47 209 255 47 209 255 
48 209 255 48 209 255 50 208 255 75 178 255 75 178 255 76 177 255 76 177 255 77 177 255 79 176 255 79 176 255 79 176 255 77 177 253 73 176 253 78 179 255 89 170 255 98 152 252 109 143 253 115 145 255 111 144 255 109 145 255 111 145 255 111 145 255 112 144 255 112 144 255 113 143 255 113 143 255 115 142 255 139 115 255 139 115 255 141 114 255 141 114 255 142 113 255 142 113 255 144 112 255 144 112 255 144 113 253 139 112 253 144 115 255 153 107 255 163 88 251 172 80 253 177 83 255 172 82 255 172 82 255 172 82 255 174 82 255 174 82 255 175 81 255 175 81 255 177 80 255 177 80 255 203 49 255 203 49 255 203 49 255 205 49 255 206 48 255 206 48 255 207 47 255 207 47 255 207 48 255 203 47 253 208 50 255 217 42 255 225 24 254 236 15 253 241 18 255 236 17 255 238 16 255 238 16 255 238 16 255 238 16 255 238 16 255 238 16 255 238 16 255 238 16 255 255 15 255 255 15 255 255 15 255 255 15 255 255 15 255 255 15 255 255 15 255 255 15 255 250 15 255 255 11 255 255 15 255 250 17 248 255 43 255 247 45 255 252 49 255 255 45 252 254 44 253 254 44 253 254 44 253 254 44 253 254 44 253 254 44 253 254 44 253 254 44 253 255 78 255 255 78 255 255 78 255 255 78 255 255 78 255 255 78 255 255 78 255 255 78 255 252 79 255 255 75 255 255 79 255 252 81 248 255 107 255 248 108 255 254 112 255 255 109 253 255 110 255 255 110 255 255 110 255 255 110 255 255 110 255 255 110 255 255 110 255 255 110 255 255 142 255 255 142 255 255 142 255 255 142 255 255 142 255 255 142 255 255 142 255 255 142 255 251 143 255 255 141 254 255 143 253 250 145 246 255 171 255 246 173 252 253 177 252 255 174 250 255 173 255 255 173 255 255 173 255 255 173 255 255 173 255 255 173 255 255 173 255 255 173 255 255 205 254 255 205 254 255 205 254 255 205 254 255 205 254 255 205 254 255 205 254 255 205 254 253 209 255 255 202 254 255 204 253 249 207 247 255 236 255 250 239 255 253 241 255 255 234 249 255 237 255 252 239 255 251 240 255 255 238 255 255 235 255 255 237 255 246 242 255 235 248 255 21 224 241 19 236 251 14 245 255 11 241 254 16 236 252 23 235 255 19 238 255 13 240 255 18 238 254 14 237 254 19 240 255 28 232 255 37 213 252 47 205 253 52 208 255 47 207 255 47 207 255 47 207 255 49 207 255 49 207 255 50 206 255 50 206 255 51 205 255 51 205 255 76 177 255 77 177 255 77 177 255 79 176 255 79 176 255 80 175 255 80 175 255 82 175 255 80 175 255 14 242 255 14 242 255 14 242 255 14 242 255 14 242 255 14 242 255 14 242 255 14 242 255 14 242 253 9 241 253 16 243 255 26 235 255 34 217 251 46 209 252 52 210 255 48 210 255 44 211 255 45 210 255 45 210 255 47 209 255 47 209 255 48 209 255 48 209 255 50 208 255 75 178 255 75 178 255 76 177 255 76 177 255 77 177 255 79 176 255 79 176 255 79 176 255 77 177 253 73 176 253 78 179 255 89 170 255 98 152 252 109 143 253 115 145 255 111 144 255 109 145 255 111 145 255 111 145 255 112 144 255 112 144 255 113 143 255 113 143 255 115 142 255 139 115 255 139 115 255 141 114 255 141 114 255 
142 113 255 142 113 255 144 112 255 144 112 255 144 113 253 139 112 253 144 115 255 153 107 255 163 88 251 172 80 253 177 83 255 172 82 255 172 82 255 172 82 255 174 82 255 174 82 255 175 81 255 175 81 255 177 80 255 177 80 255 203 49 255 203 49 255 203 49 255 205 49 255 206 48 255 206 48 255 207 47 255 207 47 255 207 48 255 203 47 253 208 50 255 217 42 255 225 24 254 236 15 253 241 18 255 236 17 255 238 16 255 238 16 255 238 16 255 238 16 255 238 16 255 238 16 255 238 16 255 238 16 255 255 15 255 255 15 255 255 15 255 255 15 255 255 15 255 255 15 255 255 15 255 255 15 255 250 15 255 255 11 255 255 15 255 250 17 248 255 43 255 247 45 255 252 49 255 255 45 252 254 44 253 254 44 253 254 44 253 254 44 253 254 44 253 254 44 253 254 44 253 254 44 253 255 78 255 255 78 255 255 78 255 255 78 255 255 78 255 255 78 255 255 78 255 255 78 255 252 79 255 255 75 255 255 79 255 252 81 248 255 107 255 248 108 255 254 112 255 255 109 253 255 110 255 255 110 255 255 110 255 255 110 255 255 110 255 255 110 255 255 110 255 255 110 255 255 142 255 255 142 255 255 142 255 255 142 255 255 142 255 255 142 255 255 142 255 255 142 255 251 143 255 255 141 254 255 143 253 250 145 246 255 171 255 246 173 252 253 177 252 255 174 250 255 173 255 255 173 255 255 173 255 255 173 255 255 173 255 255 173 255 255 173 255 255 173 255 255 205 254 255 205 254 255 205 254 255 205 254 255 205 254 255 205 254 255 205 254 255 205 254 253 209 255 255 202 254 255 204 253 249 207 247 255 236 255 250 239 255 253 241 255 255 234 249 255 237 255 252 239 255 251 240 255 255 238 255 255 235 255 255 237 255 246 242 255 235 248 255 21 224 241 19 236 251 14 245 255 11 241 254 16 236 252 23 235 255 19 238 255 13 240 255 18 238 254 14 237 254 19 240 255 28 232 255 37 213 252 47 205 253 52 208 255 47 207 255 47 207 255 47 207 255 49 207 255 49 207 255 50 206 255 50 206 255 51 205 255 51 205 255 76 177 255 77 177 255 77 177 255 79 176 255 79 176 255 80 175 255 80 175 255 82 175 255 80 175 255 14 242 255 14 242 255 14 242 255 14 242 255 14 242 255 14 242 255 14 242 255 14 242 255 14 242 253 9 241 253 16 243 255 26 235 255 34 217 251 46 209 252 52 210 255 48 210 255 44 211 255 45 210 255 45 210 255 47 209 255 47 209 255 48 209 255 48 209 255 50 208 255 75 178 255 75 178 255 76 177 255 76 177 255 77 177 255 79 176 255 79 176 255 79 176 255 77 177 253 73 176 253 78 179 255 89 170 255 98 152 252 109 143 253 115 145 255 111 144 255 109 145 255 111 145 255 111 145 255 112 144 255 112 144 255 113 143 255 113 143 255 115 142 255 139 115 255 139 115 255 141 114 255 141 114 255 142 113 255 142 113 255 144 112 255 144 112 255 144 113 253 139 112 253 144 115 255 153 107 255 163 88 251 172 80 253 177 83 255 172 82 255 172 82 255 172 82 255 174 82 255 174 82 255 175 81 255 175 81 255 177 80 255 177 80 255 203 49 255 203 49 255 203 49 255 205 49 255 206 48 255 206 48 255 207 47 255 207 47 255 207 48 255 203 47 253 208 50 255 
217 42 255 225 24 254 236 15 253 241 18 255 236 17 255 238 16 255 238 16 255 238 16 255 238 16 255 238 16 255 238 16 255 238 16 255 238 16 255 255 15 255 255 15 255 255 15 255 255 15 255 255 15 255 255 15 255 255 15 255 255 15 255 250 15 255 255 11 255 255 15 255 250 17 248 255 43 255 247 45 255 252 49 255 255 45 252 254 44 253 254 44 253 254 44 253 254 44 253 254 44 253 254 44 253 254 44 253 254 44 253 255 78 255 255 78 255 255 78 255 255 78 255 255 78 255 255 78 255 255 78 255 255 78 255 252 79 255 255 75 255 255 79 255 252 81 248 255 107 255 248 108 255 254 112 255 255 109 253 255 110 255 255 110 255 255 110 255 255 110 255 255 110 255 255 110 255 255 110 255 255 110 255 255 142 255 255 142 255 255 142 255 255 142 255 255 142 255 255 142 255 255 142 255 255 142 255 251 143 255 255 141 254 255 143 253 250 145 246 255 171 255 246 173 252 253 177 252 255 174 250 255 173 255 255 173 255 255 173 255 255 173 255 255 173 255 255 173 255 255 173 255 255 173 255 255 205 254 255 205 254 255 205 254 255 205 254 255 205 254 255 205 254 255 205 254 255 205 254 253 209 255 255 202 254 255 204 253 249 207 247 255 236 255 250 239 255 253 241 255 255 234 249 255 237 255 252 239 255 251 240 255 255 238 255 255 235 255 255 237 255 246 242 255 235 248 255 21 224 241 19 236 251 14 245 255 11 241 254 16 236 252 23 235 255 19 238 255 13 240 255 18 238 254 14 237 254 19 240 255 28 232 255 37 213 252 47 205 253 52 208 255 47 207 255 47 207 255 47 207 255 49 207 255 49 207 255 50 206 255 50 206 255 51 205 255 51 205 255 76 177 255 77 177 255 77 177 255 79 176 255 79 176 255 80 175 255 80 175 255 82 175 255 80 175 255 14 242 255 14 242 255 14 242 255 14 242 255 14 242 255 14 242 255 14 242 255 14 242 255 14 242 253 9 241 253 16 243 255 26 235 255 34 217 251 46 209 252 52 210 255 48 210 255 44 211 255 45 210 255 45 210 255 47 209 255 47 209 255 48 209 255 48 209 255 50 208 255 75 178 255 75 178 255 76 177 255 76 177 255 77 177 255 79 176 255 79 176 255 79 176 255 77 177 253 73 176 253 78 179 255 89 170 255 98 152 252 109 143 253 115 145 255 111 144 255 109 145 255 111 145 255 111 145 255 112 144 255 112 144 255 113 143 255 113 143 255 115 142 255 139 115 255 139 115 255 141 114 255 141 114 255 142 113 255 142 113 255 144 112 255 144 112 255 144 113 253 139 112 253 144 115 255 153 107 255 163 88 251 172 80 253 177 83 255 172 82 255 172 82 255 172 82 255 174 82 255 174 82 255 175 81 255 175 81 255 177 80 255 177 80 255 203 49 255 203 49 255 203 49 255 205 49 255 206 48 255 206 48 255 207 47 255 207 47 255 207 48 255 203 47 253 208 50 255 217 42 255 225 24 254 236 15 253 241 18 255 236 17 255 238 16 255 238 16 255 238 16 255 238 16 255 238 16 255 238 16 255 238 16 255 238 16 255 255 15 255 255 15 255 255 15 255 255 15 255 255 15 255 255 15 255 255 15 255 255 15 255 250 15 255 255 11 255 255 15 255 250 17 248 255 43 255 247 45 255 252 49 255 255 45 252 254 44 253 254 44 253 
254 44 253 254 44 253 254 44 253 254 44 253 254 44 253 254 44 253 255 78 255 255 78 255 255 78 255 255 78 255 255 78 255 255 78 255 255 78 255 255 78 255 252 79 255 255 75 255 255 79 255 252 81 248 255 107 255 248 108 255 254 112 255 255 109 253 255 110 255 255 110 255 255 110 255 255 110 255 255 110 255 255 110 255 255 110 255 255 110 255 255 142 255 255 142 255 255 142 255 255 142 255 255 142 255 255 142 255 255 142 255 255 142 255 251 143 255 255 141 254 255 143 253 250 145 246 255 171 255 246 173 252 253 177 252 255 174 250 255 173 255 255 173 255 255 173 255 255 173 255 255 173 255 255 173 255 255 173 255 255 173 255 255 205 254 255 205 254 255 205 254 255 205 254 255 205 254 255 205 254 255 205 254 255 205 254 253 209 255 255 202 254 255 204 253 249 207 247 255 236 255 250 239 255 253 241 255 255 234 249 255 237 255 252 239 255 251 240 255 255 238 255 255 235 255 255 237 255 246 242 255 235 248 255 21 224 241 19 236 251 14 245 255 11 241 254 16 236 252 23 235 255 19 238 255 13 240 255 18 238 254 14 237 254 19 240 255 28 232 255 37 213 252 47 205 253 52 208 255 47 207 255 47 207 255 47 207 255 49 207 255 49 207 255 50 206 255 50 206 255 51 205 255 51 205 255 76 177 255 77 177 255 77 177 255 79 176 255 79 176 255 80 175 255 80 175 255 82 175 255 80 175 255 14 242 255 14 242 255 14 242 255 14 242 255 14 242 255 14 242 255 14 242 255 14 242 255 14 242 253 9 241 253 16 243 255 26 235 255 34 217 251 46 209 252 52 210 255 48 210 255 44 211 255 45 210 255 45 210 255 47 209 255 47 209 255 48 209 255 48 209 255 50 208 255 75 178 255 75 178 255 76 177 255 76 177 255 77 177 255 79 176 255 79 176 255 79 176 255 77 177 253 73 176 253 78 179 255 89 170 255 98 152 252 109 143 253 115 145 255 111 144 255 109 145 255 111 145 255 111 145 255 112 144 255 112 144 255 113 143 255 113 143 255 115 142 255 139 115 255 139 115 255 141 114 255 141 114 255 142 113 255 142 113 255 144 112 255 144 112 255 144 113 253 139 112 253 144 115 255 153 107 255 163 88 251 172 80 253 177 83 255 172 82 255 172 82 255 172 82 255 174 82 255 174 82 255 175 81 255 175 81 255 177 80 255 177 80 255 203 49 255 203 49 255 203 49 255 205 49 255 206 48 255 206 48 255 207 47 255 207 47 255 207 48 255 203 47 253 208 50 255 217 42 255 225 24 254 236 15 253 241 18 255 236 17 255 238 16 255 238 16 255 238 16 255 238 16 255 238 16 255 238 16 255 238 16 255 238 16 255 255 15 255 255 15 255 255 15 255 255 15 255 255 15 255 255 15 255 255 15 255 255 15 255 250 15 255 255 11 255 255 15 255 250 17 248 255 43 255 247 45 255 252 49 255 255 45 252 254 44 253 254 44 253 254 44 253 254 44 253 254 44 253 254 44 253 254 44 253 254 44 253 255 78 255 255 78 255 255 78 255 255 78 255 255 78 255 255 78 255 255 78 255 255 78 255 252 79 255 255 75 255 255 79 255 252 81 248 255 107 255 248 108 255 254 112 255 255 109 253 255 110 255 255 110 255 255 110 255 255 110 255 255 110 255 255 110 255 255 110 255 255 110 255 255 142 255 
255 142 255 255 142 255 255 142 255 255 142 255 255 142 255 255 142 255 255 142 255 251 143 255 255 141 254 255 143 253 250 145 246 255 171 255 246 173 252 253 177 252 255 174 250 255 173 255 255 173 255 255 173 255 255 173 255 255 173 255 255 173 255 255 173 255 255 173 255 255 205 254 255 205 254 255 205 254 255 205 254 255 205 254 255 205 254 255 205 254 255 205 254 253 209 255 255 202 254 255 204 253 249 207 247 255 236 255 250 239 255 253 241 255 255 234 249 255 237 255 252 239 255 251 240 255 255 238 255 255 235 255 255 237 255 246 242 255 235 248 255 21 224 241 19 236 251 14 245 255 11 241 254 16 236 252 23 235 255 19 238 255 13 240 255 18 238 254 14 237 254 19 240 255 28 232 255 37 213 252 47 205 253 52 208 255 47 207 255 47 207 255 47 207 255 49 207 255 49 207 255 50 206 255 50 206 255 51 205 255 51 205 255 76 177 255 77 177 255 77 177 255 79 176 255 79 176 255 80 175 255 80 175 255 82 175 255 80 175 255 13 241 254 13 241 254 13 241 254 13 241 254 13 241 254 13 241 254 13 241 254 13 241 254 11 242 252 7 241 252 13 243 255 24 234 255 33 216 250 44 207 250 51 209 255 46 208 255 44 211 255 44 211 255 45 210 255 45 210 255 47 209 255 48 209 255 48 209 255 48 209 255 75 178 255 75 178 255 75 178 255 76 177 255 77 177 255 77 177 255 79 176 255 79 176 255 80 177 254 75 176 254 81 178 255 92 169 255 99 151 252 110 142 253 116 143 255 111 143 255 112 144 255 112 144 255 112 144 255 112 144 255 112 144 255 112 144 255 112 144 255 112 144 255 137 114 254 138 114 254 138 114 254 140 113 254 140 113 254 141 112 254 143 111 254 143 111 254 144 113 253 137 113 253 144 115 255 153 107 255 161 89 251 173 81 254 177 83 255 172 84 255 171 83 255 172 82 255 172 82 255 174 82 255 174 82 255 175 81 255 177 80 255 177 80 255 202 50 255 202 50 255 203 49 255 203 49 255 205 49 255 206 48 255 206 48 255 207 47 255 206 48 255 201 48 253 207 51 255 217 42 255 225 24 254 234 16 253 240 18 255 235 18 255 238 16 255 238 16 255 238 16 255 238 16 255 238 16 255 238 16 255 238 16 255 238 16 255 255 16 255 255 16 255 255 16 255 255 16 255 255 16 255 255 16 255 255 16 255 255 16 255 251 16 255 255 13 255 255 17 255 251 18 247 255 45 255 248 46 254 253 50 254 255 46 252 255 46 255 255 46 255 255 46 255 255 46 255 255 46 255 255 46 255 255 46 255 255 46 255 255 79 255 255 79 255 255 79 255 255 79 255 255 79 255 255 79 255 255 79 255 255 79 255 253 82 255 255 76 253 255 77 250 249 80 245 255 110 255 250 112 255 252 113 254 255 108 250 255 112 255 255 112 255 255 112 255 255 112 255 255 112 255 255 112 255 255 112 255 255 112 255 254 144 255 254 144 255 254 144 255 254 144 255 254 144 255 254 144 255 254 144 255 254 144 255 251 143 255 254 140 253 255 143 253 250 145 246 255 171 255 246 173 252 253 177 252 255 174 250 255 174 253 255 174 253 255 174 253 255 174 253 255 174 253 255 174 253 255 174 253 255 174 253 254 206 254 254 206 254 254 206 254 254 206 254 254 206 254 254 206 254 254 206 254 254 206 254 
251 207 255 254 202 251 255 204 250 248 206 242 255 236 255 251 240 255 253 241 253 255 236 248 255 238 254 252 240 254 251 240 254 255 238 254 255 235 254 255 237 254 246 243 254 235 248 254 16 225 245 22 235 253 23 240 255 17 238 254 15 236 252 17 238 254 19 239 255 20 237 254 19 239 255 15 238 255 19 240 255 28 232 255 37 213 252 47 205 253 51 207 255 46 206 255 47 207 255 47 207 255 49 207 255 49 207 255 50 206 255 50 206 255 51 205 255 51 205 255 75 176 254 75 176 254 76 176 254 76 176 254 78 175 254 79 174 254 79 174 254 79 174 254 78 175 254 13 241 254 13 241 254 13 241 254 13 241 254 13 241 254 13 241 254 13 241 254 13 241 254 13 241 252 8 240 252 13 243 255 24 234 255 33 216 250 44 207 250 51 209 255 46 208 255 44 211 255 44 211 255 45 210 255 45 210 255 47 209 255 48 209 255 48 209 255 50 208 255 75 178 255 75 178 255 76 177 255 76 177 255 77 177 255 79 176 255 79 176 255 79 176 255 80 177 254 75 176 254 81 178 255 92 169 255 99 151 252 110 142 253 116 143 255 111 143 255 112 144 255 112 144 255 112 144 255 112 144 255 112 144 255 112 144 255 112 144 255 112 144 255 138 114 254 138 114 254 138 114 254 140 113 254 141 112 254 141 112 254 143 111 254 143 111 254 144 113 253 139 112 253 144 115 255 153 107 255 161 89 251 172 80 253 177 83 255 172 82 255 172 82 255 172 82 255 172 82 255 174 82 255 175 81 255 175 81 255 177 80 255 177 80 255 202 50 255 203 49 255 203 49 255 205 49 255 205 49 255 206 48 255 207 47 255 207 47 255 207 48 255 201 48 253 208 50 255 217 42 255 225 24 254 236 15 253 241 18 255 235 18 255 238 16 255 238 16 255 238 16 255 238 16 255 238 16 255 238 16 255 238 16 255 238 16 255 255 16 255 255 16 255 255 16 255 255 16 255 255 16 255 255 16 255 255 16 255 255 16 255 251 16 255 255 13 255 255 17 255 251 18 247 255 45 255 248 46 254 253 50 254 255 46 252 255 46 255 255 46 255 255 46 255 255 46 255 255 46 255 255 46 255 255 46 255 255 46 255 255 79 255 255 79 255 255 79 255 255 79 255 255 79 255 255 79 255 255 79 255 255 79 255 253 82 255 255 76 253 255 77 250 249 80 245 255 110 255 250 112 255 252 113 254 255 108 250 255 112 255 255 112 255 255 112 255 255 112 255 255 112 255 255 112 255 255 112 255 255 112 255 254 144 255 254 144 255 254 144 255 254 144 255 254 144 255 254 144 255 254 144 255 254 144 255 251 143 255 255 141 254 255 143 253 250 145 246 255 171 255 246 173 252 253 177 252 255 174 250 255 174 253 255 174 253 255 174 253 255 174 253 255 174 253 255 174 253 255 174 253 255 174 253 254 206 254 254 206 254 254 206 254 254 206 254 254 206 254 254 206 254 254 206 254 254 206 254 252 208 255 254 202 251 255 204 250 249 207 243 255 236 255 251 240 255 254 242 254 255 236 248 255 238 254 252 240 254 251 240 254 255 238 254 255 235 254 255 237 254 246 243 254 235 248 254 16 225 245 22 235 253 23 240 255 17 238 254 15 236 252 17 238 254 19 239 255 20 237 254 19 239 255 15 238 255 19 240 255 28 232 255 37 213 252 47 205 253 51 207 255 
46 206 255 47 207 255 47 207 255 49 207 255 49 207 255 50 206 255 50 206 255 51 205 255 51 205 255 75 176 254 75 176 254 76 176 254 76 176 254 78 175 254 79 174 254 79 174 254 81 174 254 78 175 254 13 241 254 13 241 254 13 241 254 13 241 254 13 241 254 13 241 254 13 241 254 13 241 254 13 241 252 8 240 252 15 242 255 25 234 255 35 215 250 45 206 250 51 209 255 46 208 255 45 210 255 45 210 255 45 210 255 47 209 255 48 209 255 48 209 255 50 208 255 50 208 255 75 178 255 76 177 255 76 177 255 77 177 255 77 177 255 79 176 255 80 175 255 80 175 255 80 177 254 75 176 254 81 178 255 92 169 255 99 151 252 110 142 253 116 143 255 111 143 255 112 144 255 112 144 255 112 144 255 112 144 255 112 144 255 112 144 255 112 144 255 112 144 255 138 114 254 138 114 254 140 113 254 140 113 254 141 112 254 143 111 254 143 111 254 144 111 254 143 112 252 139 112 253 143 114 255 155 106 255 163 88 251 172 80 253 176 82 255 172 82 255 172 82 255 172 82 255 174 82 255 174 82 255 175 81 255 177 80 255 177 80 255 178 80 255 203 49 255 203 49 255 205 49 255 205 49 255 206 48 255 207 47 255 207 47 255 207 47 255 207 48 255 203 47 253 208 50 255 217 42 255 226 23 254 236 15 253 241 18 255 236 17 255 239 16 255 239 16 255 239 16 255 239 16 255 239 16 255 239 16 255 239 16 255 239 16 255 255 16 255 255 16 255 255 16 255 255 16 255 255 16 255 255 16 255 255 16 255 255 16 255 251 16 255 255 13 255 255 17 255 251 18 247 255 45 255 248 46 254 253 50 254 255 46 252 255 46 255 255 46 255 255 46 255 255 46 255 255 46 255 255 46 255 255 46 255 255 46 255 255 79 255 255 79 255 255 79 255 255 79 255 255 79 255 255 79 255 255 79 255 255 79 255 253 82 255 255 76 253 255 77 250 249 80 245 255 110 255 250 112 255 252 113 254 255 108 250 255 112 255 255 112 255 255 112 255 255 112 255 255 112 255 255 112 255 255 112 255 255 112 255 254 144 255 254 144 255 254 144 255 254 144 255 254 144 255 254 144 255 254 144 255 254 144 255 252 144 255 255 141 254 255 144 254 251 146 247 255 172 255 247 174 253 253 177 252 255 175 251 255 174 253 255 174 253 255 174 253 255 174 253 255 174 253 255 174 253 255 174 253 255 174 253 254 206 254 254 206 254 254 206 254 254 206 254 254 206 254 254 206 254 254 206 254 254 206 254 252 208 255 255 203 252 255 204 250 249 207 243 255 237 255 251 240 255 254 242 254 255 237 249 255 238 254 252 240 254 251 240 254 255 238 254 255 235 254 255 237 254 246 243 254 235 248 254 16 225 245 22 235 253 23 240 255 17 238 254 15 236 252 17 238 254 19 239 255 20 237 254 19 239 255 15 238 255 19 240 255 28 232 255 37 213 252 47 205 253 51 207 255 46 206 255 47 207 255 47 207 255 49 207 255 49 207 255 50 206 255 50 206 255 51 205 255 51 205 255 76 176 254 76 176 254 76 176 254 78 175 254 79 174 254 79 174 254 81 174 254 81 174 254 78 175 254 14 240 254 14 240 254 14 240 254 14 240 254 14 240 254 14 240 254 14 240 254 14 240 254 14 240 252 9 239 252 15 242 255 25 234 255 35 215 250 
45 206 250 52 208 255 47 207 255 44 209 254 44 209 254 46 208 254 47 208 254 47 208 254 49 207 254 49 207 254 50 206 254 76 177 255 76 177 255 77 177 255 77 177 255 79 176 255 80 175 255 80 175 255 80 175 255 80 177 254 75 176 254 81 178 255 92 169 255 99 151 252 110 142 253 116 143 255 111 143 255 112 144 255 112 144 255 112 144 255 112 144 255 112 144 255 112 144 255 112 144 255 112 144 255 140 113 254 140 113 254 140 113 254 141 112 254 143 111 254 143 111 254 144 111 254 144 111 254 144 111 252 139 110 252 145 113 255 154 105 255 163 86 250 173 79 253 178 81 255 174 81 255 174 82 255 174 82 255 174 82 255 175 81 255 177 80 255 177 80 255 178 80 255 178 80 255 203 49 255 205 49 255 205 49 255 206 48 255 207 47 255 207 47 255 209 46 255 209 46 255 209 47 255 204 46 253 209 49 255 219 41 255 226 23 254 237 14 253 242 17 255 238 16 255 239 16 255 239 16 255 239 16 255 239 16 255 239 16 255 239 16 255 239 16 255 239 16 255 255 16 255 255 16 255 255 16 255 255 16 255 255 16 255 255 16 255 255 16 255 255 16 255 251 16 255 255 13 255 255 17 255 251 18 247 255 45 255 248 46 254 253 50 254 255 46 252 255 46 255 255 46 255 255 46 255 255 46 255 255 46 255 255 46 255 255 46 255 255 46 255 255 79 255 255 79 255 255 79 255 255 79 255 255 79 255 255 79 255 255 79 255 255 79 255 253 82 255 255 76 253 255 77 250 249 80 245 255 110 255 250 112 255 252 113 254 255 108 250 255 112 255 255 112 255 255 112 255 255 112 255 255 112 255 255 112 255 255 112 255 255 112 255 254 144 255 254 144 255 254 144 255 254 144 255 254 144 255 254 144 255 254 144 255 254 144 255 252 144 255 255 141 254 255 144 254 251 146 247 255 172 255 247 174 253 254 178 253 255 175 251 255 175 254 255 175 254 255 175 254 255 175 254 255 175 254 255 175 254 255 175 254 255 175 254 254 206 254 254 206 254 254 206 254 254 206 254 254 206 254 254 206 254 254 206 254 254 206 254 252 208 255 255 203 252 255 205 251 249 207 243 255 237 255 252 241 255 254 242 254 255 237 249 255 239 255 253 241 255 252 241 255 255 239 255 255 236 255 255 238 255 247 244 255 236 249 255 16 225 245 22 235 253 23 240 255 17 238 254 15 236 252 17 238 254 19 239 255 20 237 254 19 239 255 15 238 255 19 240 255 28 232 255 37 213 252 47 205 253 51 207 255 46 206 255 47 207 255 47 207 255 49 207 255 49 207 255 50 206 255 50 206 255 51 205 255 51 205 255 76 176 254 76 176 254 78 175 254 79 174 254 79 174 254 81 174 254 81 174 254 82 173 254 79 174 254 16 239 254 16 239 254 16 239 254 16 239 254 16 239 254 16 239 254 16 239 254 16 239 254 14 240 252 9 239 252 16 242 255 27 233 255 36 214 250 47 205 250 53 208 255 49 207 255 46 208 254 46 208 254 47 208 254 47 208 254 49 207 254 50 206 254 50 206 254 50 206 254 77 177 255 77 177 255 77 177 255 79 176 255 80 175 255 80 175 255 82 175 255 82 175 255 80 177 254 75 176 254 81 178 255 92 169 255 99 151 252 110 142 253 116 143 255 111 143 255 112 144 255 112 144 255 112 144 255 112 144 255 
112 144 255 112 144 255 112 144 255 112 144 255 140 113 254 141 112 254 141 112 254 143 111 254 143 111 254 144 111 254 145 110 254 145 110 254 144 109 251 139 110 252 145 111 255 155 104 255 163 86 250 174 77 252 179 80 255 173 80 255 174 82 255 175 81 255 175 81 255 177 80 255 177 80 255 178 80 255 179 79 255 179 79 255 205 49 255 205 49 255 206 48 255 206 48 255 207 47 255 209 46 255 209 46 255 210 46 255 209 47 255 204 46 253 209 49 255 220 40 255 228 22 254 237 14 253 242 17 255 238 16 255 240 15 255 240 15 255 240 15 255 240 15 255 240 15 255 240 15 255 240 15 255 240 15 255 255 16 255 255 16 255 255 16 255 255 16 255 255 16 255 255 16 255 255 16 255 255 16 255 251 16 255 255 13 255 255 17 255 251 18 247 255 45 255 248 46 254 253 50 254 255 46 252 255 46 255 255 46 255 255 46 255 255 46 255 255 46 255 255 46 255 255 46 255 255 46 255 255 79 255 255 79 255 255 79 255 255 79 255 255 79 255 255 79 255 255 79 255 255 79 255 253 82 255 255 76 253 255 77 250 249 80 245 255 110 255 250 112 255 252 113 254 255 108 250 255 112 255 255 112 255 255 112 255 255 112 255 255 112 255 255 112 255 255 112 255 255 112 255 254 144 255 254 144 255 254 144 255 254 144 255 254 144 255 254 144 255 254 144 255 254 144 255 253 145 255 255 142 255 255 145 255 252 147 248 255 173 255 248 175 254 254 178 253 255 176 252 255 175 254 255 175 254 255 175 254 255 175 254 255 175 254 255 175 254 255 175 254 255 175 254 254 206 254 254 206 254 254 206 254 254 206 254 254 206 254 254 206 254 254 206 254 254 206 254 253 209 255 255 204 253 255 205 251 250 208 244 255 238 255 252 241 255 255 243 255 255 238 250 255 239 255 253 241 255 252 241 255 255 239 255 255 236 255 255 238 255 247 244 255 236 249 255 16 225 245 22 235 253 23 240 255 17 238 254 15 236 252 17 238 254 19 239 255 20 237 254 19 239 255 15 238 255 19 240 255 28 232 255 37 213 252 47 205 253 51 207 255 46 206 255 47 207 255 47 207 255 49 207 255 49 207 255 50 206 255 50 206 255 51 205 255 51 205 255 78 175 254 78 175 254 79 174 254 79 174 254 81 174 254 82 173 254 82 173 254 82 173 254 81 174 254 16 239 254 16 239 254 16 239 254 16 239 254 16 239 254 16 239 254 16 239 254 16 239 254 16 240 252 11 239 252 18 241 255 28 232 255 37 213 250 48 205 250 53 208 255 49 207 255 45 207 253 46 207 253 46 207 253 48 206 253 49 205 253 49 205 253 50 205 253 50 205 253 77 177 255 77 177 255 79 176 255 80 175 255 80 175 255 82 175 255 82 175 255 83 174 255 80 177 254 75 176 254 81 178 255 92 169 255 99 151 252 110 142 253 116 143 255 111 143 255 112 144 255 112 144 255 112 144 255 112 144 255 112 144 255 112 144 255 112 144 255 112 144 255 141 112 254 141 112 254 143 111 254 143 111 254 144 111 254 145 110 254 145 110 254 145 110 254 144 109 251 141 109 252 145 111 255 156 103 255 163 85 249 174 77 252 178 79 255 174 80 255 175 81 255 175 81 255 177 80 255 177 80 255 178 80 255 179 79 255 179 79 255 179 79 255 206 48 255 206 48 255 206 48 255 
207 47 255 209 46 255 209 46 255 210 46 255 210 46 255 210 46 255 205 46 253 211 48 255 220 40 255 229 21 254 238 13 253 244 16 255 239 16 255 240 15 255 240 15 255 240 15 255 240 15 255 240 15 255 240 15 255 240 15 255 240 15 255 255 16 255 255 16 255 255 16 255 255 16 255 255 16 255 255 16 255 255 16 255 255 16 255 251 16 255 255 13 255 255 17 255 251 18 247 255 45 255 248 46 254 253 50 254 255 46 252 255 46 255 255 46 255 255 46 255 255 46 255 255 46 255 255 46 255 255 46 255 255 46 255 255 79 255 255 79 255 255 79 255 255 79 255 255 79 255 255 79 255 255 79 255 255 79 255 253 82 255 255 76 253 255 77 250 249 80 245 255 110 255 250 112 255 252 113 254 255 108 250 255 112 255 255 112 255 255 112 255 255 112 255 255 112 255 255 112 255 255 112 255 255 112 255 254 144 255 254 144 255 254 144 255 254 144 255 254 144 255 254 144 255 254 144 255 254 144 255 253 145 255 255 142 255 255 145 255 252 147 248 255 173 255 248 175 254 255 179 254 255 176 252 255 176 255 255 176 255 255 176 255 255 176 255 255 176 255 255 176 255 255 176 255 255 176 255 254 206 254 254 206 254 254 206 254 254 206 254 254 206 254 254 206 254 254 206 254 254 206 254 253 209 255 255 204 253 255 206 252 250 208 244 255 238 255 253 242 255 255 243 255 255 238 250 255 240 255 254 242 255 253 242 255 255 240 255 255 237 255 255 239 255 248 245 255 237 250 255 16 225 245 22 235 253 23 240 255 17 238 254 15 236 252 17 238 254 19 239 255 20 237 254 19 239 255 15 238 255 19 240 255 28 232 255 37 213 252 47 205 253 51 207 255 46 206 255 47 207 255 47 207 255 49 207 255 49 207 255 50 206 255 50 206 255 51 205 255 51 205 255 78 175 254 79 174 254 79 174 254 81 174 254 82 173 254 82 173 254 83 172 254 83 172 254 81 174 254 17 238 254 17 238 254 17 238 254 17 238 254 17 238 254 17 238 254 17 238 254 17 238 254 17 239 252 12 238 252 18 241 255 28 232 255 37 213 250 48 205 250 55 207 255 50 206 255 46 207 253 46 207 253 48 206 253 48 206 253 49 205 253 50 205 253 50 205 253 50 205 253 79 176 255 79 176 255 79 176 255 80 175 255 82 175 255 82 175 255 83 174 255 83 174 255 80 177 254 75 176 254 81 178 255 92 169 255 99 151 252 110 142 253 116 143 255 111 143 255 112 144 255 112 144 255 112 144 255 112 144 255 112 144 255 112 144 255 112 144 255 112 144 255 141 112 254 143 111 254 143 111 254 144 111 254 145 110 254 145 110 254 147 109 254 147 109 254 146 109 251 141 108 251 146 111 255 156 103 255 163 85 249 174 76 251 179 79 255 175 78 255 175 81 255 177 80 255 177 80 255 178 80 255 179 79 255 179 79 255 181 78 255 181 78 255 206 48 255 206 48 255 207 47 255 209 46 255 209 46 255 210 46 255 210 46 255 212 45 255 212 45 255 205 46 253 211 48 255 221 40 255 229 21 254 238 13 253 245 16 255 239 16 255 242 14 255 242 14 255 242 14 255 242 14 255 242 14 255 242 14 255 242 14 255 242 14 255 255 16 255 255 16 255 255 16 255 255 16 255 255 16 255 255 16 255 255 16 255 255 16 255 251 16 255 255 13 255 
255 17 255 251 18 247 255 45 255 248 46 254 253 50 254 255 46 252 255 46 255 255 46 255 255 46 255 255 46 255 255 46 255 255 46 255 255 46 255 255 46 255 255 79 255 255 79 255 255 79 255 255 79 255 255 79 255 255 79 255 255 79 255 255 79 255 253 82 255 255 76 253 255 77 250 249 80 245 255 110 255 250 112 255 252 113 254 255 108 250 255 112 255 255 112 255 255 112 255 255 112 255 255 112 255 255 112 255 255 112 255 255 112 255 254 144 255 254 144 255 254 144 255 254 144 255 254 144 255 254 144 255 254 144 255 254 144 255 253 145 255 255 143 255 255 145 255 252 147 248 255 173 255 248 175 254 255 179 254 255 177 253 255 176 255 255 176 255 255 176 255 255 176 255 255 176 255 255 176 255 255 176 255 255 176 255 254 206 254 254 206 254 254 206 254 254 206 254 254 206 254 254 206 254 254 206 254 254 206 254 254 210 255 255 204 253 255 206 252 251 209 245 255 238 255 253 242 255 255 244 255 255 238 250 255 240 255 254 242 255 253 242 255 255 240 255 255 237 255 255 239 255 248 245 255 237 250 255 16 225 245 22 235 253 23 240 255 17 238 254 15 236 252 17 238 254 19 239 255 20 237 254 19 239 255 15 238 255 19 240 255 28 232 255 37 213 252 47 205 253 51 207 255 46 206 255 47 207 255 47 207 255 49 207 255 49 207 255 50 206 255 50 206 255 51 205 255 51 205 255 79 174 254 79 174 254 81 174 254 81 174 254 82 173 254 83 172 254 83 172 254 83 172 254 82 173 254 17 238 254 17 238 254 17 238 254 17 238 254 17 238 254 17 238 254 17 238 254 17 238 254 17 239 252 12 238 252 18 241 255 30 231 255 37 213 250 48 205 250 55 207 255 50 206 255 46 207 253 46 207 253 48 206 253 49 205 253 49 205 253 50 205 253 50 205 253 52 204 253 79 176 255 79 176 255 80 175 255 80 175 255 82 175 255 83 174 255 83 174 255 83 174 255 80 177 254 75 176 254 81 178 255 92 169 255 99 151 252 110 142 253 116 143 255 111 143 255 112 144 255 112 144 255 112 144 255 112 144 255 112 144 255 112 144 255 112 144 255 112 144 255 143 111 254 143 111 254 143 111 254 144 111 254 145 110 254 145 110 254 147 109 254 147 109 254 145 108 250 141 108 251 145 110 255 156 103 255 165 84 249 174 76 251 179 79 255 175 78 255 177 80 255 177 80 255 177 80 255 178 80 255 179 79 255 179 79 255 181 78 255 181 78 255 206 48 255 207 47 255 207 47 255 209 46 255 210 46 255 210 46 255 212 45 255 212 45 255 212 45 255 207 45 253 212 48 255 221 40 255 229 21 254 240 13 253 245 16 255 240 15 255 242 14 255 242 14 255 242 14 255 242 14 255 242 14 255 242 14 255 242 14 255 242 14 255 255 16 255 255 16 255 255 16 255 255 16 255 255 16 255 255 16 255 255 16 255 255 16 255 251 16 255 255 13 255 255 17 255 251 18 247 255 45 255 248 46 254 253 50 254 255 46 252 255 46 255 255 46 255 255 46 255 255 46 255 255 46 255 255 46 255 255 46 255 255 46 255 255 79 255 255 79 255 255 79 255 255 79 255 255 79 255 255 79 255 255 79 255 255 79 255 253 82 255 255 76 253 255 77 250 249 80 245 255 110 255 250 112 255 252 113 254 255 108 250 255 112 255 
255 112 255 255 112 255 255 112 255 255 112 255 255 112 255 255 112 255 255 112 255 254 144 255 254 144 255 254 144 255 254 144 255 254 144 255 254 144 255 254 144 255 254 144 255 253 145 255 255 143 255 255 146 255 253 148 249 255 174 255 249 176 255 255 179 254 255 177 253 255 176 255 255 176 255 255 176 255 255 176 255 255 176 255 255 176 255 255 176 255 255 176 255 254 206 254 254 206 254 254 206 254 254 206 254 254 206 254 254 206 254 254 206 254 254 206 254 254 210 255 255 205 254 255 206 252 251 209 245 255 239 255 253 242 255 255 244 255 255 239 251 255 240 255 254 242 255 253 242 255 255 240 255 255 237 255 255 239 255 248 245 255 237 250 255 16 225 245 22 235 253 23 240 255 17 238 254 15 236 252 17 238 254 19 239 255 20 237 254 19 239 255 15 238 255 19 240 255 28 232 255 37 213 252 47 205 253 51 207 255 46 206 255 47 207 255 47 207 255 49 207 255 49 207 255 50 206 255 50 206 255 51 205 255 51 205 255 79 174 254 79 174 254 81 174 254 82 173 254 82 173 254 83 172 254 83 172 254 85 171 254 82 173 254 17 238 255 17 238 255 17 238 255 17 238 255 17 238 255 17 238 255 17 238 255 17 238 255 18 238 254 14 237 254 19 240 255 28 232 255 37 213 252 47 205 253 52 208 255 47 207 255 47 207 255 47 207 255 49 207 255 49 207 255 50 206 255 50 206 255 51 205 255 51 205 255 76 177 255 77 177 255 77 177 255 79 176 255 79 176 255 80 175 255 80 175 255 82 175 255 82 175 253 75 175 253 80 177 255 91 168 255 98 150 251 109 141 252 113 143 255 107 143 255 111 143 254 111 143 254 111 143 254 111 143 254 111 143 254 111 143 254 111 143 254 111 143 254 141 112 254 143 111 254 143 111 254 144 111 254 144 111 254 145 110 254 145 110 254 147 109 254 147 110 252 141 109 252 146 112 255 157 104 255 164 86 250 175 77 252 180 80 255 174 80 255 174 79 255 176 79 255 176 79 255 177 78 255 177 78 255 178 77 255 178 77 255 180 76 255 209 46 255 209 46 255 209 46 255 209 46 255 209 46 255 209 46 255 209 46 255 209 46 255 210 46 255 205 46 253 211 48 255 221 40 255 229 21 254 238 13 253 244 16 255 239 16 255 242 14 255 242 14 255 242 14 255 242 14 255 242 14 255 242 14 255 242 14 255 242 14 255 255 16 255 255 16 255 255 16 255 255 16 255 255 16 255 255 16 255 255 16 255 255 16 255 251 16 255 255 13 255 255 17 255 251 18 247 255 45 255 248 46 254 253 50 254 255 46 252 254 48 255 254 48 255 254 48 255 254 48 255 254 48 255 254 48 255 254 48 255 254 48 255 255 79 255 255 79 255 255 79 255 255 79 255 255 79 255 255 79 255 255 79 255 255 79 255 253 82 255 255 76 253 255 77 250 249 80 245 255 110 255 250 112 255 252 113 254 255 108 250 255 112 253 255 112 253 255 112 253 255 112 253 255 112 253 255 112 253 255 112 253 255 112 253 254 144 255 254 144 255 254 144 255 254 144 255 254 144 255 254 144 255 254 144 255 254 144 255 251 147 255 253 141 253 255 143 251 248 146 246 255 175 255 250 179 255 252 180 254 255 174 250 255 176 255 255 176 255 255 176 255 255 176 255 255 176 255 255 176 255 255 176 255 255 176 255 
255 207 255 255 207 255 255 207 255 255 207 255 255 207 255 255 207 255 255 207 255 255 207 255 252 210 255 253 203 252 255 205 251 249 209 244 255 238 255 250 242 255 254 244 255 255 237 249 255 239 255 252 241 255 250 242 255 254 240 255 255 237 255 255 239 255 246 244 255 235 250 255 16 225 245 22 235 253 23 240 255 17 238 254 15 236 252 17 238 254 19 239 255 20 237 254 20 237 254 15 236 254 19 238 255 30 229 255 38 211 251 47 203 252 51 205 255 47 204 255 48 206 254 48 206 254 49 205 254 49 205 254 50 204 254 52 204 254 52 204 254 52 204 254 79 174 254 79 174 254 81 174 254 81 174 254 82 173 254 82 173 254 83 172 254 83 172 254 82 173 254 17 238 255 17 238 255 17 238 255 17 238 255 17 238 255 17 238 255 17 238 255 17 238 255 18 238 254 14 237 254 19 240 255 28 232 255 37 213 252 47 205 253 52 208 255 47 207 255 47 207 255 47 207 255 49 207 255 49 207 255 50 206 255 50 206 255 51 205 255 51 205 255 76 177 255 77 177 255 77 177 255 79 176 255 79 176 255 80 175 255 80 175 255 82 175 255 82 175 253 75 175 253 80 177 255 91 168 255 98 150 251 109 141 252 113 143 255 107 143 255 111 143 254 111 143 254 111 143 254 111 143 254 111 143 254 111 143 254 111 143 254 111 143 254 141 112 254 143 111 254 143 111 254 144 111 254 144 111 254 145 110 254 145 110 254 147 109 254 147 110 252 141 109 252 146 112 255 157 104 255 164 86 250 175 77 252 180 80 255 174 80 255 174 79 255 176 79 255 176 79 255 177 78 255 177 78 255 178 77 255 178 77 255 180 76 255 209 46 255 209 46 255 209 46 255 209 46 255 209 46 255 209 46 255 209 46 255 209 46 255 210 46 255 205 46 253 211 48 255 221 40 255 229 21 254 238 13 253 244 16 255 239 16 255 242 14 255 242 14 255 242 14 255 242 14 255 242 14 255 242 14 255 242 14 255 242 14 255 255 16 255 255 16 255 255 16 255 255 16 255 255 16 255 255 16 255 255 16 255 255 16 255 251 16 255 255 13 255 255 17 255 251 18 247 255 45 255 248 46 254 253 50 254 255 46 252 254 48 255 254 48 255 254 48 255 254 48 255 254 48 255 254 48 255 254 48 255 254 48 255 255 79 255 255 79 255 255 79 255 255 79 255 255 79 255 255 79 255 255 79 255 255 79 255 253 82 255 255 76 253 255 77 250 249 80 245 255 110 255 250 112 255 252 113 254 255 108 250 255 112 253 255 112 253 255 112 253 255 112 253 255 112 253 255 112 253 255 112 253 255 112 253 254 144 255 254 144 255 254 144 255 254 144 255 254 144 255 254 144 255 254 144 255 254 144 255 251 147 255 253 141 253 255 143 251 248 146 246 255 175 255 250 179 255 252 180 254 255 174 250 255 176 255 255 176 255 255 176 255 255 176 255 255 176 255 255 176 255 255 176 255 255 176 255 255 207 255 255 207 255 255 207 255 255 207 255 255 207 255 255 207 255 255 207 255 255 207 255 252 210 255 253 203 252 255 205 251 249 209 244 255 238 255 250 242 255 254 244 255 255 237 249 255 239 255 252 241 255 250 242 255 254 240 255 255 237 255 255 239 255 246 244 255 235 250 255 16 225 245 22 235 253 23 240 255 17 238 254 15 236 252 17 238 254 19 239 255 
20 237 254 20 237 254 15 236 254 19 238 255 30 229 255 38 211 251 47 203 252 51 205 255 47 204 255 48 206 254 48 206 254 49 205 254 49 205 254 50 204 254 52 204 254 52 204 254 52 204 254 79 174 254 79 174 254 81 174 254 81 174 254 82 173 254 82 173 254 83 172 254 83 172 254 82 173 254 17 238 255 17 238 255 17 238 255 17 238 255 17 238 255 17 238 255 17 238 255 17 238 255 18 238 254 14 237 254 19 240 255 28 232 255 37 213 252 47 205 253 52 208 255 47 207 255 47 207 255 47 207 255 49 207 255 49 207 255 50 206 255 50 206 255 51 205 255 51 205 255 76 177 255 77 177 255 77 177 255 79 176 255 79 176 255 80 175 255 80 175 255 82 175 255 82 175 253 75 175 253 80 177 255 91 168 255 98 150 251 109 141 252 113 143 255 107 143 255 111 143 254 111 143 254 111 143 254 111 143 254 111 143 254 111 143 254 111 143 254 111 143 254 141 112 254 143 111 254 143 111 254 144 111 254 144 111 254 145 110 254 145 110 254 147 109 254 147 110 252 141 109 252 146 112 255 157 104 255 164 86 250 175 77 252 180 80 255 174 80 255 174 79 255 176 79 255 176 79 255 177 78 255 177 78 255 178 77 255 178 77 255 180 76 255 209 46 255 209 46 255 209 46 255 209 46 255 209 46 255 209 46 255 209 46 255 209 46 255 210 46 255 205 46 253 211 48 255 221 40 255 229 21 254 238 13 253 244 16 255 239 16 255 242 14 255 242 14 255 242 14 255 242 14 255 242 14 255 242 14 255 242 14 255 242 14 255 255 16 255 255 16 255 255 16 255 255 16 255 255 16 255 255 16 255 255 16 255 255 16 255 251 16 255 255 13 255 255 17 255 251 18 247 255 45 255 248 46 254 253 50 254 255 46 252 254 48 255 254 48 255 254 48 255 254 48 255 254 48 255 254 48 255 254 48 255 254 48 255 255 79 255 255 79 255 255 79 255 255 79 255 255 79 255 255 79 255 255 79 255 255 79 255 253 82 255 255 76 253 255 77 250 249 80 245 255 110 255 250 112 255 252 113 254 255 108 250 255 112 253 255 112 253 255 112 253 255 112 253 255 112 253 255 112 253 255 112 253 255 112 253 254 144 255 254 144 255 254 144 255 254 144 255 254 144 255 254 144 255 254 144 255 254 144 255 251 147 255 253 141 253 255 143 251 248 146 246 255 175 255 250 179 255 252 180 254 255 174 250 255 176 255 255 176 255 255 176 255 255 176 255 255 176 255 255 176 255 255 176 255 255 176 255 255 207 255 255 207 255 255 207 255 255 207 255 255 207 255 255 207 255 255 207 255 255 207 255 252 210 255 253 203 252 255 205 251 249 209 244 255 238 255 250 242 255 254 244 255 255 237 249 255 239 255 252 241 255 250 242 255 254 240 255 255 237 255 255 239 255 246 244 255 235 250 255 16 225 245 22 235 253 23 240 255 17 238 254 15 236 252 17 238 254 19 239 255 20 237 254 20 237 254 15 236 254 19 238 255 30 229 255 38 211 251 47 203 252 51 205 255 47 204 255 48 206 254 48 206 254 49 205 254 49 205 254 50 204 254 52 204 254 52 204 254 52 204 254 79 174 254 79 174 254 81 174 254 81 174 254 82 173 254 82 173 254 83 172 254 83 172 254 82 173 254 17 238 255 17 238 255 17 238 255 17 238 255 17 238 255 
17 238 255 17 238 255 17 238 255 18 238 254 14 237 254 19 240 255 28 232 255 37 213 252 47 205 253 52 208 255 47 207 255 47 207 255 47 207 255 49 207 255 49 207 255 50 206 255 50 206 255 51 205 255 51 205 255 76 177 255 77 177 255 77 177 255 79 176 255 79 176 255 80 175 255 80 175 255 82 175 255 82 175 253 75 175 253 80 177 255 91 168 255 98 150 251 109 141 252 113 143 255 107 143 255 111 143 254 111 143 254 111 143 254 111 143 254 111 143 254 111 143 254 111 143 254 111 143 254 141 112 254 143 111 254 143 111 254 144 111 254 144 111 254 145 110 254 145 110 254 147 109 254 147 110 252 141 109 252 146 112 255 157 104 255 164 86 250 175 77 252 180 80 255 174 80 255 174 79 255 176 79 255 176 79 255 177 78 255 177 78 255 178 77 255 178 77 255 180 76 255 209 46 255 209 46 255 209 46 255 209 46 255 209 46 255 209 46 255 209 46 255 209 46 255 210 46 255 205 46 253 211 48 255 221 40 255 229 21 254 238 13 253 244 16 255 239 16 255 242 14 255 242 14 255 242 14 255 242 14 255 242 14 255 242 14 255 242 14 255 242 14 255 255 16 255 255 16 255 255 16 255 255 16 255 255 16 255 255 16 255 255 16 255 255 16 255 251 16 255 255 13 255 255 17 255 251 18 247 255 45 255 248 46 254 253 50 254 255 46 252 254 48 255 254 48 255 254 48 255 254 48 255 254 48 255 254 48 255 254 48 255 254 48 255 255 79 255 255 79 255 255 79 255 255 79 255 255 79 255 255 79 255 255 79 255 255 79 255 253 82 255 255 76 253 255 77 250 249 80 245 255 110 255 250 112 255 252 113 254 255 108 250 255 112 253 255 112 253 255 112 253 255 112 253 255 112 253 255 112 253 255 112 253 255 112 253 254 144 255 254 144 255 254 144 255 254 144 255 254 144 255 254 144 255 254 144 255 254 144 255 251 147 255 253 141 253 255 143 251 248 146 246 255 175 255 250 179 255 252 180 254 255 174 250 255 176 255 255 176 255 255 176 255 255 176 255 255 176 255 255 176 255 255 176 255 255 176 255 255 207 255 255 207 255 255 207 255 255 207 255 255 207 255 255 207 255 255 207 255 255 207 255 252 210 255 253 203 252 255 205 251 249 209 244 255 238 255 250 242 255 254 244 255 255 237 249 255 239 255 252 241 255 250 242 255 254 240 255 255 237 255 255 239 255 246 244 255 235 250 255 16 225 245 22 235 253 23 240 255 17 238 254 15 236 252 17 238 254 19 239 255 20 237 254 20 237 254 15 236 254 19 238 255 30 229 255 38 211 251 47 203 252 51 205 255 47 204 255 48 206 254 48 206 254 49 205 254 49 205 254 50 204 254 52 204 254 52 204 254 52 204 254 79 174 254 79 174 254 81 174 254 81 174 254 82 173 254 82 173 254 83 172 254 83 172 254 82 173 254 17 238 255 17 238 255 17 238 255 17 238 255 17 238 255 17 238 255 17 238 255 17 238 255 18 238 254 14 237 254 19 240 255 28 232 255 37 213 252 47 205 253 52 208 255 47 207 255 47 207 255 47 207 255 49 207 255 49 207 255 50 206 255 50 206 255 51 205 255 51 205 255 76 177 255 77 177 255 77 177 255 79 176 255 79 176 255 80 175 255 80 175 255 82 175 255 82 175 253 75 175 253 80 177 255 91 168 255 
98 150 251 109 141 252 113 143 255 107 143 255 111 143 254 111 143 254 111 143 254 111 143 254 111 143 254 111 143 254 111 143 254 111 143 254 141 112 254 143 111 254 143 111 254 144 111 254 144 111 254 145 110 254 145 110 254 147 109 254 147 110 252 141 109 252 146 112 255 157 104 255 164 86 250 175 77 252 180 80 255 174 80 255 174 79 255 176 79 255 176 79 255 177 78 255 177 78 255 178 77 255 178 77 255 180 76 255 209 46 255 209 46 255 209 46 255 209 46 255 209 46 255 209 46 255 209 46 255 209 46 255 210 46 255 205 46 253 211 48 255 221 40 255 229 21 254 238 13 253 244 16 255 239 16 255 242 14 255 242 14 255 242 14 255 242 14 255 242 14 255 242 14 255 242 14 255 242 14 255 255 16 255 255 16 255 255 16 255 255 16 255 255 16 255 255 16 255 255 16 255 255 16 255 251 16 255 255 13 255 255 17 255 251 18 247 255 45 255 248 46 254 253 50 254 255 46 252 254 48 255 254 48 255 254 48 255 254 48 255 254 48 255 254 48 255 254 48 255 254 48 255 255 79 255 255 79 255 255 79 255 255 79 255 255 79 255 255 79 255 255 79 255 255 79 255 253 82 255 255 76 253 255 77 250 249 80 245 255 110 255 250 112 255 252 113 254 255 108 250 255 112 253 255 112 253 255 112 253 255 112 253 255 112 253 255 112 253 255 112 253 255 112 253 254 144 255 254 144 255 254 144 255 254 144 255 254 144 255 254 144 255 254 144 255 254 144 255 251 147 255 253 141 253 255 143 251 248 146 246 255 175 255 250 179 255 252 180 254 255 174 250 255 176 255 255 176 255 255 176 255 255 176 255 255 176 255 255 176 255 255 176 255 255 176 255 255 207 255 255 207 255 255 207 255 255 207 255 255 207 255 255 207 255 255 207 255 255 207 255 252 210 255 253 203 252 255 205 251 249 209 244 255 238 255 250 242 255 254 244 255 255 237 249 255 239 255 252 241 255 250 242 255 254 240 255 255 237 255 255 239 255 246 244 255 235 250 255 16 225 245 22 235 253 23 240 255 17 238 254 15 236 252 17 238 254 19 239 255 20 237 254 20 237 254 15 236 254 19 238 255 30 229 255 38 211 251 47 203 252 51 205 255 47 204 255 48 206 254 48 206 254 49 205 254 49 205 254 50 204 254 52 204 254 52 204 254 52 204 254 79 174 254 79 174 254 81 174 254 81 174 254 82 173 254 82 173 254 83 172 254 83 172 254 82 173 254 17 238 255 17 238 255 17 238 255 17 238 255 17 238 255 17 238 255 17 238 255 17 238 255 18 238 254 14 237 254 19 240 255 28 232 255 37 213 252 47 205 253 52 208 255 47 207 255 47 207 255 47 207 255 49 207 255 49 207 255 50 206 255 50 206 255 51 205 255 51 205 255 76 177 255 77 177 255 77 177 255 79 176 255 79 176 255 80 175 255 80 175 255 82 175 255 82 175 253 75 175 253 80 177 255 91 168 255 98 150 251 109 141 252 113 143 255 107 143 255 111 143 254 111 143 254 111 143 254 111 143 254 111 143 254 111 143 254 111 143 254 111 143 254 141 112 254 143 111 254 143 111 254 144 111 254 144 111 254 145 110 254 145 110 254 147 109 254 147 110 252 141 109 252 146 112 255 157 104 255 164 86 250 175 77 252 180 80 255 174 80 255 174 79 255 176 79 255 176 79 255 
177 78 255 177 78 255 178 77 255 178 77 255 180 76 255 209 46 255 209 46 255 209 46 255 209 46 255 209 46 255 209 46 255 209 46 255 209 46 255 210 46 255 205 46 253 211 48 255 221 40 255 229 21 254 238 13 253 244 16 255 239 16 255 242 14 255 242 14 255 242 14 255 242 14 255 242 14 255 242 14 255 242 14 255 242 14 255 255 16 255 255 16 255 255 16 255 255 16 255 255 16 255 255 16 255 255 16 255 255 16 255 251 16 255 255 13 255 255 17 255 251 18 247 255 45 255 248 46 254 253 50 254 255 46 252 254 48 255 254 48 255 254 48 255 254 48 255 254 48 255 254 48 255 254 48 255 254 48 255 255 79 255 255 79 255 255 79 255 255 79 255 255 79 255 255 79 255 255 79 255 255 79 255 253 82 255 255 76 253 255 77 250 249 80 245 255 110 255 250 112 255 252 113 254 255 108 250 255 112 253 255 112 253 255 112 253 255 112 253 255 112 253 255 112 253 255 112 253 255 112 253 254 144 255 254 144 255 254 144 255 254 144 255 254 144 255 254 144 255 254 144 255 254 144 255 251 147 255 253 141 253 255 143 251 248 146 246 255 175 255 250 179 255 252 180 254 255 174 250 255 176 255 255 176 255 255 176 255 255 176 255 255 176 255 255 176 255 255 176 255 255 176 255 255 207 255 255 207 255 255 207 255 255 207 255 255 207 255 255 207 255 255 207 255 255 207 255 252 210 255 253 203 252 255 205 251 249 209 244 255 238 255 250 242 255 254 244 255 255 237 249 255 239 255 252 241 255 250 242 255 254 240 255 255 237 255 255 239 255 246 244 255 235 250 255 16 225 245 22 235 253 23 240 255 17 238 254 15 236 252 17 238 254 19 239 255 20 237 254 20 237 254 15 236 254 19 238 255 30 229 255 38 211 251 47 203 252 51 205 255 47 204 255 48 206 254 48 206 254 49 205 254 49 205 254 50 204 254 52 204 254 52 204 254 52 204 254 79 174 254 79 174 254 81 174 254 81 174 254 82 173 254 82 173 254 83 172 254 83 172 254 82 173 254 17 238 255 17 238 255 17 238 255 17 238 255 17 238 255 17 238 255 17 238 255 17 238 255 18 238 254 14 237 254 19 240 255 28 232 255 37 213 252 47 205 253 52 208 255 47 207 255 47 207 255 47 207 255 49 207 255 49 207 255 50 206 255 50 206 255 51 205 255 51 205 255 76 177 255 77 177 255 77 177 255 79 176 255 79 176 255 80 175 255 80 175 255 82 175 255 82 175 253 75 175 253 80 177 255 91 168 255 98 150 251 109 141 252 113 143 255 107 143 255 111 143 254 111 143 254 111 143 254 111 143 254 111 143 254 111 143 254 111 143 254 111 143 254 141 112 254 143 111 254 143 111 254 144 111 254 144 111 254 145 110 254 145 110 254 147 109 254 147 110 252 141 109 252 146 112 255 157 104 255 164 86 250 175 77 252 180 80 255 174 80 255 174 79 255 176 79 255 176 79 255 177 78 255 177 78 255 178 77 255 178 77 255 180 76 255 209 46 255 209 46 255 209 46 255 209 46 255 209 46 255 209 46 255 209 46 255 209 46 255 210 46 255 205 46 253 211 48 255 221 40 255 229 21 254 238 13 253 244 16 255 239 16 255 242 14 255 242 14 255 242 14 255 242 14 255 242 14 255 242 14 255 242 14 255 242 14 255 255 16 255 255 16 255 
255 16 255 255 16 255 255 16 255 255 16 255 255 16 255 255 16 255 251 16 255 255 13 255 255 17 255 251 18 247 255 45 255 248 46 254 253 50 254 255 46 252 254 48 255 254 48 255 254 48 255 254 48 255 254 48 255 254 48 255 254 48 255 254 48 255 255 79 255 255 79 255 255 79 255 255 79 255 255 79 255 255 79 255 255 79 255 255 79 255 253 82 255 255 76 253 255 77 250 249 80 245 255 110 255 250 112 255 252 113 254 255 108 250 255 112 253 255 112 253 255 112 253 255 112 253 255 112 253 255 112 253 255 112 253 255 112 253 254 144 255 254 144 255 254 144 255 254 144 255 254 144 255 254 144 255 254 144 255 254 144 255 251 147 255 253 141 253 255 143 251 248 146 246 255 175 255 250 179 255 252 180 254 255 174 250 255 176 255 255 176 255 255 176 255 255 176 255 255 176 255 255 176 255 255 176 255 255 176 255 255 207 255 255 207 255 255 207 255 255 207 255 255 207 255 255 207 255 255 207 255 255 207 255 252 210 255 253 203 252 255 205 251 249 209 244 255 238 255 250 242 255 254 244 255 255 237 249 255 239 255 252 241 255 250 242 255 254 240 255 255 237 255 255 239 255 246 244 255 235 250 255 16 225 245 22 235 253 23 240 255 17 238 254 15 236 252 17 238 254 19 239 255 20 237 254 20 237 254 15 236 254 19 238 255 30 229 255 38 211 251 47 203 252 51 205 255 47 204 255 48 206 254 48 206 254 49 205 254 49 205 254 50 204 254 52 204 254 52 204 254 52 204 254 79 174 254 79 174 254 81 174 254 81 174 254 82 173 254 82 173 254 83 172 254 83 172 254 82 173 254 17 238 255 17 238 255 17 238 255 17 238 255 17 238 255 17 238 255 17 238 255 17 238 255 18 238 254 14 237 254 19 240 255 28 232 255 37 213 252 47 205 253 52 208 255 47 207 255 47 207 255 47 207 255 49 207 255 49 207 255 50 206 255 50 206 255 51 205 255 51 205 255 76 177 255 77 177 255 77 177 255 79 176 255 79 176 255 80 175 255 80 175 255 82 175 255 82 175 253 75 175 253 80 177 255 91 168 255 98 150 251 109 141 252 113 143 255 107 143 255 111 143 254 111 143 254 111 143 254 111 143 254 111 143 254 111 143 254 111 143 254 111 143 254 141 112 254 143 111 254 143 111 254 144 111 254 144 111 254 145 110 254 145 110 254 147 109 254 147 110 252 141 109 252 146 112 255 157 104 255 164 86 250 175 77 252 180 80 255 174 80 255 174 79 255 176 79 255 176 79 255 177 78 255 177 78 255 178 77 255 178 77 255 180 76 255 209 46 255 209 46 255 209 46 255 209 46 255 209 46 255 209 46 255 209 46 255 209 46 255 210 46 255 205 46 253 211 48 255 221 40 255 229 21 254 238 13 253 244 16 255 239 16 255 242 14 255 242 14 255 242 14 255 242 14 255 242 14 255 242 14 255 242 14 255 242 14 255 255 16 255 255 16 255 255 16 255 255 16 255 255 16 255 255 16 255 255 16 255 255 16 255 251 16 255 255 13 255 255 17 255 251 18 247 255 45 255 248 46 254 253 50 254 255 46 252 254 48 255 254 48 255 254 48 255 254 48 255 254 48 255 254 48 255 254 48 255 254 48 255 255 79 255 255 79 255 255 79 255 255 79 255 255 79 255 255 79 255 255 79 255 255 79 255 253 82 255 
255 76 253 255 77 250 249 80 245 255 110 255 250 112 255 252 113 254 255 108 250 255 112 253 255 112 253 255 112 253 255 112 253 255 112 253 255 112 253 255 112 253 255 112 253 254 144 255 254 144 255 254 144 255 254 144 255 254 144 255 254 144 255 254 144 255 254 144 255 251 147 255 253 141 253 255 143 251 248 146 246 255 175 255 250 179 255 252 180 254 255 174 250 255 176 255 255 176 255 255 176 255 255 176 255 255 176 255 255 176 255 255 176 255 255 176 255 255 207 255 255 207 255 255 207 255 255 207 255 255 207 255 255 207 255 255 207 255 255 207 255 252 210 255 253 203 252 255 205 251 249 209 244 255 238 255 250 242 255 254 244 255 255 237 249 255 239 255 252 241 255 250 242 255 254 240 255 255 237 255 255 239 255 246 244 255 235 250 255 16 225 245 22 235 253 23 240 255 17 238 254 15 236 252 17 238 254 19 239 255 20 237 254 20 237 254 15 236 254 19 238 255 30 229 255 38 211 251 47 203 252 51 205 255 47 204 255 48 206 254 48 206 254 49 205 254 49 205 254 50 204 254 52 204 254 52 204 254 52 204 254 79 174 254 79 174 254 81 174 254 81 174 254 82 173 254 82 173 254 83 172 254 83 172 254 82 173 254 18 237 255 18 237 255 18 237 255 18 237 255 18 237 255 18 237 255 18 237 255 18 237 255 20 237 254 15 236 254 19 238 255 30 229 255 38 211 251 47 203 252 51 205 255 47 204 255 48 206 254 48 206 254 49 205 254 49 205 254 50 204 254 52 204 254 52 204 254 52 204 254 79 174 254 79 174 254 81 174 254 81 174 254 82 173 254 82 173 254 83 172 254 83 172 254 81 174 252 76 173 252 83 175 255 93 166 255 103 148 251 113 139 252 120 141 255 115 140 255 114 141 255 114 141 255 115 140 255 115 140 255 117 139 255 118 139 255 118 139 255 118 139 255 145 110 254 145 110 254 145 110 254 145 110 254 145 110 254 145 110 254 145 110 254 145 110 254 148 109 252 143 108 252 148 110 255 157 102 255 165 84 249 175 75 251 180 77 255 175 76 254 177 76 255 177 76 255 177 76 255 177 76 255 177 76 255 177 76 255 177 76 255 177 76 255 209 45 255 209 45 255 209 45 255 209 45 255 209 45 255 209 45 255 209 45 255 209 45 255 209 45 254 204 45 252 211 47 255 222 38 255 230 20 253 240 11 252 247 13 255 242 13 255 242 13 255 242 13 255 242 13 255 242 13 255 242 13 255 242 13 255 242 13 255 242 13 255 241 24 255 248 20 255 254 17 255 251 19 255 244 22 255 241 24 255 245 21 255 252 18 255 252 21 255 245 18 255 242 20 251 237 21 244 255 46 255 254 47 255 255 52 255 252 51 253 255 47 255 254 48 255 251 50 253 248 51 253 250 52 253 253 50 253 255 49 252 255 48 252 255 81 255 255 81 255 255 81 255 255 81 255 255 81 255 255 81 255 255 81 255 255 81 255 251 83 255 252 78 251 255 80 249 247 82 244 255 112 255 249 117 255 253 117 253 254 112 248 255 114 254 255 114 254 255 114 254 255 114 254 255 114 254 255 114 254 255 114 254 255 114 254 255 146 255 255 146 255 255 146 255 255 146 255 255 146 255 255 146 255 255 146 255 255 146 255 250 146 255 255 144 255 255 148 255 250 148 248 255 175 255 247 176 254 252 180 254 255 177 253 
255 177 255 255 177 255 255 177 255 255 177 255 255 177 255 255 177 255 255 177 255 255 177 255 255 210 255 255 210 255 255 210 255 255 210 255 255 210 255 255 210 255 255 210 255 255 210 255 253 211 255 255 207 255 255 211 255 253 213 248 255 239 255 249 241 255 254 244 255 255 241 253 255 241 254 251 243 254 250 244 254 254 242 254 255 239 254 255 241 254 246 246 254 234 252 254 24 220 246 23 232 254 19 240 255 16 237 255 21 232 253 26 232 255 24 235 255 17 236 255 22 235 253 15 234 253 21 237 255 31 229 255 39 211 251 50 202 252 55 205 255 49 205 255 49 205 254 50 204 254 50 204 254 52 204 254 52 204 254 53 203 254 53 203 254 55 202 254 82 172 255 83 171 255 83 171 255 85 171 255 85 171 255 86 170 255 86 170 255 88 169 255 86 170 255 18 237 255 18 237 255 18 237 255 18 237 255 18 237 255 18 237 255 18 237 255 18 237 255 20 237 254 15 236 254 19 238 255 30 229 255 38 211 251 47 203 252 51 205 255 47 204 255 48 206 254 48 206 254 49 205 254 49 205 254 50 204 254 52 204 254 52 204 254 52 204 254 79 174 254 79 174 254 81 174 254 81 174 254 82 173 254 82 173 254 83 172 254 83 172 254 81 174 252 76 173 252 83 175 255 93 166 255 103 148 251 113 139 252 120 141 255 115 140 255 114 141 255 114 141 255 115 140 255 115 140 255 117 139 255 118 139 255 118 139 255 118 139 255 145 110 254 145 110 254 145 110 254 145 110 254 145 110 254 145 110 254 145 110 254 145 110 254 148 109 252 143 108 252 148 110 255 157 102 255 165 84 249 175 75 251 180 77 255 175 76 254 177 76 255 177 76 255 177 76 255 177 76 255 177 76 255 177 76 255 177 76 255 177 76 255 209 45 255 209 45 255 209 45 255 209 45 255 209 45 255 209 45 255 209 45 255 209 45 255 209 45 254 204 45 252 211 47 255 222 38 255 230 20 253 240 11 252 247 13 255 242 13 255 242 13 255 242 13 255 242 13 255 242 13 255 242 13 255 242 13 255 242 13 255 242 13 255 246 20 254 253 16 254 255 13 254 255 15 254 249 18 254 246 20 254 250 18 254 255 14 254 255 19 255 251 16 255 247 19 252 241 20 245 255 46 255 255 48 255 255 53 255 253 52 254 255 50 255 255 50 255 252 51 254 249 50 253 248 50 251 250 49 251 253 48 249 254 47 249 255 81 255 255 81 255 255 81 255 255 81 255 255 81 255 255 81 255 255 81 255 255 81 255 251 83 255 252 78 251 255 80 249 247 82 244 255 112 255 249 117 255 253 117 253 254 112 248 255 114 254 255 114 254 255 114 254 255 114 254 255 114 254 255 114 254 255 114 254 255 114 254 255 146 255 255 146 255 255 146 255 255 146 255 255 146 255 255 146 255 255 146 255 255 146 255 250 146 255 255 144 255 255 148 255 250 148 248 255 175 255 247 176 254 252 180 254 255 177 253 255 177 255 255 177 255 255 177 255 255 177 255 255 177 255 255 177 255 255 177 255 255 177 255 255 210 255 255 210 255 255 210 255 255 210 255 255 210 255 255 210 255 255 210 255 255 210 255 253 211 255 255 207 255 255 211 255 253 213 248 255 239 255 249 241 255 254 244 255 255 241 253 255 241 254 251 243 254 250 244 254 254 242 254 255 239 254 255 241 254 246 246 254 
234 252 254 24 220 246 23 232 254 19 240 255 16 237 255 21 232 253 26 232 255 24 235 255 17 236 255 22 235 253 15 234 253 21 237 255 31 229 255 39 211 251 50 202 252 55 205 255 49 205 255 49 205 254 50 204 254 50 204 254 52 204 254 52 204 254 53 203 254 53 203 254 55 202 254 82 172 255 83 171 255 83 171 255 85 171 255 85 171 255 86 170 255 86 170 255 88 169 255 86 170 255 18 237 255 18 237 255 18 237 255 18 237 255 18 237 255 18 237 255 18 237 255 18 237 255 20 237 254 15 236 254 19 238 255 30 229 255 38 211 251 47 203 252 51 205 255 47 204 255 48 206 254 48 206 254 49 205 254 49 205 254 50 204 254 52 204 254 52 204 254 52 204 254 79 174 254 79 174 254 81 174 254 81 174 254 82 173 254 82 173 254 83 172 254 83 172 254 81 174 252 76 173 252 83 175 255 93 166 255 103 148 251 113 139 252 120 141 255 115 140 255 114 141 255 114 141 255 115 140 255 115 140 255 117 139 255 118 139 255 118 139 255 118 139 255 145 110 254 145 110 254 145 110 254 145 110 254 145 110 254 145 110 254 145 110 254 145 110 254 148 109 252 143 108 252 148 110 255 157 102 255 165 84 249 175 75 251 180 77 255 175 76 254 177 76 255 177 76 255 177 76 255 177 76 255 177 76 255 177 76 255 177 76 255 177 76 255 209 45 255 209 45 255 209 45 255 209 45 255 209 45 255 209 45 255 209 45 255 209 45 255 209 45 254 204 45 252 211 47 255 222 38 255 230 20 253 240 11 252 247 13 255 242 13 255 242 13 255 242 13 255 242 13 255 242 13 255 242 13 255 242 13 255 242 13 255 242 13 255 250 18 254 255 14 254 255 11 254 255 13 254 253 16 254 249 18 254 254 15 254 255 12 254 255 16 255 255 13 255 253 15 251 246 17 244 255 43 255 255 46 255 255 52 255 250 52 253 255 50 255 255 49 255 255 49 254 251 50 253 247 50 251 247 50 251 248 50 249 248 50 249 255 81 255 255 81 255 255 81 255 255 81 255 255 81 255 255 81 255 255 81 255 255 81 255 251 83 255 252 78 251 255 80 249 247 82 244 255 112 255 249 117 255 253 117 253 254 112 248 255 114 254 255 114 254 255 114 254 255 114 254 255 114 254 255 114 254 255 114 254 255 114 254 255 146 255 255 146 255 255 146 255 255 146 255 255 146 255 255 146 255 255 146 255 255 146 255 250 146 255 255 144 255 255 148 255 250 148 248 255 175 255 247 176 254 252 180 254 255 177 253 255 177 255 255 177 255 255 177 255 255 177 255 255 177 255 255 177 255 255 177 255 255 177 255 255 210 255 255 210 255 255 210 255 255 210 255 255 210 255 255 210 255 255 210 255 255 210 255 253 211 255 255 207 255 255 211 255 253 213 248 255 239 255 249 241 255 254 244 255 255 241 253 255 241 254 251 243 254 250 244 254 254 242 254 255 239 254 255 241 254 246 246 254 234 252 254 24 220 246 23 232 254 19 240 255 16 237 255 21 232 253 26 232 255 24 235 255 17 236 255 22 235 253 15 234 253 21 237 255 31 229 255 39 211 251 50 202 252 55 205 255 49 205 255 49 205 254 50 204 254 50 204 254 52 204 254 52 204 254 53 203 254 53 203 254 55 202 254 82 172 255 83 171 255 83 171 255 85 171 255 85 171 255 86 170 255 
86 170 255 88 169 255 86 170 255 18 237 255 18 237 255 18 237 255 18 237 255 18 237 255 18 237 255 18 237 255 18 237 255 20 237 254 15 236 254 19 238 255 30 229 255 38 211 251 47 203 252 51 205 255 47 204 255 48 206 254 48 206 254 49 205 254 49 205 254 50 204 254 52 204 254 52 204 254 52 204 254 79 174 254 79 174 254 81 174 254 81 174 254 82 173 254 82 173 254 83 172 254 83 172 254 81 174 252 76 173 252 83 175 255 93 166 255 103 148 251 113 139 252 120 141 255 115 140 255 114 141 255 114 141 255 115 140 255 115 140 255 117 139 255 118 139 255 118 139 255 118 139 255 145 110 254 145 110 254 145 110 254 145 110 254 145 110 254 145 110 254 145 110 254 145 110 254 148 109 252 143 108 252 148 110 255 157 102 255 165 84 249 175 75 251 180 77 255 175 76 254 177 76 255 177 76 255 177 76 255 177 76 255 177 76 255 177 76 255 177 76 255 177 76 255 209 45 255 209 45 255 209 45 255 209 45 255 209 45 255 209 45 255 209 45 255 209 45 255 209 45 254 204 45 252 211 47 255 222 38 255 230 20 253 240 11 252 247 13 255 242 13 255 242 13 255 242 13 255 242 13 255 242 13 255 242 13 255 242 13 255 242 13 255 242 13 255 250 19 255 255 16 255 255 14 255 255 15 255 251 19 255 248 20 255 254 17 255 255 14 255 255 12 255 255 9 253 254 11 249 247 11 241 255 39 255 255 43 255 252 51 254 247 50 251 255 44 253 255 45 254 255 47 253 252 51 254 251 53 254 249 54 254 247 55 252 247 55 252 255 81 255 255 81 255 255 81 255 255 81 255 255 81 255 255 81 255 255 81 255 255 81 255 251 83 255 252 78 251 255 80 249 247 82 244 255 112 255 249 117 255 253 117 253 254 112 248 255 114 254 255 114 254 255 114 254 255 114 254 255 114 254 255 114 254 255 114 254 255 114 254 255 146 255 255 146 255 255 146 255 255 146 255 255 146 255 255 146 255 255 146 255 255 146 255 250 146 255 255 144 255 255 148 255 250 148 248 255 175 255 247 176 254 252 180 254 255 177 253 255 177 255 255 177 255 255 177 255 255 177 255 255 177 255 255 177 255 255 177 255 255 177 255 255 210 255 255 210 255 255 210 255 255 210 255 255 210 255 255 210 255 255 210 255 255 210 255 253 211 255 255 207 255 255 211 255 253 213 248 255 239 255 249 241 255 254 244 255 255 241 253 255 241 254 251 243 254 250 244 254 254 242 254 255 239 254 255 241 254 246 246 254 234 252 254 24 220 246 23 232 254 19 240 255 16 237 255 21 232 253 26 232 255 24 235 255 17 236 255 22 235 253 15 234 253 21 237 255 31 229 255 39 211 251 50 202 252 55 205 255 49 205 255 49 205 254 50 204 254 50 204 254 52 204 254 52 204 254 53 203 254 53 203 254 55 202 254 82 172 255 83 171 255 83 171 255 85 171 255 85 171 255 86 170 255 86 170 255 88 169 255 86 170 255 18 237 255 18 237 255 18 237 255 18 237 255 18 237 255 18 237 255 18 237 255 18 237 255 20 237 254 15 236 254 19 238 255 30 229 255 38 211 251 47 203 252 51 205 255 47 204 255 48 206 254 48 206 254 49 205 254 49 205 254 50 204 254 52 204 254 52 204 254 52 204 254 79 174 254 79 174 254 81 174 254 81 174 254 
82 173 254 82 173 254 83 172 254 83 172 254 81 174 252 76 173 252 83 175 255 93 166 255 103 148 251 113 139 252 120 141 255 115 140 255 114 141 255 114 141 255 115 140 255 115 140 255 117 139 255 118 139 255 118 139 255 118 139 255 145 110 254 145 110 254 145 110 254 145 110 254 145 110 254 145 110 254 145 110 254 145 110 254 148 109 252 143 108 252 148 110 255 157 102 255 165 84 249 175 75 251 180 77 255 175 76 254 177 76 255 177 76 255 177 76 255 177 76 255 177 76 255 177 76 255 177 76 255 177 76 255 209 45 255 209 45 255 209 45 255 209 45 255 209 45 255 209 45 255 209 45 255 209 45 255 209 45 254 204 45 252 211 47 255 222 38 255 230 20 253 240 11 252 247 13 255 242 13 255 242 13 255 242 13 255 242 13 255 242 13 255 242 13 255 242 13 255 242 13 255 242 13 255 243 23 255 250 19 255 255 16 255 252 18 255 245 21 255 243 23 255 248 20 255 254 17 255 255 14 255 254 11 253 253 12 249 247 11 241 255 39 255 254 44 255 250 51 254 243 53 251 250 40 249 251 43 251 253 47 252 254 51 255 253 55 255 251 56 255 247 57 253 244 57 252 255 81 255 255 81 255 255 81 255 255 81 255 255 81 255 255 81 255 255 81 255 255 81 255 251 83 255 252 78 251 255 80 249 247 82 244 255 112 255 249 117 255 253 117 253 254 112 248 255 114 254 255 114 254 255 114 254 255 114 254 255 114 254 255 114 254 255 114 254 255 114 254 255 146 255 255 146 255 255 146 255 255 146 255 255 146 255 255 146 255 255 146 255 255 146 255 250 146 255 255 144 255 255 148 255 250 148 248 255 175 255 247 176 254 252 180 254 255 177 253 255 177 255 255 177 255 255 177 255 255 177 255 255 177 255 255 177 255 255 177 255 255 177 255 255 210 255 255 210 255 255 210 255 255 210 255 255 210 255 255 210 255 255 210 255 255 210 255 253 211 255 255 207 255 255 211 255 253 213 248 255 239 255 249 241 255 254 244 255 255 241 253 255 241 254 251 243 254 250 244 254 254 242 254 255 239 254 255 241 254 246 246 254 234 252 254 24 220 246 23 232 254 19 240 255 16 237 255 21 232 253 26 232 255 24 235 255 17 236 255 22 235 253 15 234 253 21 237 255 31 229 255 39 211 251 50 202 252 55 205 255 49 205 255 49 205 254 50 204 254 50 204 254 52 204 254 52 204 254 53 203 254 53 203 254 55 202 254 82 172 255 83 171 255 83 171 255 85 171 255 85 171 255 86 170 255 86 170 255 88 169 255 86 170 255 18 237 255 18 237 255 18 237 255 18 237 255 18 237 255 18 237 255 18 237 255 18 237 255 20 237 254 15 236 254 19 238 255 30 229 255 38 211 251 47 203 252 51 205 255 47 204 255 48 206 254 48 206 254 49 205 254 49 205 254 50 204 254 52 204 254 52 204 254 52 204 254 79 174 254 79 174 254 81 174 254 81 174 254 82 173 254 82 173 254 83 172 254 83 172 254 81 174 252 76 173 252 83 175 255 93 166 255 103 148 251 113 139 252 120 141 255 115 140 255 114 141 255 114 141 255 115 140 255 115 140 255 117 139 255 118 139 255 118 139 255 118 139 255 145 110 254 145 110 254 145 110 254 145 110 254 145 110 254 145 110 254 145 110 254 145 110 254 148 109 252 143 108 252 148 110 255 
157 102 255 165 84 249 175 75 251 180 77 255 175 76 254 177 76 255 177 76 255 177 76 255 177 76 255 177 76 255 177 76 255 177 76 255 177 76 255 209 45 255 209 45 255 209 45 255 209 45 255 209 45 255 209 45 255 209 45 255 209 45 255 209 45 254 204 45 252 211 47 255 222 38 255 230 20 253 240 11 252 247 13 255 242 13 255 242 13 255 242 13 255 242 13 255 242 13 255 242 13 255 242 13 255 242 13 255 242 13 255 240 23 254 247 19 254 253 16 254 249 18 254 242 22 254 239 23 254 244 20 254 251 17 254 252 21 255 249 16 255 249 17 251 246 17 244 255 43 255 254 47 255 248 55 255 241 57 253 248 46 252 251 48 254 253 50 254 255 52 255 254 53 255 250 53 254 246 54 251 242 55 250 255 81 255 255 81 255 255 81 255 255 81 255 255 81 255 255 81 255 255 81 255 255 81 255 251 83 255 252 78 251 255 80 249 247 82 244 255 112 255 249 117 255 253 117 253 254 112 248 255 114 254 255 114 254 255 114 254 255 114 254 255 114 254 255 114 254 255 114 254 255 114 254 255 146 255 255 146 255 255 146 255 255 146 255 255 146 255 255 146 255 255 146 255 255 146 255 250 146 255 255 144 255 255 148 255 250 148 248 255 175 255 247 176 254 252 180 254 255 177 253 255 177 255 255 177 255 255 177 255 255 177 255 255 177 255 255 177 255 255 177 255 255 177 255 255 210 255 255 210 255 255 210 255 255 210 255 255 210 255 255 210 255 255 210 255 255 210 255 253 211 255 255 207 255 255 211 255 253 213 248 255 239 255 249 241 255 254 244 255 255 241 253 255 241 254 251 243 254 250 244 254 254 242 254 255 239 254 255 241 254 246 246 254 234 252 254 24 220 246 23 232 254 19 240 255 16 237 255 21 232 253 26 232 255 24 235 255 17 236 255 22 235 253 15 234 253 21 237 255 31 229 255 39 211 251 50 202 252 55 205 255 49 205 255 49 205 254 50 204 254 50 204 254 52 204 254 52 204 254 53 203 254 53 203 254 55 202 254 82 172 255 83 171 255 83 171 255 85 171 255 85 171 255 86 170 255 86 170 255 88 169 255 86 170 255 18 237 255 18 237 255 18 237 255 18 237 255 18 237 255 18 237 255 18 237 255 18 237 255 20 237 254 15 236 254 19 238 255 30 229 255 38 211 251 47 203 252 51 205 255 47 204 255 48 206 254 48 206 254 49 205 254 49 205 254 50 204 254 52 204 254 52 204 254 52 204 254 79 174 254 79 174 254 81 174 254 81 174 254 82 173 254 82 173 254 83 172 254 83 172 254 81 174 252 76 173 252 83 175 255 93 166 255 103 148 251 113 139 252 120 141 255 115 140 255 114 141 255 114 141 255 115 140 255 115 140 255 117 139 255 118 139 255 118 139 255 118 139 255 145 110 254 145 110 254 145 110 254 145 110 254 145 110 254 145 110 254 145 110 254 145 110 254 148 109 252 143 108 252 148 110 255 157 102 255 165 84 249 175 75 251 180 77 255 175 76 254 177 76 255 177 76 255 177 76 255 177 76 255 177 76 255 177 76 255 177 76 255 177 76 255 209 45 255 209 45 255 209 45 255 209 45 255 209 45 255 209 45 255 209 45 255 209 45 255 209 45 254 204 45 252 211 47 255 222 38 255 230 20 253 240 11 252 247 13 255 242 13 255 242 13 255 242 13 255 
242 13 255 242 13 255 242 13 255 242 13 255 242 13 255 242 13 255 244 20 254 251 17 254 255 15 254 253 16 254 246 20 254 243 21 254 249 18 254 255 15 254 241 27 255 240 22 255 242 22 252 240 21 245 255 46 255 250 51 255 245 59 255 237 60 254 247 54 255 250 53 255 252 51 254 253 50 254 252 49 252 249 51 252 246 51 249 243 53 249 255 81 255 255 81 255 255 81 255 255 81 255 255 81 255 255 81 255 255 81 255 255 81 255 251 83 255 252 78 251 255 80 249 247 82 244 255 112 255 249 117 255 253 117 253 254 112 248 255 114 254 255 114 254 255 114 254 255 114 254 255 114 254 255 114 254 255 114 254 255 114 254 255 146 255 255 146 255 255 146 255 255 146 255 255 146 255 255 146 255 255 146 255 255 146 255 250 146 255 255 144 255 255 148 255 250 148 248 255 175 255 247 176 254 252 180 254 255 177 253 255 177 255 255 177 255 255 177 255 255 177 255 255 177 255 255 177 255 255 177 255 255 177 255 255 210 255 255 210 255 255 210 255 255 210 255 255 210 255 255 210 255 255 210 255 255 210 255 253 211 255 255 207 255 255 211 255 253 213 248 255 239 255 249 241 255 254 244 255 255 241 253 255 241 254 251 243 254 250 244 254 254 242 254 255 239 254 255 241 254 246 246 254 234 252 254 24 220 246 23 232 254 19 240 255 16 237 255 21 232 253 26 232 255 24 235 255 17 236 255 22 235 253 15 234 253 21 237 255 31 229 255 39 211 251 50 202 252 55 205 255 49 205 255 49 205 254 50 204 254 50 204 254 52 204 254 52 204 254 53 203 254 53 203 254 55 202 254 82 172 255 83 171 255 83 171 255 85 171 255 85 171 255 86 170 255 86 170 255 88 169 255 86 170 255 18 237 255 18 237 255 18 237 255 18 237 255 18 237 255 18 237 255 18 237 255 18 237 255 20 237 254 15 236 254 19 238 255 30 229 255 38 211 251 47 203 252 51 205 255 47 204 255 48 206 254 48 206 254 49 205 254 49 205 254 50 204 254 52 204 254 52 204 254 52 204 254 79 174 254 79 174 254 81 174 254 81 174 254 82 173 254 82 173 254 83 172 254 83 172 254 81 174 252 76 173 252 83 175 255 93 166 255 103 148 251 113 139 252 120 141 255 115 140 255 114 141 255 114 141 255 115 140 255 115 140 255 117 139 255 118 139 255 118 139 255 118 139 255 145 110 254 145 110 254 145 110 254 145 110 254 145 110 254 145 110 254 145 110 254 145 110 254 148 109 252 143 108 252 148 110 255 157 102 255 165 84 249 175 75 251 180 77 255 175 76 254 177 76 255 177 76 255 177 76 255 177 76 255 177 76 255 177 76 255 177 76 255 177 76 255 209 45 255 209 45 255 209 45 255 209 45 255 209 45 255 209 45 255 209 45 255 209 45 255 209 45 254 204 45 252 211 47 255 222 38 255 230 20 253 240 11 252 247 13 255 242 13 255 242 13 255 242 13 255 242 13 255 242 13 255 242 13 255 242 13 255 242 13 255 242 13 255 251 19 255 255 15 255 255 13 255 255 14 255 252 18 255 250 19 255 255 16 255 255 13 255 233 30 255 232 25 255 236 23 251 234 22 244 254 47 255 247 51 255 241 59 255 234 60 253 247 59 255 248 55 255 249 50 253 250 47 251 249 46 249 249 48 250 248 52 250 247 55 252 255 81 255 
255 81 255 255 81 255 255 81 255 255 81 255 255 81 255 255 81 255 255 81 255 251 83 255 252 78 251 255 80 249 247 82 244 255 112 255 249 117 255 253 117 253 254 112 248 255 114 254 255 114 254 255 114 254 255 114 254 255 114 254 255 114 254 255 114 254 255 114 254 255 146 255 255 146 255 255 146 255 255 146 255 255 146 255 255 146 255 255 146 255 255 146 255 250 146 255 255 144 255 255 148 255 250 148 248 255 175 255 247 176 254 252 180 254 255 177 253 255 177 255 255 177 255 255 177 255 255 177 255 255 177 255 255 177 255 255 177 255 255 177 255 255 210 255 255 210 255 255 210 255 255 210 255 255 210 255 255 210 255 255 210 255 255 210 255 253 211 255 255 207 255 255 211 255 253 213 248 255 239 255 249 241 255 254 244 255 255 241 253 255 241 254 251 243 254 250 244 254 254 242 254 255 239 254 255 241 254 246 246 254 234 252 254 24 220 246 23 232 254 19 240 255 16 237 255 21 232 253 26 232 255 24 235 255 17 236 255 22 235 253 15 234 253 21 237 255 31 229 255 39 211 251 50 202 252 55 205 255 49 205 255 49 205 254 50 204 254 50 204 254 52 204 254 52 204 254 53 203 254 53 203 254 55 202 254 82 172 255 83 171 255 83 171 255 85 171 255 85 171 255 86 170 255 86 170 255 88 169 255 86 170 255 16 237 255 16 237 255 16 237 255 16 237 255 16 237 255 16 237 255 16 237 255 16 237 255 20 237 254 15 236 254 19 238 255 29 230 255 36 212 251 47 203 252 51 205 255 47 204 255 48 206 254 48 206 254 48 206 254 49 205 254 50 204 254 50 204 254 52 204 254 52 204 254 78 175 254 79 174 254 79 174 254 81 174 254 81 174 254 82 173 254 83 172 254 83 172 254 84 173 253 78 173 253 84 175 255 93 166 255 101 149 251 112 139 252 116 141 255 110 142 255 114 141 255 114 141 255 115 140 255 115 140 255 117 139 255 118 139 255 118 139 255 118 139 255 147 107 255 147 107 255 147 107 255 147 107 255 147 107 255 147 107 255 147 107 255 147 107 255 150 108 255 145 107 254 149 109 255 158 101 255 168 82 253 177 74 253 181 76 255 176 75 255 177 76 255 177 76 255 177 76 255 177 76 255 177 76 255 177 76 255 177 76 255 177 76 255 206 46 255 206 46 255 208 45 255 208 45 255 209 45 255 211 44 255 211 44 255 211 44 255 212 45 255 207 45 253 211 47 255 220 39 255 230 20 253 239 12 252 243 14 255 238 13 255 243 14 255 243 14 255 243 14 255 243 14 255 243 14 255 243 14 255 243 14 255 243 14 255 248 24 255 251 20 255 255 13 255 255 8 253 255 8 253 253 14 255 248 21 255 243 27 255 249 25 255 255 6 246 255 13 245 255 17 240 255 20 243 255 43 249 234 51 240 255 44 244 248 48 255 251 40 255 254 39 255 248 39 254 243 39 250 247 48 255 243 61 255 227 66 255 255 81 255 255 81 255 255 81 255 255 81 255 255 81 255 255 81 255 255 81 255 255 81 255 252 84 255 253 79 252 255 80 249 248 83 245 255 112 255 248 116 254 252 116 252 253 111 247 255 114 254 255 114 254 255 114 254 255 114 254 255 114 254 255 114 254 255 114 254 255 114 254 253 146 252 253 146 252 253 146 252 253 146 252 253 146 252 253 146 252 253 146 252 253 146 252 
252 149 255 255 145 255 255 149 255 252 151 247 255 177 255 249 178 254 253 181 254 255 179 252 253 179 254 253 179 254 253 179 254 253 179 254 253 179 254 253 179 254 253 179 254 253 179 254 255 210 255 255 210 255 255 210 255 255 210 255 255 210 255 255 210 255 255 210 255 255 210 255 249 210 255 255 208 254 255 212 254 249 212 245 255 240 255 247 241 253 251 244 252 255 241 251 255 241 254 251 243 254 250 244 254 254 242 254 255 239 254 255 241 254 246 246 254 234 252 254 18 222 246 23 232 254 25 237 255 19 236 255 17 234 253 19 236 255 21 236 255 22 234 255 21 236 254 16 235 254 22 238 255 31 230 255 40 212 252 50 204 254 55 206 255 51 207 255 50 206 255 50 206 255 51 205 255 51 205 255 53 205 255 54 204 255 54 204 255 54 204 255 84 170 255 84 170 255 84 170 255 85 169 255 87 168 255 87 168 255 88 168 255 88 168 255 86 170 255 17 236 255 17 236 255 17 236 255 17 236 255 17 236 255 17 236 255 17 236 255 17 236 255 20 237 254 15 236 254 19 238 255 29 230 255 38 211 251 47 203 252 51 205 255 47 204 255 48 206 254 48 206 254 49 205 254 49 205 254 50 204 254 52 204 254 52 204 254 52 204 254 79 174 254 79 174 254 79 174 254 81 174 254 82 173 254 82 173 254 83 172 254 83 172 254 84 173 253 80 173 253 84 175 255 93 166 255 101 149 251 112 139 252 116 141 255 111 141 255 114 141 255 114 141 255 115 140 255 115 140 255 117 139 255 118 139 255 118 139 255 118 139 255 147 107 255 147 107 255 147 107 255 147 107 255 147 107 255 147 107 255 147 107 255 147 107 255 150 108 255 145 107 254 149 109 255 158 101 255 168 82 253 177 74 253 181 76 255 176 75 255 177 76 255 177 76 255 177 76 255 177 76 255 177 76 255 177 76 255 177 76 255 177 76 255 206 46 255 206 46 255 208 45 255 208 45 255 209 45 255 211 44 255 211 44 255 212 43 255 212 45 255 207 45 253 211 47 255 222 38 255 230 20 253 239 12 252 243 14 255 238 13 255 243 14 255 243 14 255 243 14 255 243 14 255 243 14 255 243 14 255 243 14 255 243 14 255 248 24 255 251 20 255 255 13 255 255 8 253 255 9 253 253 14 255 246 22 255 243 27 255 255 19 255 255 8 246 242 31 247 226 49 243 245 50 242 236 65 242 216 69 237 248 61 240 241 61 246 247 54 243 248 53 243 236 58 242 224 61 240 231 62 243 249 54 242 254 40 234 255 81 255 255 81 255 255 81 255 255 81 255 255 81 255 255 81 255 255 81 255 255 81 255 253 85 255 253 79 252 255 81 250 248 83 245 255 112 255 248 116 254 253 117 253 253 111 247 255 114 254 255 114 254 255 114 254 255 114 254 255 114 254 255 114 254 255 114 254 255 114 254 253 146 252 253 146 252 253 146 252 253 146 252 253 146 252 253 146 252 253 146 252 253 146 252 252 149 255 255 145 255 255 149 255 252 151 247 255 177 255 249 178 254 253 181 254 255 179 252 253 179 254 253 179 254 253 179 254 253 179 254 253 179 254 253 179 254 253 179 254 253 179 254 255 210 255 255 210 255 255 210 255 255 210 255 255 210 255 255 210 255 255 210 255 255 210 255 250 211 255 255 208 254 255 212 254 250 213 246 255 240 255 247 241 253 251 244 252 
255 241 251 255 241 254 251 243 254 250 244 254 254 242 254 255 239 254 255 241 254 246 246 254 234 252 254 18 222 246 25 231 254 25 237 255 20 235 255 17 234 253 19 236 255 23 235 255 23 234 255 21 236 254 16 235 254 22 238 255 32 230 255 40 212 252 49 203 253 55 206 255 50 206 255 50 206 255 50 206 255 51 205 255 51 205 255 53 205 255 54 204 255 54 204 255 56 203 255 84 170 255 84 170 255 84 170 255 85 169 255 87 168 255 87 168 255 88 168 255 88 168 255 86 170 255 17 236 255 17 236 255 17 236 255 17 236 255 17 236 255 17 236 255 17 236 255 17 236 255 21 236 254 15 236 254 21 237 255 30 229 255 38 211 251 48 202 252 53 204 255 47 204 255 48 206 254 49 205 254 49 205 254 50 204 254 50 204 254 52 204 254 53 203 254 53 203 254 79 174 254 79 174 254 81 174 254 81 174 254 82 173 254 83 172 254 83 172 254 85 171 254 84 173 253 80 173 253 84 175 255 95 166 255 103 148 251 112 139 252 116 141 255 111 141 255 114 141 255 114 141 255 115 140 255 115 140 255 117 139 255 118 139 255 118 139 255 118 139 255 147 107 255 147 107 255 147 107 255 147 107 255 147 107 255 147 107 255 147 107 255 147 107 255 150 108 255 145 107 254 149 109 255 158 101 255 168 82 253 177 74 253 181 76 255 176 75 255 179 75 255 179 75 255 179 75 255 179 75 255 179 75 255 179 75 255 179 75 255 179 75 255 208 45 255 208 45 255 208 45 255 209 45 255 211 44 255 211 44 255 212 43 255 212 43 255 213 45 255 208 44 253 213 46 255 222 38 255 230 20 253 240 11 252 245 13 255 240 12 255 243 14 255 243 14 255 243 14 255 243 14 255 243 14 255 243 14 255 243 14 255 243 14 255 248 24 255 251 20 255 255 14 255 255 11 254 255 11 254 253 16 255 246 22 255 244 26 255 238 21 248 231 28 242 187 88 255 144 136 255 142 146 254 133 156 252 121 156 246 151 149 250 134 158 246 146 149 246 156 145 247 145 151 249 130 153 247 152 140 248 208 99 244 253 52 228 255 81 255 255 81 255 255 81 255 255 81 255 255 81 255 255 81 255 255 81 255 255 81 255 253 85 255 253 79 252 255 81 250 248 83 245 255 112 255 248 116 254 253 117 253 253 111 247 255 114 254 255 114 254 255 114 254 255 114 254 255 114 254 255 114 254 255 114 254 255 114 254 253 146 252 253 146 252 253 146 252 253 146 252 253 146 252 253 146 252 253 146 252 253 146 252 252 149 255 255 145 255 255 149 255 252 151 247 255 177 255 249 178 254 253 181 254 255 179 252 253 179 254 253 179 254 253 179 254 253 179 254 253 179 254 253 179 254 253 179 254 253 179 254 255 210 255 255 210 255 255 210 255 255 210 255 255 210 255 255 210 255 255 210 255 255 210 255 250 211 255 255 208 254 255 212 254 250 213 246 255 240 255 247 241 253 252 245 253 255 241 251 255 242 255 252 244 255 251 245 255 255 243 255 255 240 255 255 242 255 247 247 255 235 253 255 20 222 246 25 231 254 26 237 255 20 235 255 17 234 253 20 235 255 23 235 255 23 234 255 22 235 253 18 235 254 22 237 255 32 230 255 40 212 252 51 203 253 55 205 255 51 205 255 51 205 255 51 205 255 51 205 255 53 205 255 54 204 255 54 204 255 
56 203 255 56 203 255 84 170 255 84 170 255 84 170 255 85 169 255 87 168 255 87 168 255 88 168 255 88 168 255 86 170 255 19 236 255 19 236 255 19 236 255 19 236 255 19 236 255 19 236 255 19 236 255 19 236 255 21 236 254 16 235 254 21 237 255 31 229 255 39 211 251 48 202 252 53 204 255 48 204 255 49 205 254 49 205 254 50 204 254 50 204 254 52 204 254 53 203 254 53 203 254 53 203 254 81 174 254 81 174 254 81 174 254 82 173 254 83 172 254 83 172 254 85 171 254 85 171 254 86 173 253 81 172 253 85 174 255 95 166 255 104 147 251 113 139 252 118 141 255 113 140 255 114 141 255 114 141 255 115 140 255 115 140 255 117 139 255 118 139 255 118 139 255 118 139 255 147 107 255 147 107 255 147 107 255 147 107 255 147 107 255 147 107 255 147 107 255 147 107 255 150 108 255 145 107 254 149 109 255 158 101 255 168 82 253 177 74 253 181 76 255 176 75 255 179 75 255 179 75 255 179 75 255 179 75 255 179 75 255 179 75 255 179 75 255 179 75 255 208 45 255 208 45 255 209 45 255 211 44 255 211 44 255 212 43 255 212 43 255 213 43 255 214 44 255 208 44 253 213 46 255 223 37 255 231 19 253 240 11 252 246 12 255 240 12 255 244 12 255 244 12 255 244 12 255 244 12 255 244 12 255 244 12 255 244 12 255 244 12 255 250 24 255 251 20 255 254 15 254 255 13 253 255 14 253 251 17 254 246 22 255 244 27 255 242 12 242 218 37 240 146 135 255 65 219 255 38 238 255 24 246 255 11 248 254 34 241 255 2 255 254 16 249 253 32 243 254 27 243 254 17 245 255 58 221 255 155 148 251 239 70 231 255 82 255 255 82 255 255 82 255 255 82 255 255 82 255 255 82 255 255 82 255 255 82 255 253 85 255 254 80 253 255 81 250 248 83 245 255 113 255 249 117 255 253 117 253 254 112 248 255 114 254 255 114 254 255 114 254 255 114 254 255 114 254 255 114 254 255 114 254 255 114 254 254 147 253 254 147 253 254 147 253 254 147 253 254 147 253 254 147 253 254 147 253 254 147 253 252 149 255 255 145 255 255 149 255 252 151 247 255 177 255 249 178 254 253 181 254 255 179 252 253 179 254 253 179 254 253 179 254 253 179 254 253 179 254 253 179 254 253 179 254 253 179 254 255 210 255 255 210 255 255 210 255 255 210 255 255 210 255 255 210 255 255 210 255 255 210 255 250 211 255 255 209 255 255 213 255 250 213 246 255 241 255 247 241 253 252 245 253 255 242 252 255 242 255 252 244 255 251 245 255 255 243 255 255 240 255 255 242 255 247 247 255 235 253 255 20 222 246 26 230 254 27 236 255 22 234 255 18 233 253 22 234 255 24 235 255 24 233 255 23 234 253 17 234 253 22 237 255 33 228 255 41 210 251 51 203 253 57 204 255 51 205 255 50 204 254 50 204 254 52 204 254 53 203 254 53 203 254 55 202 254 55 202 254 56 201 254 84 170 255 84 170 255 84 170 255 85 169 255 87 168 255 87 168 255 88 168 255 88 168 255 86 170 255 19 236 255 19 236 255 19 236 255 19 236 255 19 236 255 19 236 255 19 236 255 19 236 255 23 236 254 18 235 254 22 237 255 31 229 255 39 211 251 50 202 252 54 204 255 49 203 255 50 204 254 50 204 254 50 204 254 52 204 254 
53 203 254 53 203 254 55 202 254 55 202 254 81 174 254 82 173 254 82 173 254 83 172 254 83 172 254 85 171 254 86 171 254 86 171 254 87 172 253 81 172 253 87 173 255 96 165 255 104 147 251 115 138 252 119 140 255 113 140 255 114 141 255 114 141 255 115 140 255 115 140 255 117 139 255 118 139 255 118 139 255 118 139 255 147 107 255 147 107 255 147 107 255 147 107 255 147 107 255 147 107 255 147 107 255 147 107 255 150 108 255 145 107 254 149 109 255 158 101 255 168 82 253 177 74 253 181 76 255 176 75 255 180 75 255 180 75 255 180 75 255 180 75 255 180 75 255 180 75 255 180 75 255 180 75 255 209 45 255 209 45 255 211 44 255 211 44 255 212 43 255 213 43 255 213 43 255 213 43 255 214 44 255 210 43 253 214 45 255 223 37 255 232 18 253 242 10 252 246 12 255 241 12 255 245 11 255 245 11 255 245 11 255 245 11 255 245 11 255 245 11 255 245 11 255 245 11 255 249 23 255 251 21 254 252 18 253 254 16 252 253 16 252 250 20 253 246 23 254 243 26 255 255 0 242 237 23 233 145 140 255 41 241 255 2 255 254 0 255 247 0 255 248 1 255 254 0 255 251 0 255 248 0 255 249 0 253 249 0 251 253 19 238 255 137 151 250 242 54 227 255 82 255 255 82 255 255 82 255 255 82 255 255 82 255 255 82 255 255 82 255 255 82 255 254 86 255 254 80 253 255 82 251 249 84 246 255 113 255 249 117 255 254 118 254 254 112 248 255 114 254 255 114 254 255 114 254 255 114 254 255 114 254 255 114 254 255 114 254 255 114 254 254 147 253 254 147 253 254 147 253 254 147 253 254 147 253 254 147 253 254 147 253 254 147 253 252 149 255 255 145 255 255 149 255 252 151 247 255 177 255 249 178 254 253 181 254 255 179 252 253 179 254 253 179 254 253 179 254 253 179 254 253 179 254 253 179 254 253 179 254 253 179 254 255 210 255 255 210 255 255 210 255 255 210 255 255 210 255 255 210 255 255 210 255 255 210 255 251 212 255 255 209 255 255 213 255 251 214 247 255 241 255 248 242 254 253 246 254 255 242 252 255 243 255 253 245 255 252 246 255 255 244 255 255 241 255 255 243 255 248 248 255 236 254 255 21 221 246 26 230 254 27 236 255 22 234 255 20 232 253 22 234 255 25 234 255 24 233 255 22 233 252 18 233 253 23 235 255 33 228 255 42 209 251 51 201 252 57 204 255 52 203 255 52 204 254 52 204 254 53 203 254 53 203 254 55 202 254 56 201 254 56 201 254 56 201 254 84 170 255 84 170 255 84 170 255 85 169 255 87 168 255 87 168 255 88 168 255 88 168 255 86 170 255 20 235 255 20 235 255 20 235 255 20 235 255 20 235 255 20 235 255 20 235 255 20 235 255 24 235 254 18 235 254 22 237 255 33 228 255 41 210 251 50 202 252 56 203 255 49 203 255 50 204 254 50 204 254 52 204 254 53 203 254 53 203 254 55 202 254 55 202 254 56 201 254 82 173 254 82 173 254 83 172 254 83 172 254 85 171 254 86 171 254 86 171 254 86 171 254 87 172 253 82 171 253 87 173 255 98 164 255 105 146 251 115 138 252 119 140 255 114 139 255 114 141 255 114 141 255 115 140 255 115 140 255 117 139 255 118 139 255 118 139 255 118 139 255 147 107 255 147 107 255 147 107 255 
147 107 255 147 107 255 147 107 255 147 107 255 147 107 255 150 108 255 145 107 254 149 109 255 158 101 255 168 82 253 177 74 253 181 76 255 176 75 255 180 75 255 180 75 255 180 75 255 180 75 255 180 75 255 180 75 255 180 75 255 180 75 255 209 45 255 211 44 255 211 44 255 212 43 255 213 43 255 213 43 255 215 42 255 215 42 255 216 43 255 211 43 253 215 45 255 225 37 255 232 18 253 243 10 252 247 11 255 243 11 255 244 10 255 244 10 255 244 10 255 244 10 255 244 10 255 244 10 255 244 10 255 244 10 255 249 23 255 252 22 255 252 20 254 253 19 254 253 19 254 249 21 254 247 24 255 245 25 255 255 4 247 229 23 230 134 140 250 28 244 255 0 252 241 6 245 239 6 248 249 15 249 255 25 238 254 20 243 251 23 241 250 13 242 247 0 250 252 23 237 255 134 154 253 241 52 230 255 83 255 255 83 255 255 83 255 255 83 255 255 83 255 255 83 255 255 83 255 255 83 255 254 86 255 255 81 254 255 82 251 249 84 246 255 114 255 250 118 255 254 118 254 255 113 249 255 114 254 255 114 254 255 114 254 255 114 254 255 114 254 255 114 254 255 114 254 255 114 254 255 148 254 255 148 254 255 148 254 255 148 254 255 148 254 255 148 254 255 148 254 255 148 254 252 149 255 255 145 255 255 149 255 252 151 247 255 177 255 249 178 254 253 181 254 255 179 252 253 179 254 253 179 254 253 179 254 253 179 254 253 179 254 253 179 254 253 179 254 253 179 254 255 210 255 255 210 255 255 210 255 255 210 255 255 210 255 255 210 255 255 210 255 255 210 255 251 212 255 255 210 255 255 213 255 251 214 247 255 242 255 248 242 254 253 246 254 255 243 253 255 243 255 253 245 255 252 246 255 255 244 255 255 241 255 255 243 255 248 248 255 236 254 255 22 220 246 28 230 254 29 235 255 23 234 255 20 232 253 23 234 255 25 234 255 26 232 255 23 232 252 20 232 253 24 234 255 33 226 255 41 208 250 53 200 252 57 202 255 53 203 255 51 203 253 52 202 253 52 202 253 54 201 253 55 200 253 55 200 253 56 200 253 56 200 253 84 170 255 84 170 255 84 170 255 85 169 255 87 168 255 87 168 255 88 168 255 88 168 255 86 170 255 20 235 255 20 235 255 20 235 255 20 235 255 20 235 255 20 235 255 20 235 255 20 235 255 24 235 254 19 234 254 24 236 255 33 228 255 42 209 251 51 201 252 56 203 255 51 202 255 52 204 254 52 204 254 52 204 254 53 203 254 55 202 254 55 202 254 56 201 254 56 201 254 82 173 254 83 172 254 83 172 254 85 171 254 86 171 254 86 171 254 88 170 254 88 170 254 89 171 253 84 170 253 88 172 255 98 164 255 105 146 251 116 137 252 120 139 255 116 139 255 114 141 255 114 141 255 115 140 255 115 140 255 117 139 255 118 139 255 118 139 255 118 139 255 147 107 255 147 107 255 147 107 255 147 107 255 147 107 255 147 107 255 147 107 255 147 107 255 150 108 255 145 107 254 149 109 255 158 101 255 168 82 253 177 74 253 181 76 255 176 75 255 182 74 255 182 74 255 182 74 255 182 74 255 182 74 255 182 74 255 182 74 255 182 74 255 211 44 255 211 44 255 212 43 255 212 43 255 213 43 255 215 42 255 215 42 255 215 42 255 216 43 255 211 43 253 
215 45 255 226 36 255 234 18 253 243 10 252 247 11 255 243 11 255 245 9 255 245 9 255 245 9 255 245 9 255 245 9 255 245 9 255 245 9 255 245 9 255 250 23 253 252 22 253 252 22 253 252 20 252 251 21 252 250 23 253 247 24 253 245 26 253 249 23 255 210 32 232 119 148 250 15 254 255 0 255 244 10 249 246 10 255 255 7 255 255 28 239 255 17 251 255 18 253 255 18 247 250 4 254 253 31 243 255 131 164 255 233 63 230 255 83 255 255 83 255 255 83 255 255 83 255 255 83 255 255 83 255 255 83 255 255 83 255 255 87 255 255 81 254 255 83 252 250 85 247 255 114 255 250 118 255 255 119 255 255 113 249 255 114 254 255 114 254 255 114 254 255 114 254 255 114 254 255 114 254 255 114 254 255 114 254 255 148 254 255 148 254 255 148 254 255 148 254 255 148 254 255 148 254 255 148 254 255 148 254 252 149 255 255 145 255 255 149 255 252 151 247 255 177 255 249 178 254 253 181 254 255 179 252 253 179 254 253 179 254 253 179 254 253 179 254 253 179 254 253 179 254 253 179 254 253 179 254 255 210 255 255 210 255 255 210 255 255 210 255 255 210 255 255 210 255 255 210 255 255 210 255 252 213 255 255 210 255 255 214 255 252 215 248 255 242 255 249 243 255 253 246 254 255 243 253 255 243 255 253 245 255 252 246 255 255 244 255 255 241 255 255 243 255 248 248 255 236 254 255 22 220 246 29 229 254 29 235 255 23 234 255 21 232 253 23 234 255 27 233 255 27 231 255 23 232 252 19 231 252 24 234 255 35 225 255 42 208 250 52 199 251 57 202 255 52 202 255 52 202 253 52 202 253 54 201 253 54 201 253 55 200 253 56 200 253 56 200 253 56 200 253 84 170 255 84 170 255 84 170 255 85 169 255 87 168 255 87 168 255 88 168 255 88 168 255 86 170 255 22 234 255 22 234 255 22 234 255 22 234 255 22 234 255 22 234 255 22 234 255 22 234 255 24 235 254 19 234 254 24 236 255 34 227 255 42 209 251 51 201 252 56 203 255 51 202 255 52 204 254 52 204 254 53 203 254 53 203 254 55 202 254 56 201 254 56 201 254 56 201 254 83 172 254 83 172 254 83 172 254 85 171 254 86 171 254 86 171 254 88 170 254 88 170 254 89 171 253 84 170 253 88 172 255 98 164 255 107 146 251 116 137 252 120 139 255 116 139 255 114 141 255 114 141 255 115 140 255 115 140 255 117 139 255 118 139 255 118 139 255 118 139 255 147 107 255 147 107 255 147 107 255 147 107 255 147 107 255 147 107 255 147 107 255 147 107 255 150 108 255 145 107 254 149 109 255 158 101 255 168 82 253 177 74 253 181 76 255 176 75 255 182 74 255 182 74 255 182 74 255 182 74 255 182 74 255 182 74 255 182 74 255 182 74 255 211 44 255 211 44 255 212 43 255 213 43 255 213 43 255 215 42 255 215 42 255 216 41 255 217 43 255 211 43 253 215 45 255 226 36 255 234 18 253 243 10 252 249 11 255 243 11 255 245 9 255 245 9 255 245 9 255 245 9 255 245 9 255 245 9 255 245 9 255 245 9 255 250 23 253 250 23 253 252 22 253 252 22 253 250 23 253 249 23 253 247 24 253 245 26 253 255 20 255 218 26 231 128 145 251 24 255 255 1 255 247 12 250 250 3 255 255 1 254 255 0 249 255 
0 255 255 3 255 253 9 250 244 9 247 247 39 235 255 137 156 248 235 55 222 255 83 255 255 83 255 255 83 255 255 83 255 255 83 255 255 83 255 255 83 255 255 83 255 255 87 255 255 81 254 255 83 252 250 85 247 255 114 255 250 118 255 255 119 255 255 113 249 255 114 254 255 114 254 255 114 254 255 114 254 255 114 254 255 114 254 255 114 254 255 114 254 255 148 254 255 148 254 255 148 254 255 148 254 255 148 254 255 148 254 255 148 254 255 148 254 252 149 255 255 145 255 255 149 255 252 151 247 255 177 255 249 178 254 253 181 254 255 179 252 253 179 254 253 179 254 253 179 254 253 179 254 253 179 254 253 179 254 253 179 254 253 179 254 255 210 255 255 210 255 255 210 255 255 210 255 255 210 255 255 210 255 255 210 255 255 210 255 252 213 255 255 210 255 255 214 255 252 215 248 255 242 255 249 243 255 254 247 255 255 243 253 255 244 255 254 246 255 253 247 255 255 245 255 255 242 255 255 244 255 249 249 255 237 255 255 22 220 246 29 229 254 30 234 255 24 233 255 21 232 253 24 233 255 27 233 255 27 231 255 24 230 251 19 231 252 23 233 255 35 225 255 42 208 250 52 199 251 58 201 255 52 202 255 52 202 253 52 202 253 54 201 253 55 200 253 55 200 253 56 200 253 56 200 253 58 199 253 84 170 255 84 170 255 84 170 255 85 169 255 87 168 255 87 168 255 88 168 255 88 168 255 86 170 255 20 235 255 20 235 255 20 235 255 20 235 255 20 235 255 20 235 255 20 235 255 20 235 255 22 235 253 15 234 253 21 237 255 31 229 255 39 211 251 50 202 252 55 205 255 49 205 255 49 205 254 50 204 254 50 204 254 52 204 254 52 204 254 53 203 254 53 203 254 55 202 254 82 172 255 83 171 255 83 171 255 85 171 255 85 171 255 86 170 255 86 170 255 88 169 255 88 170 252 81 170 252 86 172 255 97 163 255 104 145 250 115 136 251 119 138 255 113 138 254 114 139 255 116 138 255 116 138 255 117 138 255 117 138 255 118 137 255 118 137 255 120 136 255 144 108 255 144 108 255 146 108 255 146 108 255 147 107 255 147 107 255 149 106 255 149 106 255 146 108 255 141 107 253 148 110 255 158 101 255 168 82 253 178 73 253 185 75 255 180 75 255 182 74 255 182 74 255 182 74 255 182 74 255 182 74 255 182 74 255 182 74 255 182 74 255 211 44 255 211 44 255 212 43 255 212 43 255 213 43 255 213 43 255 215 42 255 215 42 255 216 43 255 211 43 253 215 45 255 225 37 255 234 18 253 243 10 252 247 11 255 243 11 255 245 9 255 245 9 255 245 9 255 245 9 255 245 9 255 245 9 255 245 9 255 245 9 255 255 14 255 255 15 255 255 16 255 255 18 253 255 18 251 255 17 252 255 16 252 255 15 253 255 15 255 223 26 227 115 158 237 9 255 252 0 255 241 34 235 245 31 241 254 1 255 255 21 249 255 5 253 252 3 252 246 4 247 241 0 253 247 37 237 255 148 152 251 255 49 225 255 83 255 255 83 255 255 83 255 255 83 255 255 83 255 255 83 255 255 83 255 255 83 255 252 84 255 255 82 255 255 86 255 251 86 248 255 113 255 247 115 253 254 118 254 255 116 252 255 115 255 255 115 255 255 115 255 255 115 255 255 115 255 255 115 255 255 115 255 255 115 255 
255 148 254 255 148 254 255 148 254 255 148 254 255 148 254 255 148 254 255 148 254 255 148 254 251 149 255 255 146 255 255 150 255 251 151 247 255 177 255 247 179 254 252 182 254 255 180 252 254 180 255 254 180 255 254 180 255 254 180 255 254 180 255 254 180 255 254 180 255 254 180 255 255 212 255 255 212 255 255 212 255 255 212 255 255 212 255 255 212 255 255 212 255 255 212 255 253 214 255 255 209 255 255 211 253 250 213 246 255 244 255 252 246 255 255 248 255 255 242 252 255 242 255 252 244 255 251 245 255 255 243 255 255 240 255 255 242 255 247 247 255 235 253 255 19 219 242 27 232 253 25 234 254 19 231 252 19 234 255 21 233 255 21 231 255 24 232 255 23 232 252 19 231 252 24 234 255 33 226 255 42 208 250 52 199 251 57 202 255 52 202 255 52 201 255 52 201 255 54 200 255 54 200 255 55 200 255 55 200 255 56 199 255 56 199 255 85 169 255 85 169 255 85 169 255 85 169 255 85 169 255 85 169 255 85 169 255 85 169 255 88 168 255 20 235 255 20 235 255 20 235 255 20 235 255 20 235 255 20 235 255 20 235 255 20 235 255 22 235 253 15 234 253 21 237 255 31 229 255 39 211 251 50 202 252 55 205 255 49 205 255 49 205 254 50 204 254 50 204 254 52 204 254 52 204 254 53 203 254 53 203 254 55 202 254 82 172 255 83 171 255 83 171 255 85 171 255 85 171 255 86 170 255 86 170 255 88 169 255 88 170 252 81 170 252 86 172 255 97 163 255 104 145 250 115 136 251 119 138 255 113 138 254 114 139 255 116 138 255 116 138 255 117 138 255 117 138 255 118 137 255 118 137 255 120 136 255 144 108 255 144 108 255 146 108 255 146 108 255 147 107 255 147 107 255 149 106 255 149 106 255 146 108 255 141 107 253 148 110 255 158 101 255 168 82 253 178 73 253 185 75 255 180 75 255 182 74 255 182 74 255 182 74 255 182 74 255 182 74 255 182 74 255 182 74 255 182 74 255 211 44 255 211 44 255 212 43 255 212 43 255 213 43 255 213 43 255 215 42 255 215 42 255 216 43 255 211 43 253 215 45 255 225 37 255 234 18 253 243 10 252 247 11 255 243 11 255 245 9 255 245 9 255 245 9 255 245 9 255 245 9 255 245 9 255 245 9 255 245 9 255 252 17 255 252 17 255 252 18 253 251 18 249 251 18 247 252 19 250 252 19 251 252 18 253 255 12 255 235 18 233 146 137 244 26 255 255 1 255 247 17 246 252 10 251 255 0 255 255 4 255 255 0 255 255 11 251 252 12 248 248 0 255 252 17 247 255 119 165 253 223 62 226 255 83 255 255 83 255 255 83 255 255 83 255 255 83 255 255 83 255 255 83 255 255 83 255 252 84 255 255 82 255 255 86 255 251 86 248 255 113 255 247 115 253 254 118 254 255 116 252 255 115 255 255 115 255 255 115 255 255 115 255 255 115 255 255 115 255 255 115 255 255 115 255 255 148 254 255 148 254 255 148 254 255 148 254 255 148 254 255 148 254 255 148 254 255 148 254 251 149 255 255 146 255 255 150 255 251 151 247 255 177 255 247 179 254 252 182 254 255 180 252 254 180 255 254 180 255 254 180 255 254 180 255 254 180 255 254 180 255 254 180 255 254 180 255 255 212 255 255 212 255 255 212 255 255 212 255 255 212 255 255 212 255 255 212 255 
255 212 255 253 214 255 255 209 255 255 211 253 250 213 246 255 244 255 252 246 255 255 248 255 255 242 252 255 242 255 252 244 255 251 245 255 255 243 255 255 240 255 255 242 255 247 247 255 235 253 255 19 219 242 27 232 253 25 234 254 19 231 252 19 234 255 21 233 255 21 231 255 24 232 255 23 232 252 19 231 252 24 234 255 33 226 255 42 208 250 52 199 251 57 202 255 52 202 255 52 201 255 52 201 255 54 200 255 54 200 255 55 200 255 55 200 255 56 199 255 56 199 255 85 169 255 85 169 255 85 169 255 85 169 255 85 169 255 85 169 255 85 169 255 85 169 255 88 168 255 20 235 255 20 235 255 20 235 255 20 235 255 20 235 255 20 235 255 20 235 255 20 235 255 22 235 253 15 234 253 21 237 255 31 229 255 39 211 251 50 202 252 55 205 255 49 205 255 49 205 254 50 204 254 50 204 254 52 204 254 52 204 254 53 203 254 53 203 254 55 202 254 82 172 255 83 171 255 83 171 255 85 171 255 85 171 255 86 170 255 86 170 255 88 169 255 88 170 252 81 170 252 86 172 255 97 163 255 104 145 250 115 136 251 119 138 255 113 138 254 114 139 255 116 138 255 116 138 255 117 138 255 117 138 255 118 137 255 118 137 255 120 136 255 144 108 255 144 108 255 146 108 255 146 108 255 147 107 255 147 107 255 149 106 255 149 106 255 146 108 255 141 107 253 148 110 255 158 101 255 168 82 253 178 73 253 185 75 255 180 75 255 182 74 255 182 74 255 182 74 255 182 74 255 182 74 255 182 74 255 182 74 255 182 74 255 211 44 255 211 44 255 212 43 255 212 43 255 213 43 255 213 43 255 215 42 255 215 42 255 216 43 255 211 43 253 215 45 255 225 37 255 234 18 253 243 10 252 247 11 255 243 11 255 245 9 255 245 9 255 245 9 255 245 9 255 245 9 255 245 9 255 245 9 255 245 9 255 246 22 255 245 21 255 244 21 252 242 21 248 242 21 246 244 21 249 245 22 251 246 23 254 249 13 255 246 15 243 173 124 252 50 238 255 2 255 254 10 251 255 8 252 255 5 254 255 7 255 255 12 251 255 31 241 254 33 239 252 5 254 255 18 247 255 120 165 255 228 62 230 255 83 255 255 83 255 255 83 255 255 83 255 255 83 255 255 83 255 255 83 255 255 83 255 252 84 255 255 82 255 255 86 255 251 86 248 255 113 255 247 115 253 254 118 254 255 116 252 255 115 255 255 115 255 255 115 255 255 115 255 255 115 255 255 115 255 255 115 255 255 115 255 255 148 254 255 148 254 255 148 254 255 148 254 255 148 254 255 148 254 255 148 254 255 148 254 251 149 255 255 146 255 255 150 255 251 151 247 255 177 255 247 179 254 252 182 254 255 180 252 254 180 255 254 180 255 254 180 255 254 180 255 254 180 255 254 180 255 254 180 255 254 180 255 255 212 255 255 212 255 255 212 255 255 212 255 255 212 255 255 212 255 255 212 255 255 212 255 253 214 255 255 209 255 255 211 253 250 213 246 255 244 255 252 246 255 255 248 255 255 242 252 255 242 255 252 244 255 251 245 255 255 243 255 255 240 255 255 242 255 247 247 255 235 253 255 19 219 242 27 232 253 25 234 254 19 231 252 19 234 255 21 233 255 21 231 255 24 232 255 23 232 252 19 231 252 24 234 255 33 226 255 42 208 250 52 199 251 
57 202 255 52 202 255 52 201 255 52 201 255 54 200 255 54 200 255 55 200 255 55 200 255 56 199 255 56 199 255 85 169 255 85 169 255 85 169 255 85 169 255 85 169 255 85 169 255 85 169 255 85 169 255 88 168 255 20 235 255 20 235 255 20 235 255 20 235 255 20 235 255 20 235 255 20 235 255 20 235 255 22 235 253 15 234 253 21 237 255 31 229 255 39 211 251 50 202 252 55 205 255 49 205 255 49 205 254 50 204 254 50 204 254 52 204 254 52 204 254 53 203 254 53 203 254 55 202 254 82 172 255 83 171 255 83 171 255 85 171 255 85 171 255 86 170 255 86 170 255 88 169 255 88 170 252 81 170 252 86 172 255 97 163 255 104 145 250 115 136 251 119 138 255 113 138 254 114 139 255 116 138 255 116 138 255 117 138 255 117 138 255 118 137 255 118 137 255 120 136 255 144 108 255 144 108 255 146 108 255 146 108 255 147 107 255 147 107 255 149 106 255 149 106 255 146 108 255 141 107 253 148 110 255 158 101 255 168 82 253 178 73 253 185 75 255 180 75 255 182 74 255 182 74 255 182 74 255 182 74 255 182 74 255 182 74 255 182 74 255 182 74 255 211 44 255 211 44 255 212 43 255 212 43 255 213 43 255 213 43 255 215 42 255 215 42 255 216 43 255 211 43 253 215 45 255 225 37 255 234 18 253 243 10 252 247 11 255 243 11 255 245 9 255 245 9 255 245 9 255 245 9 255 245 9 255 245 9 255 245 9 255 245 9 255 249 22 255 247 23 255 245 23 254 244 25 251 244 25 249 245 24 251 247 24 253 249 23 255 251 7 255 239 21 242 155 132 249 37 238 255 0 255 252 6 249 253 9 248 253 19 248 254 15 252 255 17 246 252 30 237 247 30 237 245 7 253 252 30 241 255 143 153 250 255 46 226 255 83 255 255 83 255 255 83 255 255 83 255 255 83 255 255 83 255 255 83 255 255 83 255 252 84 255 255 82 255 255 86 255 251 86 248 255 113 255 247 115 253 254 118 254 255 116 252 255 115 255 255 115 255 255 115 255 255 115 255 255 115 255 255 115 255 255 115 255 255 115 255 255 148 254 255 148 254 255 148 254 255 148 254 255 148 254 255 148 254 255 148 254 255 148 254 251 149 255 255 146 255 255 150 255 251 151 247 255 177 255 247 179 254 252 182 254 255 180 252 254 180 255 254 180 255 254 180 255 254 180 255 254 180 255 254 180 255 254 180 255 254 180 255 255 212 255 255 212 255 255 212 255 255 212 255 255 212 255 255 212 255 255 212 255 255 212 255 253 214 255 255 209 255 255 211 253 250 213 246 255 244 255 252 246 255 255 248 255 255 242 252 255 242 255 252 244 255 251 245 255 255 243 255 255 240 255 255 242 255 247 247 255 235 253 255 19 219 242 27 232 253 25 234 254 19 231 252 19 234 255 21 233 255 21 231 255 24 232 255 23 232 252 19 231 252 24 234 255 33 226 255 42 208 250 52 199 251 57 202 255 52 202 255 52 201 255 52 201 255 54 200 255 54 200 255 55 200 255 55 200 255 56 199 255 56 199 255 85 169 255 85 169 255 85 169 255 85 169 255 85 169 255 85 169 255 85 169 255 85 169 255 88 168 255 20 235 255 20 235 255 20 235 255 20 235 255 20 235 255 20 235 255 20 235 255 20 235 255 22 235 253 15 234 253 21 237 255 31 229 255 
39 211 251 50 202 252 55 205 255 49 205 255 49 205 254 50 204 254 50 204 254 52 204 254 52 204 254 53 203 254 53 203 254 55 202 254 82 172 255 83 171 255 83 171 255 85 171 255 85 171 255 86 170 255 86 170 255 88 169 255 88 170 252 81 170 252 86 172 255 97 163 255 104 145 250 115 136 251 119 138 255 113 138 254 114 139 255 116 138 255 116 138 255 117 138 255 117 138 255 118 137 255 118 137 255 120 136 255 144 108 255 144 108 255 146 108 255 146 108 255 147 107 255 147 107 255 149 106 255 149 106 255 146 108 255 141 107 253 148 110 255 158 101 255 168 82 253 178 73 253 185 75 255 180 75 255 182 74 255 182 74 255 182 74 255 182 74 255 182 74 255 182 74 255 182 74 255 182 74 255 211 44 255 211 44 255 212 43 255 212 43 255 213 43 255 213 43 255 215 42 255 215 42 255 216 43 255 211 43 253 215 45 255 225 37 255 234 18 253 243 10 252 247 11 255 243 11 255 245 9 255 245 9 255 245 9 255 245 9 255 245 9 255 245 9 255 245 9 255 245 9 255 255 17 255 252 19 255 250 22 255 247 24 252 247 25 250 250 23 252 252 20 252 255 18 254 255 0 252 223 30 235 123 149 246 10 249 254 0 255 252 0 255 252 0 252 249 4 255 250 7 255 254 0 254 247 0 254 243 1 255 244 2 255 250 22 244 255 136 151 242 251 43 217 255 83 255 255 83 255 255 83 255 255 83 255 255 83 255 255 83 255 255 83 255 255 83 255 252 84 255 255 82 255 255 86 255 251 86 248 255 113 255 247 115 253 254 118 254 255 116 252 255 115 255 255 115 255 255 115 255 255 115 255 255 115 255 255 115 255 255 115 255 255 115 255 255 148 254 255 148 254 255 148 254 255 148 254 255 148 254 255 148 254 255 148 254 255 148 254 251 149 255 255 146 255 255 150 255 251 151 247 255 177 255 247 179 254 252 182 254 255 180 252 254 180 255 254 180 255 254 180 255 254 180 255 254 180 255 254 180 255 254 180 255 254 180 255 255 212 255 255 212 255 255 212 255 255 212 255 255 212 255 255 212 255 255 212 255 255 212 255 253 214 255 255 209 255 255 211 253 250 213 246 255 244 255 252 246 255 255 248 255 255 242 252 255 242 255 252 244 255 251 245 255 255 243 255 255 240 255 255 242 255 247 247 255 235 253 255 19 219 242 27 232 253 25 234 254 19 231 252 19 234 255 21 233 255 21 231 255 24 232 255 23 232 252 19 231 252 24 234 255 33 226 255 42 208 250 52 199 251 57 202 255 52 202 255 52 201 255 52 201 255 54 200 255 54 200 255 55 200 255 55 200 255 56 199 255 56 199 255 85 169 255 85 169 255 85 169 255 85 169 255 85 169 255 85 169 255 85 169 255 85 169 255 88 168 255 20 235 255 20 235 255 20 235 255 20 235 255 20 235 255 20 235 255 20 235 255 20 235 255 22 235 253 15 234 253 21 237 255 31 229 255 39 211 251 50 202 252 55 205 255 49 205 255 49 205 254 50 204 254 50 204 254 52 204 254 52 204 254 53 203 254 53 203 254 55 202 254 82 172 255 83 171 255 83 171 255 85 171 255 85 171 255 86 170 255 86 170 255 88 169 255 88 170 252 81 170 252 86 172 255 97 163 255 104 145 250 115 136 251 119 138 255 113 138 254 114 139 255 116 138 255 116 138 255 
117 138 255 117 138 255 118 137 255 118 137 255 120 136 255 144 108 255 144 108 255 146 108 255 146 108 255 147 107 255 147 107 255 149 106 255 149 106 255 146 108 255 141 107 253 148 110 255 158 101 255 168 82 253 178 73 253 185 75 255 180 75 255 182 74 255 182 74 255 182 74 255 182 74 255 182 74 255 182 74 255 182 74 255 182 74 255 211 44 255 211 44 255 212 43 255 212 43 255 213 43 255 213 43 255 215 42 255 215 42 255 216 43 255 211 43 253 215 45 255 225 37 255 234 18 253 243 10 252 247 11 255 243 11 255 245 9 255 245 9 255 245 9 255 245 9 255 245 9 255 245 9 255 245 9 255 245 9 255 255 12 255 254 15 255 250 20 253 248 23 251 248 23 249 250 20 250 254 16 250 255 13 251 255 2 252 229 38 240 136 145 250 43 228 255 31 244 255 35 241 255 16 239 254 23 239 252 35 237 255 13 246 251 11 251 250 21 249 252 18 251 255 42 231 255 130 155 248 221 65 227 255 83 255 255 83 255 255 83 255 255 83 255 255 83 255 255 83 255 255 83 255 255 83 255 252 84 255 255 82 255 255 86 255 251 86 248 255 113 255 247 115 253 254 118 254 255 116 252 255 115 255 255 115 255 255 115 255 255 115 255 255 115 255 255 115 255 255 115 255 255 115 255 255 148 254 255 148 254 255 148 254 255 148 254 255 148 254 255 148 254 255 148 254 255 148 254 251 149 255 255 146 255 255 150 255 251 151 247 255 177 255 247 179 254 252 182 254 255 180 252 254 180 255 254 180 255 254 180 255 254 180 255 254 180 255 254 180 255 254 180 255 254 180 255 255 212 255 255 212 255 255 212 255 255 212 255 255 212 255 255 212 255 255 212 255 255 212 255 253 214 255 255 209 255 255 211 253 250 213 246 255 244 255 252 246 255 255 248 255 255 242 252 255 242 255 252 244 255 251 245 255 255 243 255 255 240 255 255 242 255 247 247 255 235 253 255 19 219 242 27 232 253 25 234 254 19 231 252 19 234 255 21 233 255 21 231 255 24 232 255 23 232 252 19 231 252 24 234 255 33 226 255 42 208 250 52 199 251 57 202 255 52 202 255 52 201 255 52 201 255 54 200 255 54 200 255 55 200 255 55 200 255 56 199 255 56 199 255 85 169 255 85 169 255 85 169 255 85 169 255 85 169 255 85 169 255 85 169 255 85 169 255 88 168 255 20 235 255 20 235 255 20 235 255 20 235 255 20 235 255 20 235 255 20 235 255 20 235 255 22 235 253 15 234 253 21 237 255 31 229 255 39 211 251 50 202 252 55 205 255 49 205 255 49 205 254 50 204 254 50 204 254 52 204 254 52 204 254 53 203 254 53 203 254 55 202 254 82 172 255 83 171 255 83 171 255 85 171 255 85 171 255 86 170 255 86 170 255 88 169 255 88 170 252 81 170 252 86 172 255 97 163 255 104 145 250 115 136 251 119 138 255 113 138 254 114 139 255 116 138 255 116 138 255 117 138 255 117 138 255 118 137 255 118 137 255 120 136 255 144 108 255 144 108 255 146 108 255 146 108 255 147 107 255 147 107 255 149 106 255 149 106 255 146 108 255 141 107 253 148 110 255 158 101 255 168 82 253 178 73 253 185 75 255 180 75 255 182 74 255 182 74 255 182 74 255 182 74 255 182 74 255 182 74 255 182 74 255 182 74 255 211 44 255 211 44 255 
212 43 255 212 43 255 213 43 255 213 43 255 215 42 255 215 42 255 216 43 255 211 43 253 215 45 255 225 37 255 234 18 253 243 10 252 247 11 255 243 11 255 245 9 255 245 9 255 245 9 255 245 9 255 245 9 255 245 9 255 245 9 255 245 9 255 255 14 255 252 17 255 247 21 253 244 23 250 244 23 248 247 22 250 252 19 251 255 15 252 244 22 255 246 28 246 199 88 242 142 141 243 143 155 255 142 161 255 120 156 252 135 151 249 144 152 253 118 164 249 120 167 247 140 157 247 135 156 249 133 157 255 175 121 255 231 66 246 255 83 255 255 83 255 255 83 255 255 83 255 255 83 255 255 83 255 255 83 255 255 83 255 252 84 255 255 82 255 255 86 255 251 86 248 255 113 255 247 115 253 254 118 254 255 116 252 255 115 255 255 115 255 255 115 255 255 115 255 255 115 255 255 115 255 255 115 255 255 115 255 255 148 254 255 148 254 255 148 254 255 148 254 255 148 254 255 148 254 255 148 254 255 148 254 251 149 255 255 146 255 255 150 255 251 151 247 255 177 255 247 179 254 252 182 254 255 180 252 254 180 255 254 180 255 254 180 255 254 180 255 254 180 255 254 180 255 254 180 255 254 180 255 255 212 255 255 212 255 255 212 255 255 212 255 255 212 255 255 212 255 255 212 255 255 212 255 253 214 255 255 209 255 255 211 253 250 213 246 255 244 255 252 246 255 255 248 255 255 242 252 255 242 255 252 244 255 251 245 255 255 243 255 255 240 255 255 242 255 247 247 255 235 253 255 19 219 242 27 232 253 25 234 254 19 231 252 19 234 255 21 233 255 21 231 255 24 232 255 23 232 252 19 231 252 24 234 255 33 226 255 42 208 250 52 199 251 57 202 255 52 202 255 52 201 255 52 201 255 54 200 255 54 200 255 55 200 255 55 200 255 56 199 255 56 199 255 85 169 255 85 169 255 85 169 255 85 169 255 85 169 255 85 169 255 85 169 255 85 169 255 88 168 255 20 235 255 20 235 255 20 235 255 20 235 255 20 235 255 20 235 255 20 235 255 20 235 255 22 235 253 15 234 253 21 237 255 31 229 255 39 211 251 50 202 252 55 205 255 49 205 255 49 205 254 50 204 254 50 204 254 52 204 254 52 204 254 53 203 254 53 203 254 55 202 254 82 172 255 83 171 255 83 171 255 85 171 255 85 171 255 86 170 255 86 170 255 88 169 255 88 170 252 81 170 252 86 172 255 97 163 255 104 145 250 115 136 251 119 138 255 113 138 254 114 139 255 116 138 255 116 138 255 117 138 255 117 138 255 118 137 255 118 137 255 120 136 255 144 108 255 144 108 255 146 108 255 146 108 255 147 107 255 147 107 255 149 106 255 149 106 255 146 108 255 141 107 253 148 110 255 158 101 255 168 82 253 178 73 253 185 75 255 180 75 255 182 74 255 182 74 255 182 74 255 182 74 255 182 74 255 182 74 255 182 74 255 182 74 255 211 44 255 211 44 255 212 43 255 212 43 255 213 43 255 213 43 255 215 42 255 215 42 255 216 43 255 211 43 253 215 45 255 225 37 255 234 18 253 243 10 252 247 11 255 243 11 255 245 9 255 245 9 255 245 9 255 245 9 255 245 9 255 245 9 255 245 9 255 245 9 255 255 19 255 252 21 255 244 24 254 238 26 250 238 26 248 244 25 251 252 22 253 255 20 255 216 35 255 
252 8 243 253 20 225 230 41 219 244 52 233 242 62 247 228 56 236 255 43 235 255 51 238 230 62 233 236 60 229 255 42 226 253 40 226 229 64 242 238 67 255 255 44 255 255 83 255 255 83 255 255 83 255 255 83 255 255 83 255 255 83 255 255 83 255 255 83 255 252 84 255 255 82 255 255 86 255 251 86 248 255 113 255 247 115 253 254 118 254 255 116 252 255 115 255 255 115 255 255 115 255 255 115 255 255 115 255 255 115 255 255 115 255 255 115 255 255 148 254 255 148 254 255 148 254 255 148 254 255 148 254 255 148 254 255 148 254 255 148 254 251 149 255 255 146 255 255 150 255 251 151 247 255 177 255 247 179 254 252 182 254 255 180 252 254 180 255 254 180 255 254 180 255 254 180 255 254 180 255 254 180 255 254 180 255 254 180 255 255 212 255 255 212 255 255 212 255 255 212 255 255 212 255 255 212 255 255 212 255 255 212 255 253 214 255 255 209 255 255 211 253 250 213 246 255 244 255 252 246 255 255 248 255 255 242 252 255 242 255 252 244 255 251 245 255 255 243 255 255 240 255 255 242 255 247 247 255 235 253 255 19 219 242 27 232 253 25 234 254 19 231 252 19 234 255 21 233 255 21 231 255 24 232 255 23 232 252 19 231 252 24 234 255 33 226 255 42 208 250 52 199 251 57 202 255 52 202 255 52 201 255 52 201 255 54 200 255 54 200 255 55 200 255 55 200 255 56 199 255 56 199 255 85 169 255 85 169 255 85 169 255 85 169 255 85 169 255 85 169 255 85 169 255 85 169 255 88 168 255 22 232 255 22 232 255 22 232 255 22 232 255 22 232 255 22 232 255 22 232 255 22 232 255 23 232 252 19 231 252 24 234 255 33 226 255 42 208 250 52 199 251 57 202 255 52 202 255 52 201 255 52 201 255 54 200 255 54 200 255 55 200 255 55 200 255 56 199 255 56 199 255 85 169 255 85 169 255 85 169 255 85 169 255 85 169 255 85 169 255 85 169 255 85 169 255 88 168 255 83 167 253 89 170 255 98 162 255 106 144 253 116 135 253 122 138 255 117 138 255 118 137 255 118 137 255 118 137 255 118 137 255 118 137 255 118 137 255 118 137 255 118 137 255 150 105 255 150 105 255 150 105 255 150 105 255 150 105 255 150 105 255 150 105 255 150 105 255 149 105 254 145 105 253 151 106 255 162 98 255 169 79 252 179 70 251 186 72 255 181 71 254 183 72 255 183 72 255 183 72 255 183 72 255 183 72 255 183 72 255 183 72 255 183 72 255 214 41 255 214 41 255 214 41 255 214 41 255 214 41 255 214 41 255 214 41 255 214 41 255 213 40 252 209 41 251 213 43 255 225 35 255 234 16 252 245 7 251 252 9 255 247 9 255 247 9 255 247 9 255 247 9 255 247 9 255 247 9 255 247 9 255 247 9 255 247 9 255 255 21 255 255 21 255 255 21 255 255 21 255 255 21 255 255 21 255 255 21 255 255 21 255 255 24 255 255 18 254 255 20 253 251 22 247 255 51 255 251 54 255 254 56 255 255 49 251 255 54 254 255 54 254 255 54 254 255 54 254 255 54 254 255 54 254 255 54 254 255 54 254 255 86 255 255 86 255 255 86 255 255 86 255 255 86 255 255 86 255 255 86 255 255 86 255 252 89 255 255 83 253 255 84 251 249 88 244 255 117 255 251 121 255 254 123 255 255 116 249 
255 118 255 255 118 255 255 118 255 255 118 255 255 118 255 255 118 255 255 118 255 255 118 255 255 150 255 255 150 255 255 150 255 255 150 255 255 150 255 255 150 255 255 150 255 255 150 255 252 150 255 255 147 255 255 151 255 252 152 248 255 178 255 248 180 255 253 183 255 255 181 253 255 181 255 255 181 255 255 181 255 255 181 255 255 181 255 255 181 255 255 181 255 255 181 255 255 212 255 255 212 255 255 212 255 255 212 255 255 212 255 255 212 255 255 212 255 255 212 255 251 214 255 254 211 255 255 214 255 250 217 248 255 242 255 246 244 255 253 248 255 255 245 253 255 243 255 255 246 255 251 248 255 254 246 255 255 244 255 255 244 255 250 249 255 240 254 255 28 216 243 27 227 250 24 237 255 21 233 254 24 228 253 30 228 255 29 230 255 22 232 255 28 229 255 21 230 253 27 232 255 37 224 255 45 205 253 56 197 253 61 200 255 55 200 255 56 199 255 56 199 255 56 199 255 56 199 255 56 199 255 56 199 255 56 199 255 56 199 255 84 168 255 84 168 255 86 167 255 86 167 255 87 167 255 87 167 255 89 166 255 89 166 255 87 167 255 22 232 255 22 232 255 22 232 255 22 232 255 22 232 255 22 232 255 22 232 255 22 232 255 23 232 252 19 231 252 24 234 255 33 226 255 42 208 250 52 199 251 57 202 255 52 202 255 52 201 255 52 201 255 54 200 255 54 200 255 55 200 255 55 200 255 56 199 255 56 199 255 85 169 255 85 169 255 85 169 255 85 169 255 85 169 255 85 169 255 85 169 255 85 169 255 88 168 255 83 167 253 89 170 255 98 162 255 106 144 253 116 135 253 122 138 255 117 138 255 118 137 255 118 137 255 118 137 255 118 137 255 118 137 255 118 137 255 118 137 255 118 137 255 150 105 255 150 105 255 150 105 255 150 105 255 150 105 255 150 105 255 150 105 255 150 105 255 149 105 254 145 105 253 151 106 255 162 98 255 169 79 252 179 70 251 186 72 255 181 71 254 183 72 255 183 72 255 183 72 255 183 72 255 183 72 255 183 72 255 183 72 255 183 72 255 214 41 255 214 41 255 214 41 255 214 41 255 214 41 255 214 41 255 214 41 255 214 41 255 213 40 252 209 41 251 213 43 255 225 35 255 234 16 252 245 7 251 252 9 255 247 9 255 247 9 255 247 9 255 247 9 255 247 9 255 247 9 255 247 9 255 247 9 255 247 9 255 255 21 255 255 21 255 255 21 255 255 21 255 255 21 255 255 21 255 255 21 255 255 21 255 255 24 255 255 18 254 255 20 253 251 22 247 255 51 255 251 54 255 254 56 255 255 49 251 255 54 254 255 54 254 255 54 254 255 54 254 255 54 254 255 54 254 255 54 254 255 54 254 255 86 255 255 86 255 255 86 255 255 86 255 255 86 255 255 86 255 255 86 255 255 86 255 252 89 255 255 83 253 255 84 251 249 88 244 255 117 255 251 121 255 254 123 255 255 116 249 255 118 255 255 118 255 255 118 255 255 118 255 255 118 255 255 118 255 255 118 255 255 118 255 255 150 255 255 150 255 255 150 255 255 150 255 255 150 255 255 150 255 255 150 255 255 150 255 252 150 255 255 147 255 255 151 255 252 152 248 255 178 255 248 180 255 253 183 255 255 181 253 255 181 255 255 181 255 255 181 255 255 181 255 255 181 255 255 181 255 255 181 255 
255 181 255 255 212 255 255 212 255 255 212 255 255 212 255 255 212 255 255 212 255 255 212 255 255 212 255 251 214 255 254 211 255 255 214 255 250 217 248 255 242 255 246 244 255 253 248 255 255 245 253 255 243 255 255 246 255 251 248 255 254 246 255 255 244 255 255 244 255 250 249 255 240 254 255 28 216 243 27 227 250 24 237 255 21 233 254 24 228 253 30 228 255 29 230 255 22 232 255 28 229 255 21 230 253 27 232 255 37 224 255 45 205 253 56 197 253 61 200 255 55 200 255 56 199 255 56 199 255 56 199 255 56 199 255 56 199 255 56 199 255 56 199 255 56 199 255 84 168 255 84 168 255 86 167 255 86 167 255 87 167 255 87 167 255 89 166 255 89 166 255 87 167 255 22 232 255 22 232 255 22 232 255 22 232 255 22 232 255 22 232 255 22 232 255 22 232 255 23 232 252 19 231 252 24 234 255 33 226 255 42 208 250 52 199 251 57 202 255 52 202 255 52 201 255 52 201 255 54 200 255 54 200 255 55 200 255 55 200 255 56 199 255 56 199 255 85 169 255 85 169 255 85 169 255 85 169 255 85 169 255 85 169 255 85 169 255 85 169 255 88 168 255 83 167 253 89 170 255 98 162 255 106 144 253 116 135 253 122 138 255 117 138 255 118 137 255 118 137 255 118 137 255 118 137 255 118 137 255 118 137 255 118 137 255 118 137 255 150 105 255 150 105 255 150 105 255 150 105 255 150 105 255 150 105 255 150 105 255 150 105 255 149 105 254 145 105 253 151 106 255 162 98 255 169 79 252 179 70 251 186 72 255 181 71 254 183 72 255 183 72 255 183 72 255 183 72 255 183 72 255 183 72 255 183 72 255 183 72 255 214 41 255 214 41 255 214 41 255 214 41 255 214 41 255 214 41 255 214 41 255 214 41 255 213 40 252 209 41 251 213 43 255 225 35 255 234 16 252 245 7 251 252 9 255 247 9 255 247 9 255 247 9 255 247 9 255 247 9 255 247 9 255 247 9 255 247 9 255 247 9 255 255 21 255 255 21 255 255 21 255 255 21 255 255 21 255 255 21 255 255 21 255 255 21 255 255 24 255 255 18 254 255 20 253 251 22 247 255 51 255 251 54 255 254 56 255 255 49 251 255 54 254 255 54 254 255 54 254 255 54 254 255 54 254 255 54 254 255 54 254 255 54 254 255 86 255 255 86 255 255 86 255 255 86 255 255 86 255 255 86 255 255 86 255 255 86 255 252 89 255 255 83 253 255 84 251 249 88 244 255 117 255 251 121 255 254 123 255 255 116 249 255 118 255 255 118 255 255 118 255 255 118 255 255 118 255 255 118 255 255 118 255 255 118 255 255 150 255 255 150 255 255 150 255 255 150 255 255 150 255 255 150 255 255 150 255 255 150 255 252 150 255 255 147 255 255 151 255 252 152 248 255 178 255 248 180 255 253 183 255 255 181 253 255 181 255 255 181 255 255 181 255 255 181 255 255 181 255 255 181 255 255 181 255 255 181 255 255 212 255 255 212 255 255 212 255 255 212 255 255 212 255 255 212 255 255 212 255 255 212 255 251 214 255 254 211 255 255 214 255 250 217 248 255 242 255 246 244 255 253 248 255 255 245 253 255 243 255 255 246 255 251 248 255 254 246 255 255 244 255 255 244 255 250 249 255 240 254 255 28 216 243 27 227 250 24 237 255 21 233 254 24 228 253 30 228 255 
29 230 255 22 232 255 28 229 255 21 230 253 27 232 255 37 224 255 45 205 253 56 197 253 61 200 255 55 200 255 56 199 255 56 199 255 56 199 255 56 199 255 56 199 255 56 199 255 56 199 255 56 199 255 84 168 255 84 168 255 86 167 255 86 167 255 87 167 255 87 167 255 89 166 255 89 166 255 87 167 255 22 232 255 22 232 255 22 232 255 22 232 255 22 232 255 22 232 255 22 232 255 22 232 255 23 232 252 19 231 252 24 234 255 33 226 255 42 208 250 52 199 251 57 202 255 52 202 255 52 201 255 52 201 255 54 200 255 54 200 255 55 200 255 55 200 255 56 199 255 56 199 255 85 169 255 85 169 255 85 169 255 85 169 255 85 169 255 85 169 255 85 169 255 85 169 255 88 168 255 83 167 253 89 170 255 98 162 255 106 144 253 116 135 253 122 138 255 117 138 255 118 137 255 118 137 255 118 137 255 118 137 255 118 137 255 118 137 255 118 137 255 118 137 255 150 105 255 150 105 255 150 105 255 150 105 255 150 105 255 150 105 255 150 105 255 150 105 255 149 105 254 145 105 253 151 106 255 162 98 255 169 79 252 179 70 251 186 72 255 181 71 254 183 72 255 183 72 255 183 72 255 183 72 255 183 72 255 183 72 255 183 72 255 183 72 255 214 41 255 214 41 255 214 41 255 214 41 255 214 41 255 214 41 255 214 41 255 214 41 255 213 40 252 209 41 251 213 43 255 225 35 255 234 16 252 245 7 251 252 9 255 247 9 255 247 9 255 247 9 255 247 9 255 247 9 255 247 9 255 247 9 255 247 9 255 247 9 255 255 21 255 255 21 255 255 21 255 255 21 255 255 21 255 255 21 255 255 21 255 255 21 255 255 24 255 255 18 254 255 20 253 251 22 247 255 51 255 251 54 255 254 56 255 255 49 251 255 54 254 255 54 254 255 54 254 255 54 254 255 54 254 255 54 254 255 54 254 255 54 254 255 86 255 255 86 255 255 86 255 255 86 255 255 86 255 255 86 255 255 86 255 255 86 255 252 89 255 255 83 253 255 84 251 249 88 244 255 117 255 251 121 255 254 123 255 255 116 249 255 118 255 255 118 255 255 118 255 255 118 255 255 118 255 255 118 255 255 118 255 255 118 255 255 150 255 255 150 255 255 150 255 255 150 255 255 150 255 255 150 255 255 150 255 255 150 255 252 150 255 255 147 255 255 151 255 252 152 248 255 178 255 248 180 255 253 183 255 255 181 253 255 181 255 255 181 255 255 181 255 255 181 255 255 181 255 255 181 255 255 181 255 255 181 255 255 212 255 255 212 255 255 212 255 255 212 255 255 212 255 255 212 255 255 212 255 255 212 255 251 214 255 254 211 255 255 214 255 250 217 248 255 242 255 246 244 255 253 248 255 255 245 253 255 243 255 255 246 255 251 248 255 254 246 255 255 244 255 255 244 255 250 249 255 240 254 255 28 216 243 27 227 250 24 237 255 21 233 254 24 228 253 30 228 255 29 230 255 22 232 255 28 229 255 21 230 253 27 232 255 37 224 255 45 205 253 56 197 253 61 200 255 55 200 255 56 199 255 56 199 255 56 199 255 56 199 255 56 199 255 56 199 255 56 199 255 56 199 255 84 168 255 84 168 255 86 167 255 86 167 255 87 167 255 87 167 255 89 166 255 89 166 255 87 167 255 22 232 255 22 232 255 22 232 255 22 232 255 
22 232 255 22 232 255 22 232 255 22 232 255 23 232 252 19 231 252 24 234 255 33 226 255 42 208 250 52 199 251 57 202 255 52 202 255 52 201 255 52 201 255 54 200 255 54 200 255 55 200 255 55 200 255 56 199 255 56 199 255 85 169 255 85 169 255 85 169 255 85 169 255 85 169 255 85 169 255 85 169 255 85 169 255 88 168 255 83 167 253 89 170 255 98 162 255 106 144 253 116 135 253 122 138 255 117 138 255 118 137 255 118 137 255 118 137 255 118 137 255 118 137 255 118 137 255 118 137 255 118 137 255 150 105 255 150 105 255 150 105 255 150 105 255 150 105 255 150 105 255 150 105 255 150 105 255 149 105 254 145 105 253 151 106 255 162 98 255 169 79 252 179 70 251 186 72 255 181 71 254 183 72 255 183 72 255 183 72 255 183 72 255 183 72 255 183 72 255 183 72 255 183 72 255 214 41 255 214 41 255 214 41 255 214 41 255 214 41 255 214 41 255 214 41 255 214 41 255 213 40 252 209 41 251 213 43 255 225 35 255 234 16 252 245 7 251 252 9 255 247 9 255 247 9 255 247 9 255 247 9 255 247 9 255 247 9 255 247 9 255 247 9 255 247 9 255 255 21 255 255 21 255 255 21 255 255 21 255 255 21 255 255 21 255 255 21 255 255 21 255 255 24 255 255 18 254 255 20 253 251 22 247 255 51 255 251 54 255 254 56 255 255 49 251 255 54 254 255 54 254 255 54 254 255 54 254 255 54 254 255 54 254 255 54 254 255 54 254 255 86 255 255 86 255 255 86 255 255 86 255 255 86 255 255 86 255 255 86 255 255 86 255 252 89 255 255 83 253 255 84 251 249 88 244 255 117 255 251 121 255 254 123 255 255 116 249 255 118 255 255 118 255 255 118 255 255 118 255 255 118 255 255 118 255 255 118 255 255 118 255 255 150 255 255 150 255 255 150 255 255 150 255 255 150 255 255 150 255 255 150 255 255 150 255 252 150 255 255 147 255 255 151 255 252 152 248 255 178 255 248 180 255 253 183 255 255 181 253 255 181 255 255 181 255 255 181 255 255 181 255 255 181 255 255 181 255 255 181 255 255 181 255 255 212 255 255 212 255 255 212 255 255 212 255 255 212 255 255 212 255 255 212 255 255 212 255 251 214 255 254 211 255 255 214 255 250 217 248 255 242 255 246 244 255 253 248 255 255 245 253 255 243 255 255 246 255 251 248 255 254 246 255 255 244 255 255 244 255 250 249 255 240 254 255 28 216 243 27 227 250 24 237 255 21 233 254 24 228 253 30 228 255 29 230 255 22 232 255 28 229 255 21 230 253 27 232 255 37 224 255 45 205 253 56 197 253 61 200 255 55 200 255 56 199 255 56 199 255 56 199 255 56 199 255 56 199 255 56 199 255 56 199 255 56 199 255 84 168 255 84 168 255 86 167 255 86 167 255 87 167 255 87 167 255 89 166 255 89 166 255 87 167 255 22 232 255 22 232 255 22 232 255 22 232 255 22 232 255 22 232 255 22 232 255 22 232 255 23 232 252 19 231 252 24 234 255 33 226 255 42 208 250 52 199 251 57 202 255 52 202 255 52 201 255 52 201 255 54 200 255 54 200 255 55 200 255 55 200 255 56 199 255 56 199 255 85 169 255 85 169 255 85 169 255 85 169 255 85 169 255 85 169 255 85 169 255 85 169 255 88 168 255 83 167 253 89 170 255 
98 162 255 106 144 253 116 135 253 122 138 255 117 138 255 118 137 255 118 137 255 118 137 255 118 137 255 118 137 255 118 137 255 118 137 255 118 137 255 150 105 255 150 105 255 150 105 255 150 105 255 150 105 255 150 105 255 150 105 255 150 105 255 149 105 254 145 105 253 151 106 255 162 98 255 169 79 252 179 70 251 186 72 255 181 71 254 183 72 255 183 72 255 183 72 255 183 72 255 183 72 255 183 72 255 183 72 255 183 72 255 214 41 255 214 41 255 214 41 255 214 41 255 214 41 255 214 41 255 214 41 255 214 41 255 213 40 252 209 41 251 213 43 255 225 35 255 234 16 252 245 7 251 252 9 255 247 9 255 247 9 255 247 9 255 247 9 255 247 9 255 247 9 255 247 9 255 247 9 255 247 9 255 255 21 255 255 21 255 255 21 255 255 21 255 255 21 255 255 21 255 255 21 255 255 21 255 255 24 255 255 18 254 255 20 253 251 22 247 255 51 255 251 54 255 254 56 255 255 49 251 255 54 254 255 54 254 255 54 254 255 54 254 255 54 254 255 54 254 255 54 254 255 54 254 255 86 255 255 86 255 255 86 255 255 86 255 255 86 255 255 86 255 255 86 255 255 86 255 252 89 255 255 83 253 255 84 251 249 88 244 255 117 255 251 121 255 254 123 255 255 116 249 255 118 255 255 118 255 255 118 255 255 118 255 255 118 255 255 118 255 255 118 255 255 118 255 255 150 255 255 150 255 255 150 255 255 150 255 255 150 255 255 150 255 255 150 255 255 150 255 252 150 255 255 147 255 255 151 255 252 152 248 255 178 255 248 180 255 253 183 255 255 181 253 255 181 255 255 181 255 255 181 255 255 181 255 255 181 255 255 181 255 255 181 255 255 181 255 255 212 255 255 212 255 255 212 255 255 212 255 255 212 255 255 212 255 255 212 255 255 212 255 251 214 255 254 211 255 255 214 255 250 217 248 255 242 255 246 244 255 253 248 255 255 245 253 255 243 255 255 246 255 251 248 255 254 246 255 255 244 255 255 244 255 250 249 255 240 254 255 28 216 243 27 227 250 24 237 255 21 233 254 24 228 253 30 228 255 29 230 255 22 232 255 28 229 255 21 230 253 27 232 255 37 224 255 45 205 253 56 197 253 61 200 255 55 200 255 56 199 255 56 199 255 56 199 255 56 199 255 56 199 255 56 199 255 56 199 255 56 199 255 84 168 255 84 168 255 86 167 255 86 167 255 87 167 255 87 167 255 89 166 255 89 166 255 87 167 255 22 232 255 22 232 255 22 232 255 22 232 255 22 232 255 22 232 255 22 232 255 22 232 255 23 232 252 19 231 252 24 234 255 33 226 255 42 208 250 52 199 251 57 202 255 52 202 255 52 201 255 52 201 255 54 200 255 54 200 255 55 200 255 55 200 255 56 199 255 56 199 255 85 169 255 85 169 255 85 169 255 85 169 255 85 169 255 85 169 255 85 169 255 85 169 255 88 168 255 83 167 253 89 170 255 98 162 255 106 144 253 116 135 253 122 138 255 117 138 255 118 137 255 118 137 255 118 137 255 118 137 255 118 137 255 118 137 255 118 137 255 118 137 255 150 105 255 150 105 255 150 105 255 150 105 255 150 105 255 150 105 255 150 105 255 150 105 255 149 105 254 145 105 253 151 106 255 162 98 255 169 79 252 179 70 251 186 72 255 181 71 254 183 72 255 183 72 255 
183 72 255 183 72 255 183 72 255 183 72 255 183 72 255 183 72 255 214 41 255 214 41 255 214 41 255 214 41 255 214 41 255 214 41 255 214 41 255 214 41 255 213 40 252 209 41 251 213 43 255 225 35 255 234 16 252 245 7 251 252 9 255 247 9 255 247 9 255 247 9 255 247 9 255 247 9 255 247 9 255 247 9 255 247 9 255 247 9 255 255 21 255 255 21 255 255 21 255 255 21 255 255 21 255 255 21 255 255 21 255 255 21 255 255 24 255 255 18 254 255 20 253 251 22 247 255 51 255 251 54 255 254 56 255 255 49 251 255 54 254 255 54 254 255 54 254 255 54 254 255 54 254 255 54 254 255 54 254 255 54 254 255 86 255 255 86 255 255 86 255 255 86 255 255 86 255 255 86 255 255 86 255 255 86 255 252 89 255 255 83 253 255 84 251 249 88 244 255 117 255 251 121 255 254 123 255 255 116 249 255 118 255 255 118 255 255 118 255 255 118 255 255 118 255 255 118 255 255 118 255 255 118 255 255 150 255 255 150 255 255 150 255 255 150 255 255 150 255 255 150 255 255 150 255 255 150 255 252 150 255 255 147 255 255 151 255 252 152 248 255 178 255 248 180 255 253 183 255 255 181 253 255 181 255 255 181 255 255 181 255 255 181 255 255 181 255 255 181 255 255 181 255 255 181 255 255 212 255 255 212 255 255 212 255 255 212 255 255 212 255 255 212 255 255 212 255 255 212 255 251 214 255 254 211 255 255 214 255 250 217 248 255 242 255 246 244 255 253 248 255 255 245 253 255 243 255 255 246 255 251 248 255 254 246 255 255 244 255 255 244 255 250 249 255 240 254 255 28 216 243 27 227 250 24 237 255 21 233 254 24 228 253 30 228 255 29 230 255 22 232 255 28 229 255 21 230 253 27 232 255 37 224 255 45 205 253 56 197 253 61 200 255 55 200 255 56 199 255 56 199 255 56 199 255 56 199 255 56 199 255 56 199 255 56 199 255 56 199 255 84 168 255 84 168 255 86 167 255 86 167 255 87 167 255 87 167 255 89 166 255 89 166 255 87 167 255 22 232 255 22 232 255 22 232 255 22 232 255 22 232 255 22 232 255 22 232 255 22 232 255 23 232 252 19 231 252 24 234 255 33 226 255 42 208 250 52 199 251 57 202 255 52 202 255 52 201 255 52 201 255 54 200 255 54 200 255 55 200 255 55 200 255 56 199 255 56 199 255 85 169 255 85 169 255 85 169 255 85 169 255 85 169 255 85 169 255 85 169 255 85 169 255 88 168 255 83 167 253 89 170 255 98 162 255 106 144 253 116 135 253 122 138 255 117 138 255 118 137 255 118 137 255 118 137 255 118 137 255 118 137 255 118 137 255 118 137 255 118 137 255 150 105 255 150 105 255 150 105 255 150 105 255 150 105 255 150 105 255 150 105 255 150 105 255 149 105 254 145 105 253 151 106 255 162 98 255 169 79 252 179 70 251 186 72 255 181 71 254 183 72 255 183 72 255 183 72 255 183 72 255 183 72 255 183 72 255 183 72 255 183 72 255 214 41 255 214 41 255 214 41 255 214 41 255 214 41 255 214 41 255 214 41 255 214 41 255 213 40 252 209 41 251 213 43 255 225 35 255 234 16 252 245 7 251 252 9 255 247 9 255 247 9 255 247 9 255 247 9 255 247 9 255 247 9 255 247 9 255 247 9 255 247 9 255 255 21 255 
255 21 255 255 21 255 255 21 255 255 21 255 255 21 255 255 21 255 255 21 255 255 24 255 255 18 254 255 20 253 251 22 247 255 51 255 251 54 255 254 56 255 255 49 251 255 54 254 255 54 254 255 54 254 255 54 254 255 54 254 255 54 254 255 54 254 255 54 254 255 86 255 255 86 255 255 86 255 255 86 255 255 86 255 255 86 255 255 86 255 255 86 255 252 89 255 255 83 253 255 84 251 249 88 244 255 117 255 251 121 255 254 123 255 255 116 249 255 118 255 255 118 255 255 118 255 255 118 255 255 118 255 255 118 255 255 118 255 255 118 255 255 150 255 255 150 255 255 150 255 255 150 255 255 150 255 255 150 255 255 150 255 255 150 255 252 150 255 255 147 255 255 151 255 252 152 248 255 178 255 248 180 255 253 183 255 255 181 253 255 181 255 255 181 255 255 181 255 255 181 255 255 181 255 255 181 255 255 181 255 255 181 255 255 212 255 255 212 255 255 212 255 255 212 255 255 212 255 255 212 255 255 212 255 255 212 255 251 214 255 254 211 255 255 214 255 250 217 248 255 242 255 246 244 255 253 248 255 255 245 253 255 243 255 255 246 255 251 248 255 254 246 255 255 244 255 255 244 255 250 249 255 240 254 255 28 216 243 27 227 250 24 237 255 21 233 254 24 228 253 30 228 255 29 230 255 22 232 255 28 229 255 21 230 253 27 232 255 37 224 255 45 205 253 56 197 253 61 200 255 55 200 255 56 199 255 56 199 255 56 199 255 56 199 255 56 199 255 56 199 255 56 199 255 56 199 255 84 168 255 84 168 255 86 167 255 86 167 255 87 167 255 87 167 255 89 166 255 89 166 255 87 167 255 21 233 255 21 233 255 21 233 255 21 233 255 21 233 255 21 233 255 21 233 255 21 233 255 23 232 252 17 232 252 24 234 255 33 226 255 41 208 250 52 199 251 57 202 255 51 202 255 54 200 255 54 200 255 54 200 255 54 200 255 54 200 255 54 200 255 54 200 255 54 200 255 86 170 255 86 170 255 88 169 255 88 169 255 89 169 255 89 169 255 91 168 255 91 168 255 91 168 255 86 168 254 91 171 255 100 163 255 110 144 254 119 136 254 124 138 255 119 138 255 118 137 255 118 137 255 118 137 255 118 137 255 118 137 255 118 137 255 118 137 255 118 137 255 147 107 255 147 107 255 147 107 255 147 107 255 147 107 255 147 107 255 147 107 255 147 107 255 148 106 254 144 106 253 150 107 255 160 98 255 169 79 252 179 70 251 186 72 255 181 71 254 186 70 255 186 70 255 186 70 255 186 70 255 186 70 255 186 70 255 186 70 255 186 70 255 212 42 255 212 42 255 212 42 255 212 42 255 212 42 255 212 42 255 212 42 255 212 42 255 215 41 253 211 41 252 216 43 255 225 35 255 233 17 252 242 7 250 248 10 255 243 9 254 248 8 255 248 8 255 248 8 255 248 8 255 248 8 255 248 8 255 248 8 255 248 8 255 255 22 255 255 22 255 255 22 255 255 22 255 255 22 255 255 22 255 255 22 255 255 22 255 253 25 255 253 20 252 255 21 251 249 25 246 255 53 255 250 58 255 255 59 255 255 53 249 255 54 254 255 54 254 255 54 254 255 54 254 255 54 254 255 54 254 255 54 254 255 54 254 253 86 252 253 86 252 253 86 252 253 86 252 253 86 252 253 86 252 253 86 252 253 86 252 
254 91 255 255 85 255 255 86 253 250 89 245 255 118 255 251 121 255 254 123 255 255 117 250 254 120 255 254 120 255 254 120 255 254 120 255 254 120 255 254 120 255 254 120 255 254 120 255 255 150 255 255 150 255 255 150 255 255 150 255 255 150 255 255 150 255 255 150 255 255 150 255 250 151 255 255 148 254 255 152 254 250 153 246 255 180 255 247 181 253 251 184 253 255 182 251 254 182 255 254 182 255 254 182 255 254 182 255 254 182 255 254 182 255 254 182 255 254 182 255 252 214 255 252 214 255 252 214 255 252 214 255 252 214 255 252 214 255 252 214 255 252 214 255 253 216 255 254 212 252 255 212 249 248 215 244 255 244 255 249 248 255 253 248 254 254 243 249 255 242 253 251 246 253 247 248 253 249 246 253 255 243 253 255 243 253 245 248 253 237 253 253 24 220 244 29 229 252 30 235 255 24 233 255 21 231 254 24 233 255 27 232 255 27 231 255 25 231 252 20 231 252 25 234 255 35 225 255 42 208 250 53 198 251 58 201 255 54 201 255 54 200 255 54 200 255 54 200 255 55 200 255 56 199 255 56 199 255 58 198 255 58 198 255 86 167 255 86 167 255 86 167 255 86 167 255 86 167 255 86 167 255 86 167 255 86 167 255 86 167 255 21 233 255 21 233 255 21 233 255 21 233 255 21 233 255 21 233 255 21 233 255 21 233 255 23 232 252 19 231 252 24 234 255 33 226 255 41 208 250 52 199 251 57 202 255 52 202 255 54 200 255 54 200 255 54 200 255 54 200 255 54 200 255 54 200 255 54 200 255 54 200 255 86 170 255 86 170 255 88 169 255 88 169 255 89 169 255 89 169 255 91 168 255 91 168 255 91 168 255 86 168 254 91 171 255 100 163 255 110 144 254 119 136 254 124 138 255 119 138 255 118 137 255 118 137 255 118 137 255 118 137 255 118 137 255 118 137 255 118 137 255 118 137 255 149 106 255 149 106 255 149 106 255 149 106 255 149 106 255 149 106 255 149 106 255 149 106 255 149 105 254 145 105 253 150 107 255 160 98 255 169 79 252 179 70 251 186 72 255 181 71 254 186 70 255 186 70 255 186 70 255 186 70 255 186 70 255 186 70 255 186 70 255 186 70 255 214 41 255 214 41 255 214 41 255 214 41 255 214 41 255 214 41 255 214 41 255 214 41 255 215 41 253 211 41 252 216 43 255 225 35 255 234 16 252 242 7 250 248 10 255 243 9 254 248 8 255 248 8 255 248 8 255 248 8 255 248 8 255 248 8 255 248 8 255 248 8 255 255 22 255 255 22 255 255 22 255 255 22 255 255 22 255 255 22 255 255 22 255 255 22 255 253 25 255 253 20 252 255 21 251 249 25 246 255 53 255 250 58 255 255 59 255 255 53 249 255 54 254 255 54 254 255 54 254 255 54 254 255 54 254 255 54 254 255 54 254 255 54 254 253 86 252 253 86 252 253 86 252 253 86 252 253 86 252 253 86 252 253 86 252 253 86 252 254 91 255 255 85 255 255 86 253 250 89 245 255 118 255 251 121 255 254 123 255 255 117 250 254 120 255 254 120 255 254 120 255 254 120 255 254 120 255 254 120 255 254 120 255 254 120 255 255 150 255 255 150 255 255 150 255 255 150 255 255 150 255 255 150 255 255 150 255 255 150 255 250 151 255 255 148 254 255 152 254 250 153 246 255 180 255 247 181 253 252 185 254 
255 182 251 254 182 255 254 182 255 254 182 255 254 182 255 254 182 255 254 182 255 254 182 255 254 182 255 252 214 255 252 214 255 252 214 255 252 214 255 252 214 255 252 214 255 252 214 255 252 214 255 253 216 255 254 212 252 255 212 249 248 215 244 255 245 255 249 248 255 253 248 254 254 243 249 255 242 253 251 246 253 247 248 253 249 246 253 255 243 253 255 243 253 245 248 253 237 253 253 24 220 244 28 228 251 30 235 255 24 233 255 22 231 254 24 233 255 27 232 255 27 231 255 25 231 252 20 231 252 25 234 255 35 225 255 44 207 250 53 198 251 58 201 255 54 201 255 54 200 255 54 200 255 55 200 255 55 200 255 56 199 255 58 198 255 58 198 255 58 198 255 86 167 255 86 167 255 86 167 255 86 167 255 86 167 255 86 167 255 86 167 255 86 167 255 86 167 255 22 232 255 22 232 255 22 232 255 22 232 255 22 232 255 22 232 255 22 232 255 22 232 255 23 232 252 19 231 252 24 234 255 35 225 255 42 208 250 52 199 251 57 202 255 52 202 255 55 200 255 55 200 255 55 200 255 55 200 255 55 200 255 55 200 255 55 200 255 55 200 255 86 170 255 86 170 255 88 169 255 88 169 255 89 169 255 89 169 255 91 168 255 91 168 255 90 167 255 86 168 254 90 170 255 100 163 255 110 144 254 119 136 254 123 137 255 119 138 255 120 136 255 120 136 255 120 136 255 120 136 255 120 136 255 120 136 255 120 136 255 120 136 255 149 106 255 149 106 255 149 106 255 149 106 255 149 106 255 149 106 255 149 106 255 149 106 255 149 105 254 145 105 253 151 106 255 162 98 255 171 79 252 180 69 251 186 72 255 181 71 254 186 70 255 186 70 255 186 70 255 186 70 255 186 70 255 186 70 255 186 70 255 186 70 255 214 41 255 214 41 255 214 41 255 214 41 255 214 41 255 214 41 255 214 41 255 214 41 255 217 40 253 211 41 252 217 42 255 226 34 255 234 16 252 244 6 250 249 9 255 243 9 254 248 8 255 248 8 255 248 8 255 248 8 255 248 8 255 248 8 255 248 8 255 248 8 255 255 22 255 255 22 255 255 22 255 255 22 255 255 22 255 255 22 255 255 22 255 255 22 255 253 25 255 253 20 252 255 21 251 249 25 246 255 53 255 250 58 255 255 59 255 255 53 249 255 54 254 255 54 254 255 54 254 255 54 254 255 54 254 255 54 254 255 54 254 255 54 254 253 86 252 253 86 252 253 86 252 253 86 252 253 86 252 253 86 252 253 86 252 253 86 252 254 91 255 255 85 255 255 86 253 250 89 245 255 118 255 251 121 255 254 123 255 255 117 250 254 120 255 254 120 255 254 120 255 254 120 255 254 120 255 254 120 255 254 120 255 254 120 255 255 151 255 255 151 255 255 151 255 255 151 255 255 151 255 255 151 255 255 151 255 255 151 255 250 151 255 255 149 255 255 152 254 250 153 246 255 180 255 247 181 253 252 185 254 255 182 251 254 182 255 254 182 255 254 182 255 254 182 255 254 182 255 254 182 255 254 182 255 254 182 255 253 215 255 253 215 255 253 215 255 253 215 255 253 215 255 253 215 255 253 215 255 253 215 255 254 217 255 254 212 252 255 213 250 249 216 245 255 245 255 249 248 255 254 249 255 254 243 249 255 243 254 252 247 254 248 249 254 250 247 254 255 244 254 255 244 254 
246 249 254 238 254 254 24 220 244 29 228 251 31 233 255 26 232 255 21 230 253 25 231 255 28 232 255 28 229 255 26 231 252 20 231 252 27 233 255 36 225 255 44 207 250 54 198 251 60 201 255 54 201 255 54 200 255 55 200 255 55 200 255 56 199 255 56 199 255 58 198 255 59 198 255 59 198 255 87 167 255 87 167 255 87 167 255 87 167 255 87 167 255 87 167 255 87 167 255 87 167 255 87 167 255 22 232 255 22 232 255 22 232 255 22 232 255 22 232 255 22 232 255 22 232 255 22 232 255 25 231 252 20 231 252 25 234 255 35 225 255 44 207 250 53 198 251 58 201 255 54 201 255 55 200 255 55 200 255 55 200 255 55 200 255 55 200 255 55 200 255 55 200 255 55 200 255 85 169 255 85 169 255 87 168 255 87 168 255 88 168 255 88 168 255 90 167 255 90 167 255 90 167 255 85 167 253 90 170 255 99 162 255 109 143 253 118 135 253 123 137 255 118 137 255 120 136 255 120 136 255 120 136 255 120 136 255 120 136 255 120 136 255 120 136 255 120 136 255 150 105 255 150 105 255 150 105 255 150 105 255 150 105 255 150 105 255 150 105 255 150 105 255 150 104 254 147 105 253 151 106 255 162 98 255 171 79 252 180 69 251 187 71 255 182 71 254 186 70 255 186 70 255 186 70 255 186 70 255 186 70 255 186 70 255 186 70 255 186 70 255 215 40 255 215 40 255 215 40 255 215 40 255 215 40 255 215 40 255 215 40 255 215 40 255 217 40 253 213 40 252 217 42 255 228 33 255 236 15 252 244 6 250 249 9 255 244 8 254 248 8 255 248 8 255 248 8 255 248 8 255 248 8 255 248 8 255 248 8 255 248 8 255 255 22 255 255 22 255 255 22 255 255 22 255 255 22 255 255 22 255 255 22 255 255 22 255 253 25 255 253 20 252 255 21 251 249 25 246 255 53 255 250 58 255 255 59 255 255 53 249 255 54 254 255 54 254 255 54 254 255 54 254 255 54 254 255 54 254 255 54 254 255 54 254 254 87 253 254 87 253 254 87 253 254 87 253 254 87 253 254 87 253 254 87 253 254 87 253 254 91 255 255 85 255 255 86 253 250 89 245 255 118 255 251 121 255 254 123 255 255 117 250 254 120 255 254 120 255 254 120 255 254 120 255 254 120 255 254 120 255 254 120 255 254 120 255 255 151 255 255 151 255 255 151 255 255 151 255 255 151 255 255 151 255 255 151 255 255 151 255 251 152 255 255 149 255 255 153 255 251 154 247 255 181 255 248 182 254 252 185 254 255 183 252 254 182 255 254 182 255 254 182 255 254 182 255 254 182 255 254 182 255 254 182 255 254 182 255 253 215 255 253 215 255 253 215 255 253 215 255 253 215 255 253 215 255 253 215 255 253 215 255 254 217 255 255 213 253 255 213 250 249 216 245 255 245 255 249 248 255 254 249 255 255 244 250 255 243 254 252 247 254 248 249 254 250 247 254 255 244 254 255 244 254 246 249 254 238 254 254 24 218 243 31 227 251 31 233 255 25 231 254 23 229 253 25 231 255 29 230 255 29 228 255 26 231 252 21 230 252 27 233 255 37 224 255 45 206 250 54 198 251 60 201 255 55 200 255 55 200 255 55 200 255 56 199 255 56 199 255 58 198 255 59 198 255 59 198 255 59 198 255 87 167 255 87 167 255 87 167 255 87 167 255 87 167 255 
87 167 255 87 167 255 87 167 255 87 167 255 23 231 255 23 231 255 23 231 255 23 231 255 23 231 255 23 231 255 23 231 255 23 231 255 26 231 252 20 231 252 27 233 255 36 225 255 44 207 250 54 198 251 60 201 255 54 201 255 56 199 255 56 199 255 56 199 255 56 199 255 56 199 255 56 199 255 56 199 255 56 199 255 85 169 255 85 169 255 87 168 255 87 168 255 88 168 255 88 168 255 90 167 255 90 167 255 89 166 254 85 167 253 89 169 255 99 162 255 109 143 253 118 135 253 122 136 255 118 137 255 121 135 255 121 135 255 121 135 255 121 135 255 121 135 255 121 135 255 121 135 255 121 135 255 150 105 255 150 105 255 150 105 255 150 105 255 150 105 255 150 105 255 150 105 255 150 105 255 150 104 254 147 105 253 152 106 255 163 97 255 172 78 252 182 68 251 189 70 255 184 70 254 186 70 255 186 70 255 186 70 255 186 70 255 186 70 255 186 70 255 186 70 255 186 70 255 215 40 255 215 40 255 215 40 255 215 40 255 215 40 255 215 40 255 215 40 255 215 40 255 218 39 253 214 40 252 219 41 255 228 33 255 236 15 252 245 5 250 251 8 255 246 8 254 248 8 255 248 8 255 248 8 255 248 8 255 248 8 255 248 8 255 248 8 255 248 8 255 255 22 255 255 22 255 255 22 255 255 22 255 255 22 255 255 22 255 255 22 255 255 22 255 253 25 255 253 20 252 255 21 251 249 25 246 255 53 255 250 58 255 255 59 255 255 53 249 255 54 254 255 54 254 255 54 254 255 54 254 255 54 254 255 54 254 255 54 254 255 54 254 254 87 253 254 87 253 254 87 253 254 87 253 254 87 253 254 87 253 254 87 253 254 87 253 254 91 255 255 85 255 255 86 253 250 89 245 255 118 255 251 121 255 254 123 255 255 117 250 254 120 255 254 120 255 254 120 255 254 120 255 254 120 255 254 120 255 254 120 255 254 120 255 255 152 255 255 152 255 255 152 255 255 152 255 255 152 255 255 152 255 255 152 255 255 152 255 251 152 255 255 149 255 255 153 255 251 154 247 255 181 255 248 182 254 253 186 255 255 183 252 254 182 255 254 182 255 254 182 255 254 182 255 254 182 255 254 182 255 254 182 255 254 182 255 254 216 255 254 216 255 254 216 255 254 216 255 254 216 255 254 216 255 254 216 255 254 216 255 254 217 255 255 213 253 255 214 251 250 217 246 255 246 255 250 249 255 254 249 255 255 244 250 255 244 255 253 248 255 249 250 255 251 248 255 255 245 255 255 245 255 247 250 255 239 255 255 26 217 243 30 226 250 31 231 254 26 230 254 23 229 253 25 229 254 29 230 255 29 228 255 28 230 252 23 229 252 28 232 255 37 224 255 45 206 250 56 197 251 61 200 255 56 199 255 56 199 255 56 199 255 56 199 255 58 198 255 59 198 255 59 198 255 61 197 255 61 197 255 89 166 255 89 166 255 89 166 255 89 166 255 89 166 255 89 166 255 89 166 255 89 166 255 89 166 255 25 230 255 25 230 255 25 230 255 25 230 255 25 230 255 25 230 255 25 230 255 25 230 255 26 231 252 21 230 252 27 233 255 37 224 255 45 206 250 54 198 251 60 201 255 55 200 255 58 198 255 58 198 255 58 198 255 58 198 255 58 198 255 58 198 255 58 198 255 58 198 255 84 168 255 84 168 255 86 167 255 
86 167 255 87 167 255 87 167 255 89 166 255 89 166 255 89 166 254 84 166 252 89 169 255 98 161 255 108 142 252 118 135 253 122 136 255 118 137 255 121 135 255 121 135 255 121 135 255 121 135 255 121 135 255 121 135 255 121 135 255 121 135 255 151 105 255 151 105 255 151 105 255 151 105 255 151 105 255 151 105 255 151 105 255 151 105 255 152 103 254 148 104 253 154 105 255 164 96 255 174 77 252 183 68 251 189 70 255 184 70 254 186 70 255 186 70 255 186 70 255 186 70 255 186 70 255 186 70 255 186 70 255 186 70 255 217 39 255 217 39 255 217 39 255 217 39 255 217 39 255 217 39 255 217 39 255 217 39 255 219 38 253 214 40 252 219 41 255 229 33 255 237 14 252 245 5 250 252 8 255 246 8 254 248 8 255 248 8 255 248 8 255 248 8 255 248 8 255 248 8 255 248 8 255 248 8 255 255 22 255 255 22 255 255 22 255 255 22 255 255 22 255 255 22 255 255 22 255 255 22 255 253 25 255 253 20 252 255 21 251 249 25 246 255 53 255 250 58 255 255 59 255 255 53 249 255 54 254 255 54 254 255 54 254 255 54 254 255 54 254 255 54 254 255 54 254 255 54 254 255 88 254 255 88 254 255 88 254 255 88 254 255 88 254 255 88 254 255 88 254 255 88 254 254 91 255 255 85 255 255 86 253 250 89 245 255 118 255 251 121 255 254 123 255 255 117 250 254 120 255 254 120 255 254 120 255 254 120 255 254 120 255 254 120 255 254 120 255 254 120 255 255 152 255 255 152 255 255 152 255 255 152 255 255 152 255 255 152 255 255 152 255 255 152 255 251 152 255 255 150 255 255 154 255 251 154 247 255 182 255 249 183 255 253 186 255 255 184 253 254 182 255 254 182 255 254 182 255 254 182 255 254 182 255 254 182 255 254 182 255 254 182 255 254 216 255 254 216 255 254 216 255 254 216 255 254 216 255 254 216 255 254 216 255 254 216 255 255 218 255 255 213 253 255 214 251 250 217 246 255 246 255 250 249 255 255 250 255 255 244 250 255 244 255 253 248 255 249 250 255 251 248 255 255 245 255 255 245 255 247 250 255 239 255 255 25 216 242 31 225 250 32 231 254 27 229 253 23 227 252 27 228 254 29 228 255 29 227 255 29 229 252 23 229 252 28 232 255 39 223 255 47 205 250 56 197 251 63 199 255 56 199 255 56 199 255 56 199 255 58 198 255 59 198 255 59 198 255 61 197 255 61 197 255 62 196 255 90 165 255 90 165 255 90 165 255 90 165 255 90 165 255 90 165 255 90 165 255 90 165 255 90 165 255 25 230 255 25 230 255 25 230 255 25 230 255 25 230 255 25 230 255 25 230 255 25 230 255 28 230 252 23 229 252 28 232 255 37 224 255 45 206 250 56 197 251 61 200 255 56 199 255 58 198 255 58 198 255 58 198 255 58 198 255 58 198 255 58 198 255 58 198 255 58 198 255 84 168 255 84 168 255 86 167 255 86 167 255 87 167 255 87 167 255 89 166 255 89 166 255 88 165 253 84 166 252 89 169 255 98 161 255 108 142 252 117 134 252 122 136 255 117 136 255 123 135 255 123 135 255 123 135 255 123 135 255 123 135 255 123 135 255 123 135 255 123 135 255 151 105 255 151 105 255 151 105 255 151 105 255 151 105 255 151 105 255 151 105 255 151 105 255 153 103 254 149 103 253 
154 105 255 164 96 255 174 77 252 183 68 251 190 70 255 185 69 254 186 70 255 186 70 255 186 70 255 186 70 255 186 70 255 186 70 255 186 70 255 186 70 255 217 39 255 217 39 255 217 39 255 217 39 255 217 39 255 217 39 255 217 39 255 217 39 255 219 38 253 216 39 252 220 41 255 229 33 255 238 14 252 247 5 250 252 8 255 247 7 254 248 8 255 248 8 255 248 8 255 248 8 255 248 8 255 248 8 255 248 8 255 248 8 255 255 22 255 255 22 255 255 22 255 255 22 255 255 22 255 255 22 255 255 22 255 255 22 255 253 25 255 253 20 252 255 21 251 249 25 246 255 53 255 250 58 255 255 59 255 255 53 249 255 54 254 255 54 254 255 54 254 255 54 254 255 54 254 255 54 254 255 54 254 255 54 254 255 88 254 255 88 254 255 88 254 255 88 254 255 88 254 255 88 254 255 88 254 255 88 254 254 91 255 255 85 255 255 86 253 250 89 245 255 118 255 251 121 255 254 123 255 255 117 250 254 120 255 254 120 255 254 120 255 254 120 255 254 120 255 254 120 255 254 120 255 254 120 255 255 152 255 255 152 255 255 152 255 255 152 255 255 152 255 255 152 255 255 152 255 255 152 255 252 153 255 255 150 255 255 154 255 252 155 248 255 182 255 249 183 255 254 187 255 255 184 253 254 182 255 254 182 255 254 182 255 254 182 255 254 182 255 254 182 255 254 182 255 254 182 255 255 217 255 255 217 255 255 217 255 255 217 255 255 217 255 255 217 255 255 217 255 255 217 255 255 218 255 255 214 254 255 214 251 250 217 246 255 247 255 251 250 255 255 250 255 255 245 251 255 245 255 254 249 255 250 251 255 252 249 255 255 246 255 255 246 255 248 251 255 240 255 255 26 216 242 30 224 249 32 231 254 27 229 253 25 226 252 26 227 253 29 228 255 29 227 255 29 229 252 24 228 252 30 231 255 39 223 255 48 205 250 57 196 251 63 199 255 58 199 255 58 198 255 58 198 255 58 198 255 59 198 255 61 197 255 61 197 255 62 196 255 62 196 255 90 165 255 90 165 255 90 165 255 90 165 255 90 165 255 90 165 255 90 165 255 90 165 255 90 165 255 25 230 255 25 230 255 25 230 255 25 230 255 25 230 255 25 230 255 25 230 255 25 230 255 28 230 252 23 229 252 28 232 255 37 224 255 47 205 250 56 197 251 61 200 255 56 199 255 58 198 255 58 198 255 58 198 255 58 198 255 58 198 255 58 198 255 58 198 255 58 198 255 84 168 255 84 168 255 86 167 255 86 167 255 87 167 255 87 167 255 89 166 255 89 166 255 88 165 253 84 166 252 88 168 255 98 161 255 108 142 252 117 134 252 121 135 255 117 136 255 123 135 255 123 135 255 123 135 255 123 135 255 123 135 255 123 135 255 123 135 255 123 135 255 153 104 255 153 104 255 153 104 255 153 104 255 153 104 255 153 104 255 153 104 255 153 104 255 153 103 254 149 103 253 154 105 255 166 96 255 174 77 252 183 68 251 190 70 255 185 69 254 186 70 255 186 70 255 186 70 255 186 70 255 186 70 255 186 70 255 186 70 255 186 70 255 218 39 255 218 39 255 218 39 255 218 39 255 218 39 255 218 39 255 218 39 255 218 39 255 219 38 253 216 39 252 220 41 255 231 32 255 238 14 252 247 5 250 252 8 255 247 7 254 248 8 255 
248 8 255 248 8 255 248 8 255 248 8 255 248 8 255 248 8 255 248 8 255 255 22 255 255 22 255 255 22 255 255 22 255 255 22 255 255 22 255 255 22 255 255 22 255 253 25 255 253 20 252 255 21 251 249 25 246 255 53 255 250 58 255 255 59 255 255 53 249 255 54 254 255 54 254 255 54 254 255 54 254 255 54 254 255 54 254 255 54 254 255 54 254 255 88 254 255 88 254 255 88 254 255 88 254 255 88 254 255 88 254 255 88 254 255 88 254 254 91 255 255 85 255 255 86 253 250 89 245 255 118 255 251 121 255 254 123 255 255 117 250 254 120 255 254 120 255 254 120 255 254 120 255 254 120 255 254 120 255 254 120 255 254 120 255 255 153 255 255 153 255 255 153 255 255 153 255 255 153 255 255 153 255 255 153 255 255 153 255 252 153 255 255 150 255 255 154 255 252 155 248 255 182 255 249 183 255 254 187 255 255 184 253 254 182 255 254 182 255 254 182 255 254 182 255 254 182 255 254 182 255 254 182 255 254 182 255 255 217 255 255 217 255 255 217 255 255 217 255 255 217 255 255 217 255 255 217 255 255 217 255 255 218 255 255 214 254 255 214 251 251 218 247 255 247 255 251 250 255 255 250 255 255 245 251 255 245 255 254 249 255 250 251 255 252 249 255 255 246 255 255 246 255 248 251 255 240 255 255 26 216 242 32 223 249 31 230 253 27 229 253 25 226 252 26 227 253 30 228 255 31 226 255 29 229 252 24 228 252 30 231 255 40 223 255 48 205 250 57 196 251 63 199 255 58 199 255 58 198 255 58 198 255 59 198 255 59 198 255 61 197 255 62 196 255 62 196 255 62 196 255 90 165 255 90 165 255 90 165 255 90 165 255 90 165 255 90 165 255 90 165 255 90 165 255 90 165 255 25 230 255 25 230 255 25 230 255 25 230 255 25 230 255 25 230 255 25 230 255 25 230 255 28 230 252 21 230 252 27 233 255 37 224 255 45 206 250 56 197 251 61 200 255 55 200 255 58 198 255 58 198 255 58 198 255 58 198 255 58 198 255 58 198 255 58 198 255 58 198 255 84 168 255 84 168 255 86 167 255 86 167 255 87 167 255 87 167 255 89 166 255 89 166 255 85 167 253 81 167 252 87 168 255 98 161 255 108 142 252 118 133 252 125 135 255 120 134 255 119 135 255 119 135 255 120 134 255 120 134 255 122 134 255 123 133 255 123 133 255 123 133 255 150 104 255 150 104 255 150 104 255 150 104 255 150 104 255 150 104 255 150 104 255 150 104 255 151 102 253 147 103 252 153 104 255 164 96 255 174 77 252 184 69 252 191 71 255 186 70 255 183 72 255 183 72 255 185 71 255 185 71 255 186 70 255 186 70 255 188 69 255 188 69 255 217 39 255 217 39 255 217 39 255 217 39 255 217 39 255 217 39 255 217 39 255 217 39 255 219 38 253 216 39 252 220 41 255 229 33 255 237 14 252 247 5 250 252 8 255 247 7 254 247 7 254 247 7 254 247 7 254 247 7 254 247 7 254 247 7 254 247 7 254 247 7 254 255 22 255 255 22 255 255 22 255 255 22 255 255 22 255 255 22 255 255 22 255 255 22 255 253 25 255 253 20 252 255 21 251 249 25 246 255 53 255 250 58 255 255 59 255 255 53 249 254 56 255 254 56 255 254 56 255 254 56 255 254 56 255 254 56 255 254 56 255 254 56 255 
255 88 254 255 88 254 255 88 254 255 88 254 255 88 254 255 88 254 255 88 254 255 88 254 252 89 255 255 85 255 255 89 255 252 91 247 255 117 255 249 119 255 253 122 254 255 119 252 255 121 255 255 121 255 255 121 255 255 121 255 255 121 255 255 121 255 255 121 255 255 121 255 255 154 255 255 154 255 255 154 255 255 154 255 255 154 255 255 154 255 255 154 255 255 154 255 251 152 255 255 149 255 255 153 255 251 154 247 255 181 255 248 182 254 253 186 255 255 183 252 254 182 255 254 182 255 254 182 255 254 182 255 254 182 255 254 182 255 254 182 255 254 182 255 254 216 255 254 216 255 254 216 255 254 216 255 254 216 255 254 216 255 254 216 255 254 216 255 251 219 255 254 213 253 255 215 251 248 218 246 255 248 255 250 250 255 253 252 255 255 247 252 255 245 255 254 249 255 250 251 255 252 249 255 255 246 255 255 246 255 248 251 255 240 255 255 21 215 242 32 228 254 30 230 255 23 227 251 24 230 253 25 229 253 25 227 251 29 229 254 27 227 253 23 227 252 28 229 255 38 222 255 46 204 252 56 195 252 62 198 255 57 197 255 57 197 255 57 197 255 57 197 255 58 197 255 60 196 255 60 196 255 61 195 255 61 195 255 90 165 255 90 165 255 90 165 255 90 165 255 90 165 255 90 165 255 90 165 255 90 165 255 90 165 255 25 230 255 25 230 255 25 230 255 25 230 255 25 230 255 25 230 255 25 230 255 25 230 255 28 230 252 21 230 252 27 233 255 37 224 255 45 206 250 56 197 251 61 200 255 55 200 255 58 198 255 58 198 255 58 198 255 58 198 255 58 198 255 58 198 255 58 198 255 58 198 255 84 168 255 84 168 255 86 167 255 86 167 255 87 167 255 87 167 255 89 166 255 89 166 255 85 167 253 81 167 252 87 168 255 98 161 255 108 142 252 118 133 252 125 135 255 120 134 255 119 135 255 119 135 255 120 134 255 120 134 255 122 134 255 123 133 255 123 133 255 123 133 255 150 104 255 150 104 255 150 104 255 150 104 255 150 104 255 150 104 255 150 104 255 150 104 255 151 102 253 147 103 252 153 104 255 164 96 255 174 77 252 184 69 252 191 71 255 186 70 255 183 72 255 183 72 255 185 71 255 185 71 255 186 70 255 186 70 255 188 69 255 188 69 255 217 39 255 217 39 255 217 39 255 217 39 255 217 39 255 217 39 255 217 39 255 217 39 255 219 38 253 216 39 252 220 41 255 229 33 255 237 14 252 247 5 250 252 8 255 247 7 254 247 7 254 247 7 254 247 7 254 247 7 254 247 7 254 247 7 254 247 7 254 247 7 254 255 22 255 255 22 255 255 22 255 255 22 255 255 22 255 255 22 255 255 22 255 255 22 255 253 25 255 253 20 252 255 21 251 249 25 246 255 53 255 250 58 255 255 59 255 255 53 249 254 56 255 254 56 255 254 56 255 254 56 255 254 56 255 254 56 255 254 56 255 254 56 255 255 88 254 255 88 254 255 88 254 255 88 254 255 88 254 255 88 254 255 88 254 255 88 254 252 89 255 255 85 255 255 89 255 252 91 247 255 117 255 249 119 255 253 122 254 255 119 252 255 121 255 255 121 255 255 121 255 255 121 255 255 121 255 255 121 255 255 121 255 255 121 255 255 154 255 255 154 255 255 154 255 255 154 255 255 154 255 255 154 255 255 154 255 
255 154 255 251 152 255 255 149 255 255 153 255 251 154 247 255 181 255 248 182 254 253 186 255 255 183 252 254 182 255 254 182 255 254 182 255 254 182 255 254 182 255 254 182 255 254 182 255 254 182 255 254 216 255 254 216 255 254 216 255 254 216 255 254 216 255 254 216 255 254 216 255 254 216 255 251 219 255 254 213 253 255 215 251 248 218 246 255 248 255 250 250 255 253 252 255 255 247 252 255 245 255 254 249 255 250 251 255 252 249 255 255 246 255 255 246 255 248 251 255 240 255 255 21 215 242 32 228 254 30 230 255 23 227 251 24 230 253 25 229 253 25 227 251 29 229 254 27 227 253 23 227 252 28 229 255 38 222 255 46 204 252 56 195 252 62 198 255 57 197 255 57 197 255 57 197 255 57 197 255 58 197 255 60 196 255 60 196 255 61 195 255 61 195 255 90 165 255 90 165 255 90 165 255 90 165 255 90 165 255 90 165 255 90 165 255 90 165 255 90 165 255 25 230 255 25 230 255 25 230 255 25 230 255 25 230 255 25 230 255 25 230 255 25 230 255 28 230 252 21 230 252 27 233 255 37 224 255 45 206 250 56 197 251 61 200 255 55 200 255 58 198 255 58 198 255 58 198 255 58 198 255 58 198 255 58 198 255 58 198 255 58 198 255 84 168 255 84 168 255 86 167 255 86 167 255 87 167 255 87 167 255 89 166 255 89 166 255 85 167 253 81 167 252 87 168 255 98 161 255 108 142 252 118 133 252 125 135 255 120 134 255 119 135 255 119 135 255 120 134 255 120 134 255 122 134 255 123 133 255 123 133 255 123 133 255 150 104 255 150 104 255 150 104 255 150 104 255 150 104 255 150 104 255 150 104 255 150 104 255 151 102 253 147 103 252 153 104 255 164 96 255 174 77 252 184 69 252 191 71 255 186 70 255 183 72 255 183 72 255 185 71 255 185 71 255 186 70 255 186 70 255 188 69 255 188 69 255 217 39 255 217 39 255 217 39 255 217 39 255 217 39 255 217 39 255 217 39 255 217 39 255 219 38 253 216 39 252 220 41 255 229 33 255 237 14 252 247 5 250 252 8 255 247 7 254 247 7 254 247 7 254 247 7 254 247 7 254 247 7 254 247 7 254 247 7 254 247 7 254 255 22 255 255 22 255 255 22 255 255 22 255 255 22 255 255 22 255 255 22 255 255 22 255 253 25 255 253 20 252 255 21 251 249 25 246 255 53 255 250 58 255 255 59 255 255 53 249 254 56 255 254 56 255 254 56 255 254 56 255 254 56 255 254 56 255 254 56 255 254 56 255 255 88 254 255 88 254 255 88 254 255 88 254 255 88 254 255 88 254 255 88 254 255 88 254 252 89 255 255 85 255 255 89 255 252 91 247 255 117 255 249 119 255 253 122 254 255 119 252 255 121 255 255 121 255 255 121 255 255 121 255 255 121 255 255 121 255 255 121 255 255 121 255 255 154 255 255 154 255 255 154 255 255 154 255 255 154 255 255 154 255 255 154 255 255 154 255 251 152 255 255 149 255 255 153 255 251 154 247 255 181 255 248 182 254 253 186 255 255 183 252 254 182 255 254 182 255 254 182 255 254 182 255 254 182 255 254 182 255 254 182 255 254 182 255 254 216 255 254 216 255 254 216 255 254 216 255 254 216 255 254 216 255 254 216 255 254 216 255 251 219 255 254 213 253 255 215 251 248 218 246 255 248 255 250 250 255 
253 252 255 255 247 252 255 245 255 254 249 255 250 251 255 252 249 255 255 246 255 255 246 255 248 251 255 240 255 255 21 215 242 32 228 254 30 230 255 23 227 251 24 230 253 25 229 253 25 227 251 29 229 254 27 227 253 23 227 252 28 229 255 38 222 255 46 204 252 56 195 252 62 198 255 57 197 255 57 197 255 57 197 255 57 197 255 58 197 255 60 196 255 60 196 255 61 195 255 61 195 255 90 165 255 90 165 255 90 165 255 90 165 255 90 165 255 90 165 255 90 165 255 90 165 255 90 165 255 25 230 255 25 230 255 25 230 255 25 230 255 25 230 255 25 230 255 25 230 255 25 230 255 28 230 252 21 230 252 27 233 255 37 224 255 45 206 250 56 197 251 61 200 255 55 200 255 58 198 255 58 198 255 58 198 255 58 198 255 58 198 255 58 198 255 58 198 255 58 198 255 84 168 255 84 168 255 86 167 255 86 167 255 87 167 255 87 167 255 89 166 255 89 166 255 85 167 253 81 167 252 87 168 255 98 161 255 108 142 252 118 133 252 125 135 255 120 134 255 119 135 255 119 135 255 120 134 255 120 134 255 122 134 255 123 133 255 123 133 255 123 133 255 150 104 255 150 104 255 150 104 255 150 104 255 150 104 255 150 104 255 150 104 255 150 104 255 151 102 253 147 103 252 153 104 255 164 96 255 174 77 252 184 69 252 191 71 255 186 70 255 183 72 255 183 72 255 185 71 255 185 71 255 186 70 255 186 70 255 188 69 255 188 69 255 217 39 255 217 39 255 217 39 255 217 39 255 217 39 255 217 39 255 217 39 255 217 39 255 219 38 253 216 39 252 220 41 255 229 33 255 237 14 252 247 5 250 252 8 255 247 7 254 247 7 254 247 7 254 247 7 254 247 7 254 247 7 254 247 7 254 247 7 254 247 7 254 255 22 255 255 22 255 255 22 255 255 22 255 255 22 255 255 22 255 255 22 255 255 22 255 253 25 255 253 20 252 255 21 251 249 25 246 255 53 255 250 58 255 255 59 255 255 53 249 254 56 255 254 56 255 254 56 255 254 56 255 254 56 255 254 56 255 254 56 255 254 56 255 255 88 254 255 88 254 255 88 254 255 88 254 255 88 254 255 88 254 255 88 254 255 88 254 252 89 255 255 85 255 255 89 255 252 91 247 255 117 255 249 119 255 253 122 254 255 119 252 255 121 255 255 121 255 255 121 255 255 121 255 255 121 255 255 121 255 255 121 255 255 121 255 255 154 255 255 154 255 255 154 255 255 154 255 255 154 255 255 154 255 255 154 255 255 154 255 251 152 255 255 149 255 255 153 255 251 154 247 255 181 255 248 182 254 253 186 255 255 183 252 254 182 255 254 182 255 254 182 255 254 182 255 254 182 255 254 182 255 254 182 255 254 182 255 254 216 255 254 216 255 254 216 255 254 216 255 254 216 255 254 216 255 254 216 255 254 216 255 251 219 255 254 213 253 255 215 251 248 218 246 255 248 255 250 250 255 253 252 255 255 247 252 255 245 255 254 249 255 250 251 255 252 249 255 255 246 255 255 246 255 248 251 255 240 255 255 21 215 242 32 228 254 30 230 255 23 227 251 24 230 253 25 229 253 25 227 251 29 229 254 27 227 253 23 227 252 28 229 255 38 222 255 46 204 252 56 195 252 62 198 255 57 197 255 57 197 255 57 197 255 57 197 255 58 197 255 60 196 255 
60 196 255 61 195 255 61 195 255 90 165 255 90 165 255 90 165 255 90 165 255 90 165 255 90 165 255 90 165 255 90 165 255 90 165 255 25 230 255 25 230 255 25 230 255 25 230 255 25 230 255 25 230 255 25 230 255 25 230 255 28 230 252 21 230 252 27 233 255 37 224 255 45 206 250 56 197 251 61 200 255 55 200 255 58 198 255 58 198 255 58 198 255 58 198 255 58 198 255 58 198 255 58 198 255 58 198 255 84 168 255 84 168 255 86 167 255 86 167 255 87 167 255 87 167 255 89 166 255 89 166 255 85 167 253 81 167 252 87 168 255 98 161 255 108 142 252 118 133 252 125 135 255 120 134 255 119 135 255 119 135 255 120 134 255 120 134 255 122 134 255 123 133 255 123 133 255 123 133 255 150 104 255 150 104 255 150 104 255 150 104 255 150 104 255 150 104 255 150 104 255 150 104 255 151 102 253 147 103 252 153 104 255 164 96 255 174 77 252 184 69 252 191 71 255 186 70 255 183 72 255 183 72 255 185 71 255 185 71 255 186 70 255 186 70 255 188 69 255 188 69 255 217 39 255 217 39 255 217 39 255 217 39 255 217 39 255 217 39 255 217 39 255 217 39 255 219 38 253 216 39 252 220 41 255 229 33 255 237 14 252 247 5 250 252 8 255 247 7 254 247 7 254 247 7 254 247 7 254 247 7 254 247 7 254 247 7 254 247 7 254 247 7 254 255 22 255 255 22 255 255 22 255 255 22 255 255 22 255 255 22 255 255 22 255 255 22 255 253 25 255 253 20 252 255 21 251 249 25 246 255 53 255 250 58 255 255 59 255 255 53 249 254 56 255 254 56 255 254 56 255 254 56 255 254 56 255 254 56 255 254 56 255 254 56 255 255 88 254 255 88 254 255 88 254 255 88 254 255 88 254 255 88 254 255 88 254 255 88 254 252 89 255 255 85 255 255 89 255 252 91 247 255 117 255 249 119 255 253 122 254 255 119 252 255 121 255 255 121 255 255 121 255 255 121 255 255 121 255 255 121 255 255 121 255 255 121 255 255 154 255 255 154 255 255 154 255 255 154 255 255 154 255 255 154 255 255 154 255 255 154 255 251 152 255 255 149 255 255 153 255 251 154 247 255 181 255 248 182 254 253 186 255 255 183 252 254 182 255 254 182 255 254 182 255 254 182 255 254 182 255 254 182 255 254 182 255 254 182 255 254 216 255 254 216 255 254 216 255 254 216 255 254 216 255 254 216 255 254 216 255 254 216 255 251 219 255 254 213 253 255 215 251 248 218 246 255 248 255 250 250 255 253 252 255 255 247 252 255 245 255 254 249 255 250 251 255 252 249 255 255 246 255 255 246 255 248 251 255 240 255 255 21 215 242 32 228 254 30 230 255 23 227 251 24 230 253 25 229 253 25 227 251 29 229 254 27 227 253 23 227 252 28 229 255 38 222 255 46 204 252 56 195 252 62 198 255 57 197 255 57 197 255 57 197 255 57 197 255 58 197 255 60 196 255 60 196 255 61 195 255 61 195 255 90 165 255 90 165 255 90 165 255 90 165 255 90 165 255 90 165 255 90 165 255 90 165 255 90 165 255 25 230 255 25 230 255 25 230 255 25 230 255 25 230 255 25 230 255 25 230 255 25 230 255 28 230 252 21 230 252 27 233 255 37 224 255 45 206 250 56 197 251 61 200 255 55 200 255 58 198 255 58 198 255 58 198 255 
58 198 255 58 198 255 58 198 255 58 198 255 58 198 255 84 168 255 84 168 255 86 167 255 86 167 255 87 167 255 87 167 255 89 166 255 89 166 255 85 167 253 81 167 252 87 168 255 98 161 255 108 142 252 118 133 252 125 135 255 120 134 255 119 135 255 119 135 255 120 134 255 120 134 255 122 134 255 123 133 255 123 133 255 123 133 255 150 104 255 150 104 255 150 104 255 150 104 255 150 104 255 150 104 255 150 104 255 150 104 255 151 102 253 147 103 252 153 104 255 164 96 255 174 77 252 184 69 252 191 71 255 186 70 255 183 72 255 183 72 255 185 71 255 185 71 255 186 70 255 186 70 255 188 69 255 188 69 255 217 39 255 217 39 255 217 39 255 217 39 255 217 39 255 217 39 255 217 39 255 217 39 255 219 38 253 216 39 252 220 41 255 229 33 255 237 14 252 247 5 250 252 8 255 247 7 254 247 7 254 247 7 254 247 7 254 247 7 254 247 7 254 247 7 254 247 7 254 247 7 254 255 22 255 255 22 255 255 22 255 255 22 255 255 22 255 255 22 255 255 22 255 255 22 255 253 25 255 253 20 252 255 21 251 249 25 246 255 53 255 250 58 255 255 59 255 255 53 249 254 56 255 254 56 255 254 56 255 254 56 255 254 56 255 254 56 255 254 56 255 254 56 255 255 88 254 255 88 254 255 88 254 255 88 254 255 88 254 255 88 254 255 88 254 255 88 254 252 89 255 255 85 255 255 89 255 252 91 247 255 117 255 249 119 255 253 122 254 255 119 252 255 121 255 255 121 255 255 121 255 255 121 255 255 121 255 255 121 255 255 121 255 255 121 255 255 154 255 255 154 255 255 154 255 255 154 255 255 154 255 255 154 255 255 154 255 255 154 255 251 152 255 255 149 255 255 153 255 251 154 247 255 181 255 248 182 254 253 186 255 255 183 252 254 182 255 254 182 255 254 182 255 254 182 255 254 182 255 254 182 255 254 182 255 254 182 255 254 216 255 254 216 255 254 216 255 254 216 255 254 216 255 254 216 255 254 216 255 254 216 255 251 219 255 254 213 253 255 215 251 248 218 246 255 248 255 250 250 255 253 252 255 255 247 252 255 245 255 254 249 255 250 251 255 252 249 255 255 246 255 255 246 255 248 251 255 240 255 255 21 215 242 32 228 254 30 230 255 23 227 251 24 230 253 25 229 253 25 227 251 29 229 254 27 227 253 23 227 252 28 229 255 38 222 255 46 204 252 56 195 252 62 198 255 57 197 255 57 197 255 57 197 255 57 197 255 58 197 255 60 196 255 60 196 255 61 195 255 61 195 255 90 165 255 90 165 255 90 165 255 90 165 255 90 165 255 90 165 255 90 165 255 90 165 255 90 165 255 25 230 255 25 230 255 25 230 255 25 230 255 25 230 255 25 230 255 25 230 255 25 230 255 28 230 252 21 230 252 27 233 255 37 224 255 45 206 250 56 197 251 61 200 255 55 200 255 58 198 255 58 198 255 58 198 255 58 198 255 58 198 255 58 198 255 58 198 255 58 198 255 84 168 255 84 168 255 86 167 255 86 167 255 87 167 255 87 167 255 89 166 255 89 166 255 85 167 253 81 167 252 87 168 255 98 161 255 108 142 252 118 133 252 125 135 255 120 134 255 119 135 255 119 135 255 120 134 255 120 134 255 122 134 255 123 133 255 123 133 255 123 133 255 150 104 255 150 104 255 
150 104 255 150 104 255 150 104 255 150 104 255 150 104 255 150 104 255 151 102 253 147 103 252 153 104 255 164 96 255 174 77 252 184 69 252 191 71 255 186 70 255 183 72 255 183 72 255 185 71 255 185 71 255 186 70 255 186 70 255 188 69 255 188 69 255 217 39 255 217 39 255 217 39 255 217 39 255 217 39 255 217 39 255 217 39 255 217 39 255 219 38 253 216 39 252 220 41 255 229 33 255 237 14 252 247 5 250 252 8 255 247 7 254 247 7 254 247 7 254 247 7 254 247 7 254 247 7 254 247 7 254 247 7 254 247 7 254 255 22 255 255 22 255 255 22 255 255 22 255 255 22 255 255 22 255 255 22 255 255 22 255 253 25 255 253 20 252 255 21 251 249 25 246 255 53 255 250 58 255 255 59 255 255 53 249 254 56 255 254 56 255 254 56 255 254 56 255 254 56 255 254 56 255 254 56 255 254 56 255 255 88 254 255 88 254 255 88 254 255 88 254 255 88 254 255 88 254 255 88 254 255 88 254 252 89 255 255 85 255 255 89 255 252 91 247 255 117 255 249 119 255 253 122 254 255 119 252 255 121 255 255 121 255 255 121 255 255 121 255 255 121 255 255 121 255 255 121 255 255 121 255 255 154 255 255 154 255 255 154 255 255 154 255 255 154 255 255 154 255 255 154 255 255 154 255 251 152 255 255 149 255 255 153 255 251 154 247 255 181 255 248 182 254 253 186 255 255 183 252 254 182 255 254 182 255 254 182 255 254 182 255 254 182 255 254 182 255 254 182 255 254 182 255 254 216 255 254 216 255 254 216 255 254 216 255 254 216 255 254 216 255 254 216 255 254 216 255 251 219 255 254 213 253 255 215 251 248 218 246 255 248 255 250 250 255 253 252 255 255 247 252 255 245 255 254 249 255 250 251 255 252 249 255 255 246 255 255 246 255 248 251 255 240 255 255 21 215 242 32 228 254 30 230 255 23 227 251 24 230 253 25 229 253 25 227 251 29 229 254 27 227 253 23 227 252 28 229 255 38 222 255 46 204 252 56 195 252 62 198 255 57 197 255 57 197 255 57 197 255 57 197 255 58 197 255 60 196 255 60 196 255 61 195 255 61 195 255 90 165 255 90 165 255 90 165 255 90 165 255 90 165 255 90 165 255 90 165 255 90 165 255 90 165 255 25 230 255 25 230 255 25 230 255 25 230 255 25 230 255 25 230 255 25 230 255 25 230 255 28 230 252 21 230 252 27 233 255 37 224 255 45 206 250 56 197 251 61 200 255 55 200 255 58 198 255 58 198 255 58 198 255 58 198 255 58 198 255 58 198 255 58 198 255 58 198 255 84 168 255 84 168 255 86 167 255 86 167 255 87 167 255 87 167 255 89 166 255 89 166 255 85 167 253 81 167 252 87 168 255 98 161 255 108 142 252 118 133 252 125 135 255 120 134 255 119 135 255 119 135 255 120 134 255 120 134 255 122 134 255 123 133 255 123 133 255 123 133 255 150 104 255 150 104 255 150 104 255 150 104 255 150 104 255 150 104 255 150 104 255 150 104 255 151 102 253 147 103 252 153 104 255 164 96 255 174 77 252 184 69 252 191 71 255 186 70 255 183 72 255 183 72 255 185 71 255 185 71 255 186 70 255 186 70 255 188 69 255 188 69 255 217 39 255 217 39 255 217 39 255 217 39 255 217 39 255 217 39 255 217 39 255 217 39 255 219 38 253 
216 39 252 220 41 255 229 33 255 237 14 252 247 5 250 252 8 255 247 7 254 247 7 254 247 7 254 247 7 254 247 7 254 247 7 254 247 7 254 247 7 254 247 7 254 255 22 255 255 22 255 255 22 255 255 22 255 255 22 255 255 22 255 255 22 255 255 22 255 253 25 255 253 20 252 255 21 251 249 25 246 255 53 255 250 58 255 255 59 255 255 53 249 254 56 255 254 56 255 254 56 255 254 56 255 254 56 255 254 56 255 254 56 255 254 56 255 255 88 254 255 88 254 255 88 254 255 88 254 255 88 254 255 88 254 255 88 254 255 88 254 252 89 255 255 85 255 255 89 255 252 91 247 255 117 255 249 119 255 253 122 254 255 119 252 255 121 255 255 121 255 255 121 255 255 121 255 255 121 255 255 121 255 255 121 255 255 121 255 255 154 255 255 154 255 255 154 255 255 154 255 255 154 255 255 154 255 255 154 255 255 154 255 251 152 255 255 149 255 255 153 255 251 154 247 255 181 255 248 182 254 253 186 255 255 183 252 254 182 255 254 182 255 254 182 255 254 182 255 254 182 255 254 182 255 254 182 255 254 182 255 254 216 255 254 216 255 254 216 255 254 216 255 254 216 255 254 216 255 254 216 255 254 216 255 251 219 255 254 213 253 255 215 251 248 218 246 255 248 255 250 250 255 253 252 255 255 247 252 255 245 255 254 249 255 250 251 255 252 249 255 255 246 255 255 246 255 248 251 255 240 255 255 21 215 242 32 228 254 30 230 255 23 227 251 24 230 253 25 229 253 25 227 251 29 229 254 27 227 253 23 227 252 28 229 255 38 222 255 46 204 252 56 195 252 62 198 255 57 197 255 57 197 255 57 197 255 57 197 255 58 197 255 60 196 255 60 196 255 61 195 255 61 195 255 90 165 255 90 165 255 90 165 255 90 165 255 90 165 255 90 165 255 90 165 255 90 165 255 90 165 255 28 227 255 28 227 255 28 227 255 28 227 255 28 227 255 28 227 255 28 227 255 28 227 255 27 227 253 23 227 252 28 229 255 38 222 255 46 204 252 56 195 252 62 198 255 57 197 255 57 197 255 57 197 255 57 197 255 58 197 255 60 196 255 60 196 255 61 195 255 61 195 255 90 165 255 90 165 255 90 165 255 90 165 255 90 165 255 90 165 255 90 165 255 90 165 255 89 165 253 85 165 252 91 166 255 103 158 255 110 140 252 121 131 252 128 134 255 123 133 255 120 134 255 122 134 255 122 134 255 123 133 255 123 133 255 124 132 255 124 132 255 126 132 255 154 101 254 154 101 254 154 101 254 154 101 254 154 101 254 154 101 254 154 101 254 154 101 254 154 99 252 150 100 251 155 102 255 166 94 255 174 76 251 183 68 251 188 69 255 184 70 254 187 68 254 187 68 254 187 68 254 187 68 254 187 68 254 187 68 254 187 68 254 187 68 254 216 38 254 216 38 254 217 38 254 217 38 254 218 37 254 218 37 254 220 36 254 220 36 254 219 35 253 215 36 252 219 38 255 230 30 255 239 12 252 248 4 252 252 6 255 249 6 255 249 6 255 249 6 255 249 6 255 249 6 255 249 6 255 249 6 255 249 6 255 249 6 255 255 26 255 255 26 255 255 26 255 255 26 255 255 26 255 255 26 255 255 26 255 255 26 255 251 28 255 255 25 255 255 29 255 251 30 247 255 56 255 248 58 254 252 61 253 255 58 252 
253 59 254 253 59 254 253 59 254 253 59 254 253 59 254 253 59 254 253 59 254 253 59 254 255 90 255 255 90 255 255 90 255 255 90 255 255 90 255 255 90 255 255 90 255 255 90 255 254 93 255 255 87 254 255 88 252 250 91 245 255 121 255 251 124 255 254 125 254 255 119 249 255 121 254 255 121 254 255 121 254 255 121 254 255 121 254 255 121 254 255 121 254 255 121 254 255 154 254 255 154 254 255 154 254 255 154 254 255 154 254 255 154 254 255 154 254 255 154 254 251 155 255 254 152 252 255 155 253 250 157 246 255 183 255 246 185 254 253 188 254 255 185 251 255 185 255 255 185 255 255 185 255 255 185 255 255 185 255 255 185 255 255 185 255 255 185 255 254 218 255 254 218 255 254 218 255 254 218 255 254 218 255 254 218 255 254 218 255 254 218 255 252 220 255 255 215 252 255 217 251 249 219 245 255 249 255 252 253 255 254 254 254 255 248 249 254 251 255 255 251 255 255 249 255 255 249 255 253 250 255 250 251 255 245 253 255 243 254 255 26 215 244 30 224 251 32 230 255 27 228 254 23 227 254 26 227 255 29 228 255 29 226 255 27 228 254 23 229 253 29 230 255 39 221 255 48 202 252 58 193 251 65 195 255 60 194 255 59 195 255 59 195 255 60 194 255 60 194 255 61 193 255 63 193 255 63 193 255 63 193 255 90 163 255 90 163 255 90 163 255 90 163 255 90 163 255 90 163 255 90 163 255 90 163 255 93 162 255 28 227 255 28 227 255 28 227 255 28 227 255 28 227 255 28 227 255 28 227 255 28 227 255 27 227 253 23 227 252 28 229 255 38 222 255 46 204 252 56 195 252 62 198 255 57 197 255 57 197 255 57 197 255 57 197 255 58 197 255 60 196 255 60 196 255 61 195 255 61 195 255 90 165 255 90 165 255 90 165 255 90 165 255 90 165 255 90 165 255 90 165 255 90 165 255 89 165 253 85 165 252 91 166 255 103 158 255 110 140 252 121 131 252 128 134 255 123 133 255 120 134 255 122 134 255 122 134 255 123 133 255 123 133 255 124 132 255 124 132 255 126 132 255 154 101 254 154 101 254 154 101 254 154 101 254 154 101 254 154 101 254 154 101 254 154 101 254 154 99 252 150 100 251 155 102 255 166 94 255 174 76 251 183 68 251 188 69 255 184 70 254 187 68 254 187 68 254 187 68 254 187 68 254 187 68 254 187 68 254 187 68 254 187 68 254 216 38 254 216 38 254 217 38 254 217 38 254 218 37 254 218 37 254 220 36 254 220 36 254 219 35 253 215 36 252 219 38 255 230 30 255 239 12 252 248 4 252 252 6 255 249 6 255 249 6 255 249 6 255 249 6 255 249 6 255 249 6 255 249 6 255 249 6 255 249 6 255 255 26 255 255 26 255 255 26 255 255 26 255 255 26 255 255 26 255 255 26 255 255 26 255 251 28 255 255 25 255 255 29 255 251 30 247 255 56 255 248 58 254 252 61 253 255 58 252 253 59 254 253 59 254 253 59 254 253 59 254 253 59 254 253 59 254 253 59 254 253 59 254 255 90 255 255 90 255 255 90 255 255 90 255 255 90 255 255 90 255 255 90 255 255 90 255 254 93 255 255 87 254 255 88 252 250 91 245 255 121 255 251 124 255 254 125 254 255 119 249 255 121 254 255 121 254 255 121 254 255 121 254 255 121 254 255 121 254 255 121 254 
255 121 254 255 154 254 255 154 254 255 154 254 255 154 254 255 154 254 255 154 254 255 154 254 255 154 254 251 155 255 254 152 252 255 155 253 250 157 246 255 183 255 246 185 254 253 188 254 255 185 251 255 185 255 255 185 255 255 185 255 255 185 255 255 185 255 255 185 255 255 185 255 255 185 255 254 218 255 254 218 255 254 218 255 254 218 255 254 218 255 254 218 255 254 218 255 254 218 255 252 220 255 255 215 252 255 217 251 249 219 245 255 249 255 252 253 255 254 254 254 255 248 249 254 251 255 255 251 255 255 249 255 255 249 255 253 250 255 250 251 255 245 253 255 243 254 255 26 215 244 30 224 251 32 230 255 27 228 254 23 227 254 26 227 255 29 228 255 29 226 255 27 228 254 23 229 253 29 230 255 39 221 255 48 202 252 58 193 251 65 195 255 60 194 255 59 195 255 59 195 255 60 194 255 60 194 255 61 193 255 63 193 255 63 193 255 63 193 255 90 163 255 90 163 255 90 163 255 90 163 255 90 163 255 90 163 255 90 163 255 90 163 255 93 162 255 28 227 255 28 227 255 28 227 255 28 227 255 28 227 255 28 227 255 28 227 255 28 227 255 27 227 253 23 227 252 28 229 255 38 222 255 46 204 252 56 195 252 62 198 255 57 197 255 57 197 255 57 197 255 57 197 255 58 197 255 60 196 255 60 196 255 61 195 255 61 195 255 90 165 255 90 165 255 90 165 255 90 165 255 90 165 255 90 165 255 90 165 255 90 165 255 89 165 253 85 165 252 91 166 255 103 158 255 110 140 252 121 131 252 128 134 255 123 133 255 120 134 255 122 134 255 122 134 255 123 133 255 123 133 255 124 132 255 124 132 255 126 132 255 154 101 254 154 101 254 154 101 254 154 101 254 154 101 254 154 101 254 154 101 254 154 101 254 154 99 252 150 100 251 155 102 255 166 94 255 174 76 251 183 68 251 188 69 255 184 70 254 187 68 254 187 68 254 187 68 254 187 68 254 187 68 254 187 68 254 187 68 254 187 68 254 216 38 254 216 38 254 217 38 254 217 38 254 218 37 254 218 37 254 220 36 254 220 36 254 219 35 253 215 36 252 219 38 255 230 30 255 239 12 252 248 4 252 252 6 255 249 6 255 249 6 255 249 6 255 249 6 255 249 6 255 249 6 255 249 6 255 249 6 255 249 6 255 255 26 255 255 26 255 255 26 255 255 26 255 255 26 255 255 26 255 255 26 255 255 26 255 251 28 255 255 25 255 255 29 255 251 30 247 255 56 255 248 58 254 252 61 253 255 58 252 253 59 254 253 59 254 253 59 254 253 59 254 253 59 254 253 59 254 253 59 254 253 59 254 255 90 255 255 90 255 255 90 255 255 90 255 255 90 255 255 90 255 255 90 255 255 90 255 254 93 255 255 87 254 255 88 252 250 91 245 255 121 255 251 124 255 254 125 254 255 119 249 255 121 254 255 121 254 255 121 254 255 121 254 255 121 254 255 121 254 255 121 254 255 121 254 255 154 254 255 154 254 255 154 254 255 154 254 255 154 254 255 154 254 255 154 254 255 154 254 251 155 255 254 152 252 255 155 253 250 157 246 255 183 255 246 185 254 253 188 254 255 185 251 255 185 255 255 185 255 255 185 255 255 185 255 255 185 255 255 185 255 255 185 255 255 185 255 254 218 255 254 218 255 254 218 255 254 218 255 254 218 255 254 218 255 
254 218 255 254 218 255 252 220 255 255 215 252 255 217 251 249 219 245 255 249 255 252 253 255 254 254 254 255 248 249 254 251 255 255 251 255 255 249 255 255 249 255 253 250 255 250 251 255 245 253 255 243 254 255 26 215 244 30 224 251 32 230 255 27 228 254 23 227 254 26 227 255 29 228 255 29 226 255 27 228 254 23 229 253 29 230 255 39 221 255 48 202 252 58 193 251 65 195 255 60 194 255 59 195 255 59 195 255 60 194 255 60 194 255 61 193 255 63 193 255 63 193 255 63 193 255 90 163 255 90 163 255 90 163 255 90 163 255 90 163 255 90 163 255 90 163 255 90 163 255 93 162 255 28 227 255 28 227 255 28 227 255 28 227 255 28 227 255 28 227 255 28 227 255 28 227 255 27 227 253 23 227 252 28 229 255 38 222 255 46 204 252 56 195 252 62 198 255 57 197 255 57 197 255 57 197 255 57 197 255 58 197 255 60 196 255 60 196 255 61 195 255 61 195 255 90 165 255 90 165 255 90 165 255 90 165 255 90 165 255 90 165 255 90 165 255 90 165 255 89 165 253 85 165 252 91 166 255 103 158 255 110 140 252 121 131 252 128 134 255 123 133 255 120 134 255 122 134 255 122 134 255 123 133 255 123 133 255 124 132 255 124 132 255 126 132 255 154 101 254 154 101 254 154 101 254 154 101 254 154 101 254 154 101 254 154 101 254 154 101 254 154 99 252 150 100 251 155 102 255 166 94 255 174 76 251 183 68 251 188 69 255 184 70 254 187 68 254 187 68 254 187 68 254 187 68 254 187 68 254 187 68 254 187 68 254 187 68 254 216 38 254 216 38 254 217 38 254 217 38 254 218 37 254 218 37 254 220 36 254 220 36 254 219 35 253 215 36 252 219 38 255 230 30 255 239 12 252 248 4 252 252 6 255 249 6 255 249 6 255 249 6 255 249 6 255 249 6 255 249 6 255 249 6 255 249 6 255 249 6 255 255 26 255 255 26 255 255 26 255 255 26 255 255 26 255 255 26 255 255 26 255 255 26 255 251 28 255 255 25 255 255 29 255 251 30 247 255 56 255 248 58 254 252 61 253 255 58 252 253 59 254 253 59 254 253 59 254 253 59 254 253 59 254 253 59 254 253 59 254 253 59 254 255 90 255 255 90 255 255 90 255 255 90 255 255 90 255 255 90 255 255 90 255 255 90 255 254 93 255 255 87 254 255 88 252 250 91 245 255 121 255 251 124 255 254 125 254 255 119 249 255 121 254 255 121 254 255 121 254 255 121 254 255 121 254 255 121 254 255 121 254 255 121 254 255 154 254 255 154 254 255 154 254 255 154 254 255 154 254 255 154 254 255 154 254 255 154 254 251 155 255 254 152 252 255 155 253 250 157 246 255 183 255 246 185 254 253 188 254 255 185 251 255 185 255 255 185 255 255 185 255 255 185 255 255 185 255 255 185 255 255 185 255 255 185 255 254 218 255 254 218 255 254 218 255 254 218 255 254 218 255 254 218 255 254 218 255 254 218 255 252 220 255 255 215 252 255 217 251 249 219 245 255 249 255 252 253 255 254 254 254 255 248 249 254 251 255 255 251 255 255 249 255 255 249 255 253 250 255 250 251 255 245 253 255 243 254 255 26 215 244 30 224 251 32 230 255 27 228 254 23 227 254 26 227 255 29 228 255 29 226 255 27 228 254 23 229 253 29 230 255 39 221 255 48 202 252 
58 193 251 65 195 255 60 194 255 59 195 255 59 195 255 60 194 255 60 194 255 61 193 255 63 193 255 63 193 255 63 193 255 90 163 255 90 163 255 90 163 255 90 163 255 90 163 255 90 163 255 90 163 255 90 163 255 93 162 255 28 227 255 28 227 255 28 227 255 28 227 255 28 227 255 28 227 255 28 227 255 28 227 255 27 227 253 23 227 252 28 229 255 38 222 255 46 204 252 56 195 252 62 198 255 57 197 255 57 197 255 57 197 255 57 197 255 58 197 255 60 196 255 60 196 255 61 195 255 61 195 255 90 165 255 90 165 255 90 165 255 90 165 255 90 165 255 90 165 255 90 165 255 90 165 255 89 165 253 85 165 252 91 166 255 103 158 255 110 140 252 121 131 252 128 134 255 123 133 255 120 134 255 122 134 255 122 134 255 123 133 255 123 133 255 124 132 255 124 132 255 126 132 255 154 101 254 154 101 254 154 101 254 154 101 254 154 101 254 154 101 254 154 101 254 154 101 254 154 99 252 150 100 251 155 102 255 166 94 255 174 76 251 183 68 251 188 69 255 184 70 254 187 68 254 187 68 254 187 68 254 187 68 254 187 68 254 187 68 254 187 68 254 187 68 254 216 38 254 216 38 254 217 38 254 217 38 254 218 37 254 218 37 254 220 36 254 220 36 254 219 35 253 215 36 252 219 38 255 230 30 255 239 12 252 248 4 252 252 6 255 249 6 255 249 6 255 249 6 255 249 6 255 249 6 255 249 6 255 249 6 255 249 6 255 249 6 255 255 26 255 255 26 255 255 26 255 255 26 255 255 26 255 255 26 255 255 26 255 255 26 255 251 28 255 255 25 255 255 29 255 251 30 247 255 56 255 248 58 254 252 61 253 255 58 252 253 59 254 253 59 254 253 59 254 253 59 254 253 59 254 253 59 254 253 59 254 253 59 254 255 90 255 255 90 255 255 90 255 255 90 255 255 90 255 255 90 255 255 90 255 255 90 255 254 93 255 255 87 254 255 88 252 250 91 245 255 121 255 251 124 255 254 125 254 255 119 249 255 121 254 255 121 254 255 121 254 255 121 254 255 121 254 255 121 254 255 121 254 255 121 254 255 154 254 255 154 254 255 154 254 255 154 254 255 154 254 255 154 254 255 154 254 255 154 254 251 155 255 254 152 252 255 155 253 250 157 246 255 183 255 246 185 254 253 188 254 255 185 251 255 185 255 255 185 255 255 185 255 255 185 255 255 185 255 255 185 255 255 185 255 255 185 255 254 218 255 254 218 255 254 218 255 254 218 255 254 218 255 254 218 255 254 218 255 254 218 255 252 220 255 255 215 252 255 217 251 249 219 245 255 249 255 252 253 255 254 254 254 255 248 249 254 251 255 255 251 255 255 249 255 255 249 255 253 250 255 250 251 255 245 253 255 243 254 255 26 215 244 30 224 251 32 230 255 27 228 254 23 227 254 26 227 255 29 228 255 29 226 255 27 228 254 23 229 253 29 230 255 39 221 255 48 202 252 58 193 251 65 195 255 60 194 255 59 195 255 59 195 255 60 194 255 60 194 255 61 193 255 63 193 255 63 193 255 63 193 255 90 163 255 90 163 255 90 163 255 90 163 255 90 163 255 90 163 255 90 163 255 90 163 255 93 162 255 28 227 255 28 227 255 28 227 255 28 227 255 28 227 255 28 227 255 28 227 255 28 227 255 27 227 253 23 227 252 28 229 255 
38 222 255 46 204 252 56 195 252 62 198 255 57 197 255 57 197 255 57 197 255 57 197 255 58 197 255 60 196 255 60 196 255 61 195 255 61 195 255 90 165 255 90 165 255 90 165 255 90 165 255 90 165 255 90 165 255 90 165 255 90 165 255 89 165 253 85 165 252 91 166 255 103 158 255 110 140 252 121 131 252 128 134 255 123 133 255 120 134 255 122 134 255 122 134 255 123 133 255 123 133 255 124 132 255 124 132 255 126 132 255 154 101 254 154 101 254 154 101 254 154 101 254 154 101 254 154 101 254 154 101 254 154 101 254 154 99 252 150 100 251 155 102 255 166 94 255 174 76 251 183 68 251 188 69 255 184 70 254 187 68 254 187 68 254 187 68 254 187 68 254 187 68 254 187 68 254 187 68 254 187 68 254 216 38 254 216 38 254 217 38 254 217 38 254 218 37 254 218 37 254 220 36 254 220 36 254 219 35 253 215 36 252 219 38 255 230 30 255 239 12 252 248 4 252 252 6 255 249 6 255 249 6 255 249 6 255 249 6 255 249 6 255 249 6 255 249 6 255 249 6 255 249 6 255 255 26 255 255 26 255 255 26 255 255 26 255 255 26 255 255 26 255 255 26 255 255 26 255 251 28 255 255 25 255 255 29 255 251 30 247 255 56 255 248 58 254 252 61 253 255 58 252 253 59 254 253 59 254 253 59 254 253 59 254 253 59 254 253 59 254 253 59 254 253 59 254 255 90 255 255 90 255 255 90 255 255 90 255 255 90 255 255 90 255 255 90 255 255 90 255 254 93 255 255 87 254 255 88 252 250 91 245 255 121 255 251 124 255 254 125 254 255 119 249 255 121 254 255 121 254 255 121 254 255 121 254 255 121 254 255 121 254 255 121 254 255 121 254 255 154 254 255 154 254 255 154 254 255 154 254 255 154 254 255 154 254 255 154 254 255 154 254 251 155 255 254 152 252 255 155 253 250 157 246 255 183 255 246 185 254 253 188 254 255 185 251 255 185 255 255 185 255 255 185 255 255 185 255 255 185 255 255 185 255 255 185 255 255 185 255 254 218 255 254 218 255 254 218 255 254 218 255 254 218 255 254 218 255 254 218 255 254 218 255 252 220 255 255 215 252 255 217 251 249 219 245 255 249 255 252 253 255 254 254 254 255 248 249 254 251 255 255 251 255 255 249 255 255 249 255 253 250 255 250 251 255 245 253 255 243 254 255 26 215 244 30 224 251 32 230 255 27 228 254 23 227 254 26 227 255 29 228 255 29 226 255 27 228 254 23 229 253 29 230 255 39 221 255 48 202 252 58 193 251 65 195 255 60 194 255 59 195 255 59 195 255 60 194 255 60 194 255 61 193 255 63 193 255 63 193 255 63 193 255 90 163 255 90 163 255 90 163 255 90 163 255 90 163 255 90 163 255 90 163 255 90 163 255 93 162 255 28 227 255 28 227 255 28 227 255 28 227 255 28 227 255 28 227 255 28 227 255 28 227 255 27 227 253 23 227 252 28 229 255 38 222 255 46 204 252 56 195 252 62 198 255 57 197 255 57 197 255 57 197 255 57 197 255 58 197 255 60 196 255 60 196 255 61 195 255 61 195 255 90 165 255 90 165 255 90 165 255 90 165 255 90 165 255 90 165 255 90 165 255 90 165 255 89 165 253 85 165 252 91 166 255 103 158 255 110 140 252 121 131 252 128 134 255 123 133 255 120 134 255 122 134 255 
122 134 255 123 133 255 123 133 255 124 132 255 124 132 255 126 132 255 154 101 254 154 101 254 154 101 254 154 101 254 154 101 254 154 101 254 154 101 254 154 101 254 154 99 252 150 100 251 155 102 255 166 94 255 174 76 251 183 68 251 188 69 255 184 70 254 187 68 254 187 68 254 187 68 254 187 68 254 187 68 254 187 68 254 187 68 254 187 68 254 216 38 254 216 38 254 217 38 254 217 38 254 218 37 254 218 37 254 220 36 254 220 36 254 219 35 253 215 36 252 219 38 255 230 30 255 239 12 252 248 4 252 252 6 255 249 6 255 249 6 255 249 6 255 249 6 255 249 6 255 249 6 255 249 6 255 249 6 255 249 6 255 255 26 255 255 26 255 255 26 255 255 26 255 255 26 255 255 26 255 255 26 255 255 26 255 251 28 255 255 25 255 255 29 255 251 30 247 255 56 255 248 58 254 252 61 253 255 58 252 253 59 254 253 59 254 253 59 254 253 59 254 253 59 254 253 59 254 253 59 254 253 59 254 255 90 255 255 90 255 255 90 255 255 90 255 255 90 255 255 90 255 255 90 255 255 90 255 254 93 255 255 87 254 255 88 252 250 91 245 255 121 255 251 124 255 254 125 254 255 119 249 255 121 254 255 121 254 255 121 254 255 121 254 255 121 254 255 121 254 255 121 254 255 121 254 255 154 254 255 154 254 255 154 254 255 154 254 255 154 254 255 154 254 255 154 254 255 154 254 251 155 255 254 152 252 255 155 253 250 157 246 255 183 255 246 185 254 253 188 254 255 185 251 255 185 255 255 185 255 255 185 255 255 185 255 255 185 255 255 185 255 255 185 255 255 185 255 254 218 255 254 218 255 254 218 255 254 218 255 254 218 255 254 218 255 254 218 255 254 218 255 252 220 255 255 215 252 255 217 251 249 219 245 255 249 255 252 253 255 254 254 254 255 248 249 254 251 255 255 251 255 255 249 255 255 249 255 253 250 255 250 251 255 245 253 255 243 254 255 26 215 244 30 224 251 32 230 255 27 228 254 23 227 254 26 227 255 29 228 255 29 226 255 27 228 254 23 229 253 29 230 255 39 221 255 48 202 252 58 193 251 65 195 255 60 194 255 59 195 255 59 195 255 60 194 255 60 194 255 61 193 255 63 193 255 63 193 255 63 193 255 90 163 255 90 163 255 90 163 255 90 163 255 90 163 255 90 163 255 90 163 255 90 163 255 93 162 255 28 227 255 28 227 255 28 227 255 28 227 255 28 227 255 28 227 255 28 227 255 28 227 255 27 227 253 23 227 252 28 229 255 38 222 255 46 204 252 56 195 252 62 198 255 57 197 255 57 197 255 57 197 255 57 197 255 58 197 255 60 196 255 60 196 255 61 195 255 61 195 255 90 165 255 90 165 255 90 165 255 90 165 255 90 165 255 90 165 255 90 165 255 90 165 255 89 165 253 85 165 252 91 166 255 103 158 255 110 140 252 121 131 252 128 134 255 123 133 255 120 134 255 122 134 255 122 134 255 123 133 255 123 133 255 124 132 255 124 132 255 126 132 255 154 101 254 154 101 254 154 101 254 154 101 254 154 101 254 154 101 254 154 101 254 154 101 254 154 99 252 150 100 251 155 102 255 166 94 255 174 76 251 183 68 251 188 69 255 184 70 254 187 68 254 187 68 254 187 68 254 187 68 254 187 68 254 187 68 254 187 68 254 187 68 254 216 38 254 
216 38 254 217 38 254 217 38 254 218 37 254 218 37 254 220 36 254 220 36 254 219 35 253 215 36 252 219 38 255 230 30 255 239 12 252 248 4 252 252 6 255 249 6 255 249 6 255 249 6 255 249 6 255 249 6 255 249 6 255 249 6 255 249 6 255 249 6 255 255 26 255 255 26 255 255 26 255 255 26 255 255 26 255 255 26 255 255 26 255 255 26 255 251 28 255 255 25 255 255 29 255 251 30 247 255 56 255 248 58 254 252 61 253 255 58 252 253 59 254 253 59 254 253 59 254 253 59 254 253 59 254 253 59 254 253 59 254 253 59 254 255 90 255 255 90 255 255 90 255 255 90 255 255 90 255 255 90 255 255 90 255 255 90 255 254 93 255 255 87 254 255 88 252 250 91 245 255 121 255 251 124 255 254 125 254 255 119 249 255 121 254 255 121 254 255 121 254 255 121 254 255 121 254 255 121 254 255 121 254 255 121 254 255 154 254 255 154 254 255 154 254 255 154 254 255 154 254 255 154 254 255 154 254 255 154 254 251 155 255 254 152 252 255 155 253 250 157 246 255 183 255 246 185 254 253 188 254 255 185 251 255 185 255 255 185 255 255 185 255 255 185 255 255 185 255 255 185 255 255 185 255 255 185 255 254 218 255 254 218 255 254 218 255 254 218 255 254 218 255 254 218 255 254 218 255 254 218 255 252 220 255 255 215 252 255 217 251 249 219 245 255 249 255 252 253 255 254 254 254 255 248 249 254 251 255 255 251 255 255 249 255 255 249 255 253 250 255 250 251 255 245 253 255 243 254 255 26 215 244 30 224 251 32 230 255 27 228 254 23 227 254 26 227 255 29 228 255 29 226 255 27 228 254 23 229 253 29 230 255 39 221 255 48 202 252 58 193 251 65 195 255 60 194 255 59 195 255 59 195 255 60 194 255 60 194 255 61 193 255 63 193 255 63 193 255 63 193 255 90 163 255 90 163 255 90 163 255 90 163 255 90 163 255 90 163 255 90 163 255 90 163 255 93 162 255 28 227 255 28 227 255 28 227 255 28 227 255 28 227 255 28 227 255 28 227 255 28 227 255 27 228 254 23 229 253 27 231 255 38 222 255 46 204 252 54 195 251 59 198 255 54 197 255 55 198 255 55 198 255 57 197 255 57 197 255 58 197 255 60 196 255 60 196 255 61 195 255 88 168 255 88 168 255 88 168 255 88 168 255 88 168 255 88 168 255 88 168 255 88 168 255 88 165 253 84 166 252 90 167 255 101 159 255 110 140 252 121 131 252 128 134 255 123 133 255 120 134 255 120 134 255 122 134 255 122 134 255 123 133 255 124 132 255 124 132 255 124 132 255 152 101 254 152 101 254 152 101 254 152 101 254 152 101 254 152 101 254 152 101 254 152 101 254 154 99 253 150 99 252 155 101 255 165 94 255 173 76 253 183 67 252 188 69 255 184 69 255 184 70 255 184 70 255 184 70 255 185 69 255 187 68 255 187 68 255 188 67 255 188 67 255 214 39 255 216 38 255 216 38 255 217 37 255 217 37 255 218 37 255 220 36 255 220 36 255 220 36 254 215 37 253 221 40 255 231 31 255 238 13 253 249 5 253 254 8 255 248 7 255 250 7 255 250 7 255 250 7 255 250 7 255 250 7 255 250 7 255 250 7 255 250 7 255 253 26 253 253 26 253 253 26 253 253 26 253 253 26 253 253 26 253 253 26 253 253 26 253 
249 26 255 255 24 254 255 28 254 249 28 245 255 55 255 247 57 253 251 60 252 255 57 251 253 59 254 253 59 254 253 59 254 253 59 254 253 59 254 253 59 254 253 59 254 253 59 254 255 90 255 255 90 255 255 90 255 255 90 255 255 90 255 255 90 255 255 90 255 255 90 255 252 93 255 254 87 253 255 89 252 249 92 245 255 122 255 250 124 255 253 126 255 255 121 250 255 124 255 255 124 255 255 124 255 255 124 255 255 124 255 255 124 255 255 124 255 255 124 255 254 156 255 254 156 255 254 156 255 254 156 255 254 156 255 254 156 255 254 156 255 254 156 255 251 155 255 254 152 252 255 155 253 250 157 246 255 183 255 246 185 254 253 188 254 255 185 251 254 184 254 254 184 254 254 184 254 254 184 254 254 184 254 254 184 254 254 184 254 254 184 254 255 219 255 255 219 255 255 219 255 255 219 255 255 219 255 255 219 255 255 219 255 255 219 255 250 220 255 252 214 251 255 216 250 247 219 244 255 249 255 248 252 255 252 254 253 254 248 248 254 252 255 255 251 255 255 250 254 255 250 254 253 251 254 250 251 253 245 254 253 243 255 253 25 216 244 30 224 251 31 231 255 27 228 254 23 227 254 24 228 255 29 228 255 29 226 255 31 226 254 27 227 253 31 229 255 42 220 255 50 202 252 58 193 251 63 195 255 59 195 255 59 195 255 59 195 255 60 194 255 60 194 255 61 193 255 63 193 255 63 193 255 63 193 255 90 163 255 90 163 255 90 163 255 90 163 255 90 163 255 90 163 255 90 163 255 90 163 255 92 163 255 28 227 255 28 227 255 28 227 255 28 227 255 28 227 255 28 227 255 28 227 255 28 227 255 28 228 254 23 229 253 29 230 255 38 222 255 46 204 252 55 194 251 61 197 255 54 197 255 55 198 255 57 197 255 57 197 255 58 197 255 58 197 255 60 196 255 61 195 255 61 195 255 90 167 255 90 167 255 90 167 255 90 167 255 90 167 255 90 167 255 90 167 255 90 167 255 89 165 253 85 165 252 90 167 255 101 159 255 110 140 252 121 131 252 128 134 255 123 133 255 120 134 255 120 134 255 122 134 255 122 134 255 123 133 255 124 132 255 124 132 255 126 132 255 154 101 254 154 101 254 154 101 254 154 101 254 154 101 254 154 101 254 154 101 254 154 101 254 154 99 253 150 99 252 155 101 255 165 94 255 174 75 253 183 67 252 188 69 255 184 69 255 184 70 255 184 70 255 185 69 255 185 69 255 187 68 255 188 67 255 188 67 255 188 67 255 216 38 255 216 38 255 216 38 255 217 37 255 218 37 255 218 37 255 220 36 255 220 36 255 220 36 254 216 37 253 220 39 255 231 31 255 238 13 253 249 5 253 253 7 255 250 7 255 250 7 255 250 7 255 250 7 255 250 7 255 250 7 255 250 7 255 250 7 255 250 7 255 253 26 253 253 26 253 253 26 253 253 26 253 253 26 253 253 26 253 253 26 253 253 26 253 250 27 255 255 24 254 255 28 254 250 29 246 255 55 255 247 57 253 251 60 252 255 57 251 253 59 254 253 59 254 253 59 254 253 59 254 253 59 254 253 59 254 253 59 254 253 59 254 255 90 255 255 90 255 255 90 255 255 90 255 255 90 255 255 90 255 255 90 255 255 90 255 252 93 255 254 87 253 255 89 252 249 92 245 255 122 255 250 124 255 253 126 255 
255 121 250 255 124 255 255 124 255 255 124 255 255 124 255 255 124 255 255 124 255 255 124 255 255 124 255 254 156 255 254 156 255 254 156 255 254 156 255 254 156 255 254 156 255 254 156 255 254 156 255 251 155 255 254 152 252 255 155 253 250 157 246 255 183 255 246 185 254 253 188 254 255 185 251 255 185 255 255 185 255 255 185 255 255 185 255 255 185 255 255 185 255 255 185 255 255 185 255 255 219 255 255 219 255 255 219 255 255 219 255 255 219 255 255 219 255 255 219 255 255 219 255 250 220 255 252 214 251 255 216 250 247 219 244 255 249 255 249 253 255 252 254 253 254 248 248 254 252 255 255 251 255 255 250 254 255 250 254 253 251 254 250 251 253 245 254 253 243 255 253 25 216 244 30 224 251 32 230 255 27 228 254 23 227 254 26 227 255 29 228 255 29 226 255 31 226 254 27 227 253 31 229 255 42 220 255 50 202 252 58 193 251 63 195 255 59 195 255 59 195 255 59 195 255 60 194 255 60 194 255 61 193 255 63 193 255 63 193 255 63 193 255 90 163 255 90 163 255 90 163 255 90 163 255 90 163 255 90 163 255 90 163 255 90 163 255 92 163 255 28 227 255 28 227 255 28 227 255 28 227 255 28 227 255 28 227 255 28 227 255 28 227 255 28 228 254 24 228 253 29 230 255 38 222 255 47 203 252 55 194 251 61 197 255 56 196 255 57 197 255 57 197 255 58 197 255 58 197 255 60 196 255 61 195 255 61 195 255 61 195 255 89 166 255 89 166 255 89 166 255 89 166 255 89 166 255 89 166 255 89 166 255 89 166 255 89 165 253 85 165 252 91 166 255 103 158 255 112 139 252 122 131 252 128 134 255 123 133 255 122 134 255 122 134 255 122 134 255 123 133 255 124 132 255 124 132 255 126 132 255 126 132 255 154 101 254 154 101 254 154 101 254 154 101 254 154 101 254 154 101 254 154 101 254 154 101 254 155 98 253 150 99 252 156 101 255 166 93 255 174 75 253 185 66 252 189 68 255 184 69 255 184 70 255 185 69 255 185 69 255 187 68 255 187 68 255 188 67 255 189 67 255 189 67 255 216 38 255 216 38 255 217 37 255 217 37 255 218 37 255 220 36 255 220 36 255 221 35 255 220 36 254 216 37 253 220 39 255 231 30 255 239 12 252 249 5 253 253 7 255 250 7 255 250 5 255 250 5 255 250 5 255 250 5 255 250 5 255 250 5 255 250 5 255 250 5 255 254 27 254 254 27 254 254 27 254 254 27 254 254 27 254 254 27 254 254 27 254 254 27 254 250 27 255 255 24 254 255 28 254 250 29 246 255 55 255 247 57 253 252 61 253 255 57 251 254 60 255 254 60 255 254 60 255 254 60 255 254 60 255 254 60 255 254 60 255 254 60 255 255 90 255 255 90 255 255 90 255 255 90 255 255 90 255 255 90 255 255 90 255 255 90 255 252 93 255 254 87 253 255 89 252 249 92 245 255 122 255 250 124 255 253 126 255 255 121 250 255 124 255 255 124 255 255 124 255 255 124 255 255 124 255 255 124 255 255 124 255 255 124 255 254 156 255 254 156 255 254 156 255 254 156 255 254 156 255 254 156 255 254 156 255 254 156 255 251 155 255 255 153 253 255 155 253 250 157 246 255 184 255 246 185 254 253 188 254 255 186 252 255 185 255 255 185 255 255 185 255 255 185 255 255 185 255 255 185 255 
255 185 255 255 185 255 255 219 255 255 219 255 255 219 255 255 219 255 255 219 255 255 219 255 255 219 255 255 219 255 251 221 255 252 214 251 255 216 250 248 220 245 255 249 255 249 253 255 253 255 254 254 248 248 254 252 255 255 251 255 255 250 254 255 250 254 253 251 254 250 251 253 245 254 253 243 255 253 26 215 244 30 224 251 32 230 255 27 228 254 25 226 254 26 227 255 29 228 255 29 226 255 31 226 254 27 227 253 31 229 255 42 220 255 50 202 252 58 193 251 63 195 255 59 195 255 59 195 255 59 195 255 60 194 255 60 194 255 61 193 255 63 193 255 63 193 255 63 193 255 92 163 255 92 163 255 92 163 255 92 163 255 92 163 255 92 163 255 92 163 255 92 163 255 93 162 255 28 227 255 28 227 255 28 227 255 28 227 255 28 227 255 28 227 255 28 227 255 28 227 255 29 227 254 26 227 253 30 229 255 39 221 255 47 203 252 57 193 251 62 196 255 57 196 255 57 197 255 58 197 255 58 197 255 60 196 255 61 195 255 61 195 255 62 194 255 62 194 255 90 165 255 90 165 255 90 165 255 90 165 255 90 165 255 90 165 255 90 165 255 90 165 255 90 164 253 87 164 252 91 166 255 103 158 255 112 139 252 122 131 252 129 133 255 124 132 255 122 134 255 122 134 255 123 133 255 124 132 255 124 132 255 126 132 255 126 132 255 127 131 255 155 100 254 155 100 254 155 100 254 155 100 254 155 100 254 155 100 254 155 100 254 155 100 254 155 98 253 152 99 252 156 101 255 168 92 255 175 75 253 185 66 252 189 68 255 185 68 255 185 69 255 185 69 255 187 68 255 187 68 255 188 67 255 189 67 255 189 67 255 189 67 255 217 37 255 217 37 255 217 37 255 218 37 255 220 36 255 220 36 255 221 35 255 221 35 255 221 36 254 216 35 252 222 38 255 231 30 255 240 11 252 249 3 252 255 6 255 250 5 255 250 5 255 250 5 255 250 5 255 250 5 255 250 5 255 250 5 255 250 5 255 250 5 255 254 27 254 254 27 254 254 27 254 254 27 254 254 27 254 254 27 254 254 27 254 254 27 254 250 27 255 255 25 255 255 29 255 250 29 246 255 56 255 247 57 253 252 61 253 255 58 252 254 60 255 254 60 255 254 60 255 254 60 255 254 60 255 254 60 255 254 60 255 254 60 255 255 90 255 255 90 255 255 90 255 255 90 255 255 90 255 255 90 255 255 90 255 255 90 255 252 93 255 254 87 253 255 89 252 249 92 245 255 122 255 250 124 255 253 126 255 255 121 250 255 124 255 255 124 255 255 124 255 255 124 255 255 124 255 255 124 255 255 124 255 255 124 255 254 156 255 254 156 255 254 156 255 254 156 255 254 156 255 254 156 255 254 156 255 254 156 255 252 156 255 255 153 253 255 156 254 251 158 247 255 184 255 247 186 255 254 189 255 255 186 252 255 185 255 255 185 255 255 185 255 255 185 255 255 185 255 255 185 255 255 185 255 255 185 255 255 219 255 255 219 255 255 219 255 255 219 255 255 219 255 255 219 255 255 219 255 255 219 255 251 221 255 253 215 252 255 217 251 248 220 245 255 250 255 249 253 255 253 255 254 255 249 249 254 252 255 255 251 255 255 250 254 255 250 254 253 251 254 250 251 253 245 254 253 243 255 253 27 215 244 32 223 251 34 229 255 28 228 254 25 226 254 
27 226 255 30 227 255 31 226 255 31 226 254 27 227 253 31 229 255 42 220 255 50 202 252 58 193 251 63 195 255 59 195 255 59 195 255 59 195 255 60 194 255 60 194 255 61 193 255 63 193 255 63 193 255 63 193 255 92 163 255 92 163 255 92 163 255 92 163 255 92 163 255 92 163 255 92 163 255 92 163 255 93 162 255 28 227 255 28 227 255 28 227 255 28 227 255 28 227 255 28 227 255 28 227 255 28 227 255 29 227 254 26 227 253 30 229 255 41 221 255 48 202 252 57 193 251 62 196 255 57 196 255 58 197 255 58 197 255 60 196 255 60 196 255 61 195 255 62 194 255 62 194 255 64 194 255 90 165 255 90 165 255 90 165 255 90 165 255 90 165 255 90 165 255 90 165 255 90 165 255 90 164 253 87 164 252 92 165 255 104 158 255 113 139 252 124 130 252 131 132 255 126 132 255 123 133 255 123 133 255 124 132 255 124 132 255 126 132 255 127 131 255 127 131 255 127 131 255 155 100 254 155 100 254 155 100 254 155 100 254 155 100 254 155 100 254 155 100 254 155 100 254 157 97 253 153 98 252 157 100 255 168 92 255 175 75 253 186 66 252 190 68 255 187 68 255 187 68 255 187 68 255 187 68 255 188 67 255 189 67 255 189 67 255 191 66 255 191 66 255 217 37 255 218 37 255 218 37 255 220 36 255 220 36 255 221 35 255 223 35 255 223 35 255 222 34 253 216 35 252 222 36 255 231 28 255 239 10 251 251 2 252 255 4 255 250 5 255 250 4 255 250 4 255 250 4 255 250 4 255 250 4 255 250 4 255 250 4 255 250 4 255 255 28 255 255 28 255 255 28 255 255 28 255 255 28 255 255 28 255 255 28 255 255 28 255 251 28 255 255 25 255 255 29 255 251 30 247 255 56 255 248 58 254 253 62 254 255 58 252 255 61 255 255 61 255 255 61 255 255 61 255 255 61 255 255 61 255 255 61 255 255 61 255 255 90 255 255 90 255 255 90 255 255 90 255 255 90 255 255 90 255 255 90 255 255 90 255 252 93 255 254 87 253 255 89 252 249 92 245 255 122 255 250 124 255 253 126 255 255 121 250 255 124 255 255 124 255 255 124 255 255 124 255 255 124 255 255 124 255 255 124 255 255 124 255 254 156 255 254 156 255 254 156 255 254 156 255 254 156 255 254 156 255 254 156 255 254 156 255 252 156 255 255 154 254 255 156 254 251 158 247 255 184 255 247 186 255 254 189 255 255 186 252 255 186 255 255 186 255 255 186 255 255 186 255 255 186 255 255 186 255 255 186 255 255 186 255 255 219 255 255 219 255 255 219 255 255 219 255 255 219 255 255 219 255 255 219 255 255 219 255 252 222 255 253 215 252 255 217 251 249 221 246 255 250 255 250 254 255 254 255 255 255 249 249 254 252 255 255 251 255 255 250 254 255 250 254 253 251 254 250 251 253 245 254 253 243 255 253 27 215 244 33 222 251 34 229 255 29 227 254 26 225 254 27 226 255 32 227 255 32 225 255 31 226 254 27 227 253 31 229 255 42 220 255 50 202 252 58 193 251 63 195 255 59 195 255 59 195 255 59 195 255 60 194 255 60 194 255 61 193 255 63 193 255 63 193 255 63 193 255 93 162 255 93 162 255 93 162 255 93 162 255 93 162 255 93 162 255 93 162 255 93 162 255 95 161 255 28 227 255 28 227 255 28 227 255 
28 227 255 28 227 255 28 227 255 28 227 255 28 227 255 31 226 254 27 227 253 31 229 255 41 221 255 50 202 252 58 193 251 63 195 255 59 195 255 60 196 255 60 196 255 60 196 255 61 195 255 62 194 255 62 194 255 64 194 255 64 194 255 90 163 255 90 163 255 90 163 255 90 163 255 90 163 255 90 163 255 90 163 255 90 163 255 92 163 253 88 164 252 94 165 255 105 157 255 115 138 252 125 129 252 131 132 255 126 132 255 123 133 255 124 132 255 124 132 255 126 132 255 127 131 255 127 131 255 129 130 255 129 130 255 156 99 254 156 99 254 156 99 254 156 99 254 156 99 254 156 99 254 156 99 254 156 99 254 158 97 253 153 98 252 157 100 255 169 92 255 177 74 253 186 66 252 192 67 255 187 68 255 187 68 255 187 68 255 188 67 255 189 67 255 189 67 255 191 66 255 191 66 255 192 65 255 218 37 255 218 37 255 220 36 255 220 36 255 221 35 255 223 35 255 223 35 255 223 35 255 222 34 253 217 33 251 222 36 255 233 27 255 241 9 251 250 1 251 255 4 255 250 3 255 250 4 255 250 4 255 250 4 255 250 4 255 250 4 255 250 4 255 250 4 255 250 4 255 255 28 255 255 28 255 255 28 255 255 28 255 255 28 255 255 28 255 255 28 255 255 28 255 251 28 255 255 26 255 255 29 255 251 30 247 255 57 255 248 58 254 253 62 254 255 59 253 255 61 255 255 61 255 255 61 255 255 61 255 255 61 255 255 61 255 255 61 255 255 61 255 255 90 255 255 90 255 255 90 255 255 90 255 255 90 255 255 90 255 255 90 255 255 90 255 252 93 255 254 87 253 255 89 252 249 92 245 255 122 255 250 124 255 253 126 255 255 121 250 255 124 255 255 124 255 255 124 255 255 124 255 255 124 255 255 124 255 255 124 255 255 124 255 254 156 255 254 156 255 254 156 255 254 156 255 254 156 255 254 156 255 254 156 255 254 156 255 253 157 255 255 154 254 255 157 255 252 159 248 255 185 255 248 187 255 254 189 255 255 187 253 255 186 255 255 186 255 255 186 255 255 186 255 255 186 255 255 186 255 255 186 255 255 186 255 255 219 255 255 219 255 255 219 255 255 219 255 255 219 255 255 219 255 255 219 255 255 219 255 252 222 255 254 216 253 255 218 252 249 221 246 255 251 255 250 254 255 254 255 255 255 250 250 254 252 255 255 251 255 255 250 254 255 250 254 253 251 254 250 251 253 245 254 253 243 255 253 29 214 244 33 222 251 35 229 255 29 227 254 27 225 254 28 226 255 32 227 255 32 225 255 31 226 254 27 227 253 31 229 255 42 220 255 50 202 252 58 193 251 63 195 255 59 195 255 59 195 255 59 195 255 60 194 255 60 194 255 61 193 255 63 193 255 63 193 255 63 193 255 93 162 255 93 162 255 93 162 255 93 162 255 93 162 255 93 162 255 93 162 255 93 162 255 96 161 255 28 227 255 28 227 255 28 227 255 28 227 255 28 227 255 28 227 255 28 227 255 28 227 255 32 226 254 27 227 253 31 229 255 42 220 255 50 202 252 58 193 251 65 195 255 59 195 255 60 196 255 60 196 255 61 195 255 62 194 255 62 194 255 64 194 255 64 194 255 65 193 255 90 163 255 90 163 255 90 163 255 90 163 255 90 163 255 90 163 255 90 163 255 90 163 255 93 162 253 89 163 252 
94 165 255 105 157 255 115 138 252 125 129 252 132 131 255 127 131 255 124 132 255 124 132 255 126 132 255 126 132 255 127 131 255 129 130 255 129 130 255 129 130 255 156 99 254 156 99 254 156 99 254 156 99 254 156 99 254 156 99 254 156 99 254 156 99 254 158 97 253 154 97 252 159 99 255 169 92 255 178 73 253 187 65 252 192 67 255 188 67 255 188 67 255 188 67 255 188 67 255 189 67 255 191 66 255 191 66 255 192 65 255 192 65 255 218 37 255 220 36 255 220 36 255 221 35 255 223 35 255 223 35 255 224 34 255 224 34 255 222 32 252 218 33 251 223 35 255 233 27 255 241 9 251 251 0 251 255 2 255 252 2 255 252 3 255 252 3 255 252 3 255 252 3 255 252 3 255 252 3 255 252 3 255 252 3 255 255 28 255 255 28 255 255 28 255 255 28 255 255 28 255 255 28 255 255 28 255 255 28 255 252 29 255 255 26 255 255 30 255 252 31 248 255 57 255 249 59 255 253 62 254 255 59 253 255 61 255 255 61 255 255 61 255 255 61 255 255 61 255 255 61 255 255 61 255 255 61 255 255 90 255 255 90 255 255 90 255 255 90 255 255 90 255 255 90 255 255 90 255 255 90 255 252 93 255 254 87 253 255 89 252 249 92 245 255 122 255 250 124 255 253 126 255 255 121 250 255 124 255 255 124 255 255 124 255 255 124 255 255 124 255 255 124 255 255 124 255 255 124 255 254 156 255 254 156 255 254 156 255 254 156 255 254 156 255 254 156 255 254 156 255 254 156 255 253 157 255 255 154 254 255 157 255 252 159 248 255 185 255 248 187 255 255 190 255 255 187 253 255 187 255 255 187 255 255 187 255 255 187 255 255 187 255 255 187 255 255 187 255 255 187 255 255 219 255 255 219 255 255 219 255 255 219 255 255 219 255 255 219 255 255 219 255 255 219 255 252 222 255 254 216 253 255 218 252 249 221 246 255 251 255 251 255 255 254 255 255 255 250 250 254 252 255 255 251 255 255 250 254 255 250 254 253 251 254 250 251 253 245 254 253 243 255 253 29 214 244 34 222 251 37 228 255 31 226 254 27 225 254 30 225 255 33 226 255 34 224 255 31 226 254 27 227 253 31 229 255 42 220 255 50 202 252 58 193 251 63 195 255 59 195 255 59 195 255 59 195 255 60 194 255 60 194 255 61 193 255 63 193 255 63 193 255 63 193 255 95 161 255 95 161 255 95 161 255 95 161 255 95 161 255 95 161 255 95 161 255 95 161 255 96 161 255 28 227 255 28 227 255 28 227 255 28 227 255 28 227 255 28 227 255 28 227 255 28 227 255 32 226 254 28 226 253 33 228 255 42 220 255 50 202 252 59 192 251 65 195 255 60 194 255 60 196 255 61 195 255 61 195 255 62 194 255 64 194 255 64 194 255 65 193 255 65 193 255 92 163 255 92 163 255 92 163 255 92 163 255 92 163 255 92 163 255 92 163 255 92 163 255 93 162 253 89 163 252 94 165 255 107 156 255 115 138 252 125 129 252 132 131 255 127 131 255 124 132 255 124 132 255 126 132 255 127 131 255 127 131 255 129 130 255 129 130 255 130 129 255 158 98 254 158 98 254 158 98 254 158 98 254 158 98 254 158 98 254 158 98 254 158 98 254 158 97 253 154 97 252 159 99 255 170 91 255 178 73 253 187 65 252 192 67 255 188 67 255 188 67 255 
188 67 255 189 67 255 189 67 255 191 66 255 192 65 255 192 65 255 192 65 255 220 36 255 220 36 255 220 36 255 221 35 255 223 35 255 223 35 255 224 34 255 224 34 255 222 32 252 218 33 251 223 35 255 232 26 255 241 8 250 251 0 251 255 2 255 252 2 255 251 2 254 251 2 254 251 2 254 251 2 254 251 2 254 251 2 254 251 2 254 251 2 254 255 28 255 255 28 255 255 28 255 255 28 255 255 28 255 255 28 255 255 28 255 255 28 255 252 29 255 255 26 255 255 30 255 252 31 248 255 57 255 249 59 255 254 63 255 255 59 253 255 62 255 255 62 255 255 62 255 255 62 255 255 62 255 255 62 255 255 62 255 255 62 255 255 90 255 255 90 255 255 90 255 255 90 255 255 90 255 255 90 255 255 90 255 255 90 255 252 93 255 254 87 253 255 89 252 249 92 245 255 122 255 250 124 255 253 126 255 255 121 250 255 124 255 255 124 255 255 124 255 255 124 255 255 124 255 255 124 255 255 124 255 255 124 255 254 156 255 254 156 255 254 156 255 254 156 255 254 156 255 254 156 255 254 156 255 254 156 255 253 157 255 255 155 255 255 157 255 252 159 248 255 185 255 248 187 255 255 190 255 255 187 253 255 187 255 255 187 255 255 187 255 255 187 255 255 187 255 255 187 255 255 187 255 255 187 255 255 219 255 255 219 255 255 219 255 255 219 255 255 219 255 255 219 255 255 219 255 255 219 255 253 223 255 254 216 253 255 218 252 250 222 247 255 251 255 251 255 255 254 255 255 255 250 250 254 252 255 255 251 255 255 250 254 255 250 254 253 251 254 250 251 253 245 254 253 243 255 253 30 213 244 34 222 251 37 228 255 31 226 254 27 225 254 30 225 255 33 226 255 34 224 255 31 226 254 27 227 253 31 229 255 42 220 255 50 202 252 58 193 251 63 195 255 59 195 255 59 195 255 59 195 255 60 194 255 60 194 255 61 193 255 63 193 255 63 193 255 63 193 255 95 161 255 95 161 255 95 161 255 95 161 255 95 161 255 95 161 255 95 161 255 95 161 255 96 161 255 28 227 255 28 227 255 28 227 255 28 227 255 28 227 255 28 227 255 28 227 255 28 227 255 27 228 254 23 229 253 29 230 255 39 221 255 48 202 252 58 193 251 65 195 255 60 194 255 59 195 255 59 195 255 60 194 255 60 194 255 61 193 255 63 193 255 63 193 255 63 193 255 90 163 255 90 163 255 90 163 255 90 163 255 90 163 255 90 163 255 90 163 255 90 163 255 91 162 252 87 163 251 93 164 255 104 156 255 114 137 251 124 128 251 130 129 255 126 130 255 123 131 255 123 131 255 125 131 255 125 131 255 126 130 255 126 130 255 128 129 255 128 129 255 152 101 254 154 101 254 154 101 254 155 100 254 155 100 254 156 99 254 156 99 254 158 98 254 157 97 253 152 99 252 156 101 255 168 92 255 175 75 253 186 66 252 190 68 255 185 68 255 188 67 255 188 67 255 188 67 255 189 67 255 191 66 255 191 66 255 192 65 255 192 65 255 217 36 255 219 35 255 219 35 255 220 34 255 220 34 255 222 34 255 222 34 255 223 33 255 222 32 252 217 33 251 221 35 255 233 27 255 240 8 250 251 0 251 255 2 255 250 3 255 253 4 255 252 3 255 252 3 255 252 3 255 251 2 254 251 2 254 251 2 254 250 1 253 
255 28 255 255 28 255 255 28 255 255 28 255 255 28 255 255 28 255 255 28 255 255 28 255 252 29 255 255 26 255 255 30 255 252 31 248 255 57 255 249 59 255 254 63 255 255 59 253 254 60 255 254 60 255 254 60 255 254 60 255 254 60 255 254 60 255 254 60 255 254 60 255 255 92 255 255 92 255 255 92 255 255 92 255 255 92 255 255 92 255 255 92 255 255 92 255 253 94 255 255 88 254 255 90 253 250 93 246 255 123 255 251 125 255 254 127 255 255 122 251 255 124 254 255 124 254 255 124 254 255 124 254 255 124 254 255 124 254 255 124 254 255 124 254 254 156 255 254 156 255 254 156 255 254 156 255 254 156 255 254 156 255 254 156 255 254 156 255 250 158 255 255 156 255 255 159 255 250 160 248 255 186 255 247 188 255 252 192 255 255 188 253 255 188 255 255 188 255 255 188 255 255 188 255 255 188 255 255 188 255 255 188 255 255 188 255 255 219 255 255 219 255 255 219 255 255 219 255 255 219 255 255 219 255 255 219 255 255 219 255 253 223 255 254 216 253 255 218 252 250 222 247 255 251 255 251 255 255 254 255 255 255 250 250 254 254 255 255 253 255 255 251 255 255 251 255 255 251 255 252 252 254 249 253 254 246 255 254 26 211 241 35 223 252 33 227 255 26 224 251 27 225 254 28 226 255 29 222 255 34 224 255 32 223 252 26 224 251 31 226 255 42 218 255 50 200 251 61 191 251 65 193 255 60 194 255 60 194 255 61 193 255 61 193 255 63 193 255 63 193 255 64 192 255 64 192 255 66 191 255 93 162 255 95 161 255 95 161 255 96 161 255 96 161 255 97 160 255 97 160 255 99 159 255 96 161 255 28 227 255 28 227 255 28 227 255 28 227 255 28 227 255 28 227 255 28 227 255 28 227 255 27 228 254 23 229 253 29 230 255 39 221 255 48 202 252 58 193 251 65 195 255 60 194 255 59 195 255 59 195 255 60 194 255 60 194 255 61 193 255 63 193 255 63 193 255 63 193 255 90 163 255 90 163 255 90 163 255 90 163 255 90 163 255 90 163 255 90 163 255 90 163 255 91 162 252 87 163 251 93 164 255 104 156 255 114 137 251 124 128 251 130 129 255 126 130 255 123 131 255 123 131 255 125 131 255 125 131 255 126 130 255 126 130 255 128 129 255 128 129 255 152 101 254 154 101 254 154 101 254 155 100 254 155 100 254 156 99 254 156 99 254 158 98 254 157 97 253 152 99 252 156 101 255 168 92 255 175 75 253 186 66 252 190 68 255 185 68 255 188 67 255 188 67 255 188 67 255 189 67 255 191 66 255 191 66 255 192 65 255 192 65 255 217 36 255 219 35 255 219 35 255 220 34 255 220 34 255 222 34 255 222 34 255 223 33 255 222 32 252 217 33 251 221 35 255 233 27 255 240 8 250 251 0 251 255 2 255 250 3 255 253 4 255 252 3 255 252 3 255 252 3 255 251 2 254 251 2 254 251 2 254 250 1 253 255 28 255 255 28 255 255 28 255 255 28 255 255 28 255 255 28 255 255 28 255 255 28 255 252 29 255 255 26 255 255 30 255 252 31 248 255 57 255 249 59 255 254 63 255 255 59 253 254 60 255 254 60 255 254 60 255 254 60 255 254 60 255 254 60 255 254 60 255 254 60 255 255 92 255 255 92 255 255 92 255 255 92 255 255 92 255 255 92 255 255 92 255 
255 92 255 253 94 255 255 88 254 255 90 253 250 93 246 255 123 255 251 125 255 254 127 255 255 122 251 255 124 254 255 124 254 255 124 254 255 124 254 255 124 254 255 124 254 255 124 254 255 124 254 254 156 255 254 156 255 254 156 255 254 156 255 254 156 255 254 156 255 254 156 255 254 156 255 250 158 255 255 156 255 255 159 255 250 160 248 255 186 255 247 188 255 252 192 255 255 188 253 255 188 255 255 188 255 255 188 255 255 188 255 255 188 255 255 188 255 255 188 255 255 188 255 255 219 255 255 219 255 255 219 255 255 219 255 255 219 255 255 219 255 255 219 255 255 219 255 253 223 255 254 216 253 255 218 252 250 222 247 255 251 255 251 255 255 254 255 255 255 250 250 254 254 255 255 253 255 255 251 255 255 251 255 255 251 255 252 252 254 249 253 254 246 255 254 26 211 241 35 223 252 33 227 255 26 224 251 27 225 254 28 226 255 29 222 255 34 224 255 32 223 252 26 224 251 31 226 255 42 218 255 50 200 251 61 191 251 65 193 255 60 194 255 60 194 255 61 193 255 61 193 255 63 193 255 63 193 255 64 192 255 64 192 255 66 191 255 93 162 255 95 161 255 95 161 255 96 161 255 96 161 255 97 160 255 97 160 255 99 159 255 96 161 255 28 227 255 28 227 255 28 227 255 28 227 255 28 227 255 28 227 255 28 227 255 28 227 255 27 228 254 23 229 253 29 230 255 39 221 255 48 202 252 58 193 251 65 195 255 60 194 255 59 195 255 59 195 255 60 194 255 60 194 255 61 193 255 63 193 255 63 193 255 63 193 255 90 163 255 90 163 255 90 163 255 90 163 255 90 163 255 90 163 255 90 163 255 90 163 255 91 162 252 87 163 251 93 164 255 104 156 255 114 137 251 124 128 251 130 129 255 126 130 255 123 131 255 123 131 255 125 131 255 125 131 255 126 130 255 126 130 255 128 129 255 128 129 255 152 101 254 154 101 254 154 101 254 155 100 254 155 100 254 156 99 254 156 99 254 158 98 254 157 97 253 152 99 252 156 101 255 168 92 255 175 75 253 186 66 252 190 68 255 185 68 255 188 67 255 188 67 255 188 67 255 189 67 255 191 66 255 191 66 255 192 65 255 192 65 255 217 36 255 219 35 255 219 35 255 220 34 255 220 34 255 222 34 255 222 34 255 223 33 255 222 32 252 217 33 251 221 35 255 233 27 255 240 8 250 251 0 251 255 2 255 250 3 255 253 4 255 252 3 255 252 3 255 252 3 255 251 2 254 251 2 254 251 2 254 250 1 253 255 28 255 255 28 255 255 28 255 255 28 255 255 28 255 255 28 255 255 28 255 255 28 255 252 29 255 255 26 255 255 30 255 252 31 248 255 57 255 249 59 255 254 63 255 255 59 253 254 60 255 254 60 255 254 60 255 254 60 255 254 60 255 254 60 255 254 60 255 254 60 255 255 92 255 255 92 255 255 92 255 255 92 255 255 92 255 255 92 255 255 92 255 255 92 255 253 94 255 255 88 254 255 90 253 250 93 246 255 123 255 251 125 255 254 127 255 255 122 251 255 124 254 255 124 254 255 124 254 255 124 254 255 124 254 255 124 254 255 124 254 255 124 254 254 156 255 254 156 255 254 156 255 254 156 255 254 156 255 254 156 255 254 156 255 254 156 255 250 158 255 255 156 255 255 159 255 250 160 248 255 186 255 247 188 255 
252 192 255 255 188 253 255 188 255 255 188 255 255 188 255 255 188 255 255 188 255 255 188 255 255 188 255 255 188 255 255 219 255 255 219 255 255 219 255 255 219 255 255 219 255 255 219 255 255 219 255 255 219 255 253 223 255 254 216 253 255 218 252 250 222 247 255 251 255 251 255 255 254 255 255 255 250 250 254 254 255 255 253 255 255 251 255 255 251 255 255 251 255 252 252 254 249 253 254 246 255 254 26 211 241 35 223 252 33 227 255 26 224 251 27 225 254 28 226 255 29 222 255 34 224 255 32 223 252 26 224 251 31 226 255 42 218 255 50 200 251 61 191 251 65 193 255 60 194 255 60 194 255 61 193 255 61 193 255 63 193 255 63 193 255 64 192 255 64 192 255 66 191 255 93 162 255 95 161 255 95 161 255 96 161 255 96 161 255 97 160 255 97 160 255 99 159 255 96 161 255 28 227 255 28 227 255 28 227 255 28 227 255 28 227 255 28 227 255 28 227 255 28 227 255 27 228 254 23 229 253 29 230 255 39 221 255 48 202 252 58 193 251 65 195 255 60 194 255 59 195 255 59 195 255 60 194 255 60 194 255 61 193 255 63 193 255 63 193 255 63 193 255 90 163 255 90 163 255 90 163 255 90 163 255 90 163 255 90 163 255 90 163 255 90 163 255 91 162 252 87 163 251 93 164 255 104 156 255 114 137 251 124 128 251 130 129 255 126 130 255 123 131 255 123 131 255 125 131 255 125 131 255 126 130 255 126 130 255 128 129 255 128 129 255 152 101 254 154 101 254 154 101 254 155 100 254 155 100 254 156 99 254 156 99 254 158 98 254 157 97 253 152 99 252 156 101 255 168 92 255 175 75 253 186 66 252 190 68 255 185 68 255 188 67 255 188 67 255 188 67 255 189 67 255 191 66 255 191 66 255 192 65 255 192 65 255 217 36 255 219 35 255 219 35 255 220 34 255 220 34 255 222 34 255 222 34 255 223 33 255 222 32 252 217 33 251 221 35 255 233 27 255 240 8 250 251 0 251 255 2 255 250 3 255 253 4 255 252 3 255 252 3 255 252 3 255 251 2 254 251 2 254 251 2 254 250 1 253 255 28 255 255 28 255 255 28 255 255 28 255 255 28 255 255 28 255 255 28 255 255 28 255 252 29 255 255 26 255 255 30 255 252 31 248 255 57 255 249 59 255 254 63 255 255 59 253 254 60 255 254 60 255 254 60 255 254 60 255 254 60 255 254 60 255 254 60 255 254 60 255 255 92 255 255 92 255 255 92 255 255 92 255 255 92 255 255 92 255 255 92 255 255 92 255 253 94 255 255 88 254 255 90 253 250 93 246 255 123 255 251 125 255 254 127 255 255 122 251 255 124 254 255 124 254 255 124 254 255 124 254 255 124 254 255 124 254 255 124 254 255 124 254 254 156 255 254 156 255 254 156 255 254 156 255 254 156 255 254 156 255 254 156 255 254 156 255 250 158 255 255 156 255 255 159 255 250 160 248 255 186 255 247 188 255 252 192 255 255 188 253 255 188 255 255 188 255 255 188 255 255 188 255 255 188 255 255 188 255 255 188 255 255 188 255 255 219 255 255 219 255 255 219 255 255 219 255 255 219 255 255 219 255 255 219 255 255 219 255 253 223 255 254 216 253 255 218 252 250 222 247 255 251 255 251 255 255 254 255 255 255 250 250 254 254 255 255 253 255 255 251 255 255 251 255 255 251 255 
252 252 254 249 253 254 246 255 254 26 211 241 35 223 252 33 227 255 26 224 251 27 225 254 28 226 255 29 222 255 34 224 255 32 223 252 26 224 251 31 226 255 42 218 255 50 200 251 61 191 251 65 193 255 60 194 255 60 194 255 61 193 255 61 193 255 63 193 255 63 193 255 64 192 255 64 192 255 66 191 255 93 162 255 95 161 255 95 161 255 96 161 255 96 161 255 97 160 255 97 160 255 99 159 255 96 161 255 28 227 255 28 227 255 28 227 255 28 227 255 28 227 255 28 227 255 28 227 255 28 227 255 27 228 254 23 229 253 29 230 255 39 221 255 48 202 252 58 193 251 65 195 255 60 194 255 59 195 255 59 195 255 60 194 255 60 194 255 61 193 255 63 193 255 63 193 255 63 193 255 90 163 255 90 163 255 90 163 255 90 163 255 90 163 255 90 163 255 90 163 255 90 163 255 91 162 252 87 163 251 93 164 255 104 156 255 114 137 251 124 128 251 130 129 255 126 130 255 123 131 255 123 131 255 125 131 255 125 131 255 126 130 255 126 130 255 128 129 255 128 129 255 152 101 254 154 101 254 154 101 254 155 100 254 155 100 254 156 99 254 156 99 254 158 98 254 157 97 253 152 99 252 156 101 255 168 92 255 175 75 253 186 66 252 190 68 255 185 68 255 188 67 255 188 67 255 188 67 255 189 67 255 191 66 255 191 66 255 192 65 255 192 65 255 217 36 255 219 35 255 219 35 255 220 34 255 220 34 255 222 34 255 222 34 255 223 33 255 222 32 252 217 33 251 221 35 255 233 27 255 240 8 250 251 0 251 255 2 255 250 3 255 253 4 255 252 3 255 252 3 255 252 3 255 251 2 254 251 2 254 251 2 254 250 1 253 255 28 255 255 28 255 255 28 255 255 28 255 255 28 255 255 28 255 255 28 255 255 28 255 252 29 255 255 26 255 255 30 255 252 31 248 255 57 255 249 59 255 254 63 255 255 59 253 254 60 255 254 60 255 254 60 255 254 60 255 254 60 255 254 60 255 254 60 255 254 60 255 255 92 255 255 92 255 255 92 255 255 92 255 255 92 255 255 92 255 255 92 255 255 92 255 253 94 255 255 88 254 255 90 253 250 93 246 255 123 255 251 125 255 254 127 255 255 122 251 255 124 254 255 124 254 255 124 254 255 124 254 255 124 254 255 124 254 255 124 254 255 124 254 254 156 255 254 156 255 254 156 255 254 156 255 254 156 255 254 156 255 254 156 255 254 156 255 250 158 255 255 156 255 255 159 255 250 160 248 255 186 255 247 188 255 252 192 255 255 188 253 255 188 255 255 188 255 255 188 255 255 188 255 255 188 255 255 188 255 255 188 255 255 188 255 255 219 255 255 219 255 255 219 255 255 219 255 255 219 255 255 219 255 255 219 255 255 219 255 253 223 255 254 216 253 255 218 252 250 222 247 255 251 255 251 255 255 254 255 255 255 250 250 254 254 255 255 253 255 255 251 255 255 251 255 255 251 255 252 252 254 249 253 254 246 255 254 26 211 241 35 223 252 33 227 255 26 224 251 27 225 254 28 226 255 29 222 255 34 224 255 32 223 252 26 224 251 31 226 255 42 218 255 50 200 251 61 191 251 65 193 255 60 194 255 60 194 255 61 193 255 61 193 255 63 193 255 63 193 255 64 192 255 64 192 255 66 191 255 93 162 255 95 161 255 95 161 255 96 161 255 
96 161 255 97 160 255 97 160 255 99 159 255 96 161 255 28 227 255 28 227 255 28 227 255 28 227 255 28 227 255 28 227 255 28 227 255 28 227 255 27 228 254 23 229 253 29 230 255 39 221 255 48 202 252 58 193 251 65 195 255 60 194 255 59 195 255 59 195 255 60 194 255 60 194 255 61 193 255 63 193 255 63 193 255 63 193 255 90 163 255 90 163 255 90 163 255 90 163 255 90 163 255 90 163 255 90 163 255 90 163 255 91 162 252 87 163 251 93 164 255 104 156 255 114 137 251 124 128 251 130 129 255 126 130 255 123 131 255 123 131 255 125 131 255 125 131 255 126 130 255 126 130 255 128 129 255 128 129 255 152 101 254 154 101 254 154 101 254 155 100 254 155 100 254 156 99 254 156 99 254 158 98 254 157 97 253 152 99 252 156 101 255 168 92 255 175 75 253 186 66 252 190 68 255 185 68 255 188 67 255 188 67 255 188 67 255 189 67 255 191 66 255 191 66 255 192 65 255 192 65 255 217 36 255 219 35 255 219 35 255 220 34 255 220 34 255 222 34 255 222 34 255 223 33 255 222 32 252 217 33 251 221 35 255 233 27 255 240 8 250 251 0 251 255 2 255 250 3 255 253 4 255 252 3 255 252 3 255 252 3 255 251 2 254 251 2 254 251 2 254 250 1 253 255 28 255 255 28 255 255 28 255 255 28 255 255 28 255 255 28 255 255 28 255 255 28 255 252 29 255 255 26 255 255 30 255 252 31 248 255 57 255 249 59 255 254 63 255 255 59 253 254 60 255 254 60 255 254 60 255 254 60 255 254 60 255 254 60 255 254 60 255 254 60 255 255 92 255 255 92 255 255 92 255 255 92 255 255 92 255 255 92 255 255 92 255 255 92 255 253 94 255 255 88 254 255 90 253 250 93 246 255 123 255 251 125 255 254 127 255 255 122 251 255 124 254 255 124 254 255 124 254 255 124 254 255 124 254 255 124 254 255 124 254 255 124 254 254 156 255 254 156 255 254 156 255 254 156 255 254 156 255 254 156 255 254 156 255 254 156 255 250 158 255 255 156 255 255 159 255 250 160 248 255 186 255 247 188 255 252 192 255 255 188 253 255 188 255 255 188 255 255 188 255 255 188 255 255 188 255 255 188 255 255 188 255 255 188 255 255 219 255 255 219 255 255 219 255 255 219 255 255 219 255 255 219 255 255 219 255 255 219 255 253 223 255 254 216 253 255 218 252 250 222 247 255 251 255 251 255 255 254 255 255 255 250 250 254 254 255 255 253 255 255 251 255 255 251 255 255 251 255 252 252 254 249 253 254 246 255 254 26 211 241 35 223 252 33 227 255 26 224 251 27 225 254 28 226 255 29 222 255 34 224 255 32 223 252 26 224 251 31 226 255 42 218 255 50 200 251 61 191 251 65 193 255 60 194 255 60 194 255 61 193 255 61 193 255 63 193 255 63 193 255 64 192 255 64 192 255 66 191 255 93 162 255 95 161 255 95 161 255 96 161 255 96 161 255 97 160 255 97 160 255 99 159 255 96 161 255 28 227 255 28 227 255 28 227 255 28 227 255 28 227 255 28 227 255 28 227 255 28 227 255 27 228 254 23 229 253 29 230 255 39 221 255 48 202 252 58 193 251 65 195 255 60 194 255 59 195 255 59 195 255 60 194 255 60 194 255 61 193 255 63 193 255 63 193 255 63 193 255 90 163 255 90 163 255 
90 163 255 90 163 255 90 163 255 90 163 255 90 163 255 90 163 255 91 162 252 87 163 251 93 164 255 104 156 255 114 137 251 124 128 251 130 129 255 126 130 255 123 131 255 123 131 255 125 131 255 125 131 255 126 130 255 126 130 255 128 129 255 128 129 255 152 101 254 154 101 254 154 101 254 155 100 254 155 100 254 156 99 254 156 99 254 158 98 254 157 97 253 152 99 252 156 101 255 168 92 255 175 75 253 186 66 252 190 68 255 185 68 255 188 67 255 188 67 255 188 67 255 189 67 255 191 66 255 191 66 255 192 65 255 192 65 255 217 36 255 219 35 255 219 35 255 220 34 255 220 34 255 222 34 255 222 34 255 223 33 255 222 32 252 217 33 251 221 35 255 233 27 255 240 8 250 251 0 251 255 2 255 250 3 255 253 4 255 252 3 255 252 3 255 252 3 255 251 2 254 251 2 254 251 2 254 250 1 253 255 28 255 255 28 255 255 28 255 255 28 255 255 28 255 255 28 255 255 28 255 255 28 255 252 29 255 255 26 255 255 30 255 252 31 248 255 57 255 249 59 255 254 63 255 255 59 253 254 60 255 254 60 255 254 60 255 254 60 255 254 60 255 254 60 255 254 60 255 254 60 255 255 92 255 255 92 255 255 92 255 255 92 255 255 92 255 255 92 255 255 92 255 255 92 255 253 94 255 255 88 254 255 90 253 250 93 246 255 123 255 251 125 255 254 127 255 255 122 251 255 124 254 255 124 254 255 124 254 255 124 254 255 124 254 255 124 254 255 124 254 255 124 254 254 156 255 254 156 255 254 156 255 254 156 255 254 156 255 254 156 255 254 156 255 254 156 255 250 158 255 255 156 255 255 159 255 250 160 248 255 186 255 247 188 255 252 192 255 255 188 253 255 188 255 255 188 255 255 188 255 255 188 255 255 188 255 255 188 255 255 188 255 255 188 255 255 219 255 255 219 255 255 219 255 255 219 255 255 219 255 255 219 255 255 219 255 255 219 255 253 223 255 254 216 253 255 218 252 250 222 247 255 251 255 251 255 255 254 255 255 255 250 250 254 254 255 255 253 255 255 251 255 255 251 255 255 251 255 252 252 254 249 253 254 246 255 254 26 211 241 35 223 252 33 227 255 26 224 251 27 225 254 28 226 255 29 222 255 34 224 255 32 223 252 26 224 251 31 226 255 42 218 255 50 200 251 61 191 251 65 193 255 60 194 255 60 194 255 61 193 255 61 193 255 63 193 255 63 193 255 64 192 255 64 192 255 66 191 255 93 162 255 95 161 255 95 161 255 96 161 255 96 161 255 97 160 255 97 160 255 99 159 255 96 161 255 28 227 255 28 227 255 28 227 255 28 227 255 28 227 255 28 227 255 28 227 255 28 227 255 27 228 254 23 229 253 29 230 255 39 221 255 48 202 252 58 193 251 65 195 255 60 194 255 59 195 255 59 195 255 60 194 255 60 194 255 61 193 255 63 193 255 63 193 255 63 193 255 90 163 255 90 163 255 90 163 255 90 163 255 90 163 255 90 163 255 90 163 255 90 163 255 91 162 252 87 163 251 93 164 255 104 156 255 114 137 251 124 128 251 130 129 255 126 130 255 123 131 255 123 131 255 125 131 255 125 131 255 126 130 255 126 130 255 128 129 255 128 129 255 152 101 254 154 101 254 154 101 254 155 100 254 155 100 254 156 99 254 156 99 254 158 98 254 157 97 253 
152 99 252 156 101 255 168 92 255 175 75 253 186 66 252 190 68 255 185 68 255 188 67 255 188 67 255 188 67 255 189 67 255 191 66 255 191 66 255 192 65 255 192 65 255 217 36 255 219 35 255 219 35 255 220 34 255 220 34 255 222 34 255 222 34 255 223 33 255 222 32 252 217 33 251 221 35 255 233 27 255 240 8 250 251 0 251 255 2 255 250 3 255 253 4 255 252 3 255 252 3 255 252 3 255 251 2 254 251 2 254 251 2 254 250 1 253 255 28 255 255 28 255 255 28 255 255 28 255 255 28 255 255 28 255 255 28 255 255 28 255 252 29 255 255 26 255 255 30 255 252 31 248 255 57 255 249 59 255 254 63 255 255 59 253 254 60 255 254 60 255 254 60 255 254 60 255 254 60 255 254 60 255 254 60 255 254 60 255 255 92 255 255 92 255 255 92 255 255 92 255 255 92 255 255 92 255 255 92 255 255 92 255 253 94 255 255 88 254 255 90 253 250 93 246 255 123 255 251 125 255 254 127 255 255 122 251 255 124 254 255 124 254 255 124 254 255 124 254 255 124 254 255 124 254 255 124 254 255 124 254 254 156 255 254 156 255 254 156 255 254 156 255 254 156 255 254 156 255 254 156 255 254 156 255 250 158 255 255 156 255 255 159 255 250 160 248 255 186 255 247 188 255 252 192 255 255 188 253 255 188 255 255 188 255 255 188 255 255 188 255 255 188 255 255 188 255 255 188 255 255 188 255 255 219 255 255 219 255 255 219 255 255 219 255 255 219 255 255 219 255 255 219 255 255 219 255 253 223 255 254 216 253 255 218 252 250 222 247 255 251 255 251 255 255 254 255 255 255 250 250 254 254 255 255 253 255 255 251 255 255 251 255 255 251 255 252 252 254 249 253 254 246 255 254 26 211 241 35 223 252 33 227 255 26 224 251 27 225 254 28 226 255 29 222 255 34 224 255 32 223 252 26 224 251 31 226 255 42 218 255 50 200 251 61 191 251 65 193 255 60 194 255 60 194 255 61 193 255 61 193 255 63 193 255 63 193 255 64 192 255 64 192 255 66 191 255 93 162 255 95 161 255 95 161 255 96 161 255 96 161 255 97 160 255 97 160 255 99 159 255 96 161 255 30 225 255 30 225 255 30 225 255 30 225 255 30 225 255 30 225 255 30 225 255 30 225 255 32 223 252 26 224 251 31 226 255 42 218 255 50 200 251 61 191 251 65 193 255 60 194 255 60 194 255 61 193 255 61 193 255 63 193 255 63 193 255 64 192 255 64 192 255 66 191 255 93 162 255 95 161 255 95 161 255 96 161 255 96 161 255 97 160 255 97 160 255 99 159 255 96 161 255 92 161 254 97 163 255 107 154 255 114 135 252 123 127 252 129 130 255 124 129 255 124 129 255 124 129 255 125 129 255 125 129 255 127 128 255 128 127 255 128 127 255 128 127 255 155 98 255 155 98 255 157 97 255 157 97 255 158 96 255 158 96 255 160 96 255 160 96 255 159 95 252 155 95 251 159 97 255 169 90 255 178 70 251 188 63 251 192 65 255 188 65 255 189 67 255 189 67 255 191 66 255 191 66 255 192 65 255 192 65 255 194 65 255 194 65 255 220 34 255 220 34 255 220 34 255 222 34 255 223 33 255 223 33 255 224 32 255 224 32 255 224 32 253 221 33 252 225 35 255 234 26 255 241 8 250 252 0 250 255 1 255 252 1 255 
255 2 255 255 1 255 255 1 255 255 1 255 254 0 254 254 0 254 254 0 254 253 0 253 255 28 255 255 28 255 255 28 255 255 28 255 255 28 255 255 28 255 255 28 255 255 28 255 252 31 255 255 25 255 255 27 253 249 30 246 255 60 255 250 63 255 254 65 255 255 59 252 255 62 255 255 62 255 255 62 255 255 62 255 255 62 255 255 62 255 255 62 255 255 62 255 255 93 255 255 93 255 255 93 255 255 93 255 255 93 255 255 93 255 255 93 255 255 93 255 254 95 255 255 90 252 255 92 250 251 94 245 255 124 255 252 127 255 255 129 255 255 123 251 255 126 255 255 126 255 255 126 255 255 126 255 255 126 255 255 126 255 255 126 255 255 126 255 255 157 255 255 157 255 255 157 255 255 157 255 255 157 255 255 157 255 255 157 255 255 157 255 250 158 255 255 156 255 255 159 255 250 160 248 255 186 255 247 188 255 252 192 255 255 188 253 255 189 255 255 189 255 255 189 255 255 189 255 255 189 255 255 189 255 255 189 255 255 189 255 255 222 255 255 222 255 255 222 255 255 222 255 255 222 255 255 222 255 255 222 255 255 222 255 252 222 255 255 220 254 255 224 255 252 224 246 255 251 255 248 252 253 254 255 253 255 254 251 249 253 252 252 254 253 255 253 254 255 254 255 255 253 254 252 254 253 245 254 251 243 254 250 30 209 241 38 221 252 37 224 255 31 222 251 30 223 254 33 223 255 32 220 255 36 223 255 34 223 253 30 224 252 35 225 255 44 217 255 51 198 250 61 189 250 67 192 255 62 192 254 64 192 255 64 192 255 64 192 255 64 192 255 64 192 255 64 192 255 64 192 255 64 192 255 92 161 255 94 160 255 94 160 255 95 159 255 95 159 255 96 159 255 96 159 255 98 158 255 96 159 255 30 225 255 30 225 255 30 225 255 30 225 255 30 225 255 30 225 255 30 225 255 30 225 255 32 223 252 26 224 251 31 226 255 42 218 255 50 200 251 61 191 251 65 193 255 60 194 255 60 194 255 61 193 255 61 193 255 63 193 255 63 193 255 64 192 255 64 192 255 66 191 255 93 162 255 95 161 255 95 161 255 96 161 255 96 161 255 97 160 255 97 160 255 99 159 255 96 161 255 92 161 254 97 163 255 107 154 255 114 135 252 123 127 252 129 130 255 124 129 255 124 129 255 124 129 255 125 129 255 125 129 255 127 128 255 128 127 255 128 127 255 128 127 255 155 98 255 155 98 255 157 97 255 157 97 255 158 96 255 158 96 255 160 96 255 160 96 255 159 95 252 155 95 251 159 97 255 169 90 255 178 70 251 188 63 251 192 65 255 188 65 255 189 67 255 189 67 255 191 66 255 191 66 255 192 65 255 192 65 255 194 65 255 194 65 255 220 34 255 220 34 255 220 34 255 222 34 255 223 33 255 223 33 255 224 32 255 224 32 255 224 32 253 221 33 252 225 35 255 234 26 255 241 8 250 252 0 250 255 1 255 252 1 255 255 2 255 255 1 255 255 1 255 255 1 255 254 0 254 254 0 254 254 0 254 253 0 253 255 28 255 255 28 255 255 28 255 255 28 255 255 28 255 255 28 255 255 28 255 255 28 255 252 31 255 255 25 255 255 27 253 249 30 246 255 60 255 250 63 255 254 65 255 255 59 252 255 62 255 255 62 255 255 62 255 255 62 255 255 62 255 255 62 255 255 62 255 
255 62 255 255 93 255 255 93 255 255 93 255 255 93 255 255 93 255 255 93 255 255 93 255 255 93 255 254 95 255 255 90 252 255 92 250 251 94 245 255 124 255 252 127 255 255 129 255 255 123 251 255 126 255 255 126 255 255 126 255 255 126 255 255 126 255 255 126 255 255 126 255 255 126 255 255 157 255 255 157 255 255 157 255 255 157 255 255 157 255 255 157 255 255 157 255 255 157 255 250 158 255 255 156 255 255 159 255 250 160 248 255 186 255 247 188 255 252 192 255 255 188 253 255 189 255 255 189 255 255 189 255 255 189 255 255 189 255 255 189 255 255 189 255 255 189 255 255 222 255 255 222 255 255 222 255 255 222 255 255 222 255 255 222 255 255 222 255 255 222 255 252 222 255 255 220 254 255 224 255 252 224 246 255 251 255 248 252 253 254 255 253 255 254 251 249 253 252 252 254 253 255 253 254 255 254 255 255 253 254 252 254 253 245 254 251 243 254 250 30 209 241 38 221 252 37 224 255 31 222 251 30 223 254 33 223 255 32 220 255 36 223 255 34 223 253 30 224 252 35 225 255 44 217 255 51 198 250 61 189 250 67 192 255 62 192 254 64 192 255 64 192 255 64 192 255 64 192 255 64 192 255 64 192 255 64 192 255 64 192 255 92 161 255 94 160 255 94 160 255 95 159 255 95 159 255 96 159 255 96 159 255 98 158 255 96 159 255 30 225 255 30 225 255 30 225 255 30 225 255 30 225 255 30 225 255 30 225 255 30 225 255 32 223 252 26 224 251 31 226 255 42 218 255 50 200 251 61 191 251 65 193 255 60 194 255 60 194 255 61 193 255 61 193 255 63 193 255 63 193 255 64 192 255 64 192 255 66 191 255 93 162 255 95 161 255 95 161 255 96 161 255 96 161 255 97 160 255 97 160 255 99 159 255 96 161 255 92 161 254 97 163 255 107 154 255 114 135 252 123 127 252 129 130 255 124 129 255 124 129 255 124 129 255 125 129 255 125 129 255 127 128 255 128 127 255 128 127 255 128 127 255 155 98 255 155 98 255 157 97 255 157 97 255 158 96 255 158 96 255 160 96 255 160 96 255 159 95 252 155 95 251 159 97 255 169 90 255 178 70 251 188 63 251 192 65 255 188 65 255 189 67 255 189 67 255 191 66 255 191 66 255 192 65 255 192 65 255 194 65 255 194 65 255 220 34 255 220 34 255 220 34 255 222 34 255 223 33 255 223 33 255 224 32 255 224 32 255 224 32 253 221 33 252 225 35 255 234 26 255 241 8 250 252 0 250 255 1 255 252 1 255 255 2 255 255 1 255 255 1 255 255 1 255 254 0 254 254 0 254 254 0 254 253 0 253 255 28 255 255 28 255 255 28 255 255 28 255 255 28 255 255 28 255 255 28 255 255 28 255 252 31 255 255 25 255 255 27 253 249 30 246 255 60 255 250 63 255 254 65 255 255 59 252 255 62 255 255 62 255 255 62 255 255 62 255 255 62 255 255 62 255 255 62 255 255 62 255 255 93 255 255 93 255 255 93 255 255 93 255 255 93 255 255 93 255 255 93 255 255 93 255 254 95 255 255 90 252 255 92 250 251 94 245 255 124 255 252 127 255 255 129 255 255 123 251 255 126 255 255 126 255 255 126 255 255 126 255 255 126 255 255 126 255 255 126 255 255 126 255 255 157 255 255 157 255 255 157 255 255 157 255 255 157 255 255 157 255 
255 157 255 255 157 255 250 158 255 255 156 255 255 159 255 250 160 248 255 186 255 247 188 255 252 192 255 255 188 253 255 189 255 255 189 255 255 189 255 255 189 255 255 189 255 255 189 255 255 189 255 255 189 255 255 222 255 255 222 255 255 222 255 255 222 255 255 222 255 255 222 255 255 222 255 255 222 255 252 222 255 255 220 254 255 224 255 252 224 246 255 251 255 248 252 253 254 255 253 255 254 251 249 253 252 252 254 253 255 253 254 255 254 255 255 253 254 252 254 253 245 254 251 243 254 250 30 209 241 38 221 252 37 224 255 31 222 251 30 223 254 33 223 255 32 220 255 36 223 255 34 223 253 30 224 252 35 225 255 44 217 255 51 198 250 61 189 250 67 192 255 62 192 254 64 192 255 64 192 255 64 192 255 64 192 255 64 192 255 64 192 255 64 192 255 64 192 255 92 161 255 94 160 255 94 160 255 95 159 255 95 159 255 96 159 255 96 159 255 98 158 255 96 159 255 30 225 255 30 225 255 30 225 255 30 225 255 30 225 255 30 225 255 30 225 255 30 225 255 32 223 252 26 224 251 31 226 255 42 218 255 50 200 251 61 191 251 65 193 255 60 194 255 60 194 255 61 193 255 61 193 255 63 193 255 63 193 255 64 192 255 64 192 255 66 191 255 93 162 255 95 161 255 95 161 255 96 161 255 96 161 255 97 160 255 97 160 255 99 159 255 96 161 255 92 161 254 97 163 255 107 154 255 114 135 252 123 127 252 129 130 255 124 129 255 124 129 255 124 129 255 125 129 255 125 129 255 127 128 255 128 127 255 128 127 255 128 127 255 155 98 255 155 98 255 157 97 255 157 97 255 158 96 255 158 96 255 160 96 255 160 96 255 159 95 252 155 95 251 159 97 255 169 90 255 178 70 251 188 63 251 192 65 255 188 65 255 189 67 255 189 67 255 191 66 255 191 66 255 192 65 255 192 65 255 194 65 255 194 65 255 220 34 255 220 34 255 220 34 255 222 34 255 223 33 255 223 33 255 224 32 255 224 32 255 224 32 253 221 33 252 225 35 255 234 26 255 241 8 250 252 0 250 255 1 255 252 1 255 255 2 255 255 1 255 255 1 255 255 1 255 254 0 254 254 0 254 254 0 254 253 0 253 255 28 255 255 28 255 255 28 255 255 28 255 255 28 255 255 28 255 255 28 255 255 28 255 252 31 255 255 25 255 255 27 253 249 30 246 255 60 255 250 63 255 254 65 255 255 59 252 255 62 255 255 62 255 255 62 255 255 62 255 255 62 255 255 62 255 255 62 255 255 62 255 255 93 255 255 93 255 255 93 255 255 93 255 255 93 255 255 93 255 255 93 255 255 93 255 254 95 255 255 90 252 255 92 250 251 94 245 255 124 255 252 127 255 255 129 255 255 123 251 255 126 255 255 126 255 255 126 255 255 126 255 255 126 255 255 126 255 255 126 255 255 126 255 255 157 255 255 157 255 255 157 255 255 157 255 255 157 255 255 157 255 255 157 255 255 157 255 250 158 255 255 156 255 255 159 255 250 160 248 255 186 255 247 188 255 252 192 255 255 188 253 255 189 255 255 189 255 255 189 255 255 189 255 255 189 255 255 189 255 255 189 255 255 189 255 255 222 255 255 222 255 255 222 255 255 222 255 255 222 255 255 222 255 255 222 255 255 222 255 252 222 255 255 220 254 255 224 255 252 224 246 255 251 255 
248 252 253 254 255 253 255 254 251 249 253 252 252 254 253 255 253 254 255 254 255 255 253 254 252 254 253 245 254 251 243 254 250 30 209 241 38 221 252 37 224 255 31 222 251 30 223 254 33 223 255 32 220 255 36 223 255 34 223 253 30 224 252 35 225 255 44 217 255 51 198 250 61 189 250 67 192 255 62 192 254 64 192 255 64 192 255 64 192 255 64 192 255 64 192 255 64 192 255 64 192 255 64 192 255 92 161 255 94 160 255 94 160 255 95 159 255 95 159 255 96 159 255 96 159 255 98 158 255 96 159 255 30 225 255 30 225 255 30 225 255 30 225 255 30 225 255 30 225 255 30 225 255 30 225 255 32 223 252 26 224 251 31 226 255 42 218 255 50 200 251 61 191 251 65 193 255 60 194 255 60 194 255 61 193 255 61 193 255 63 193 255 63 193 255 64 192 255 64 192 255 66 191 255 93 162 255 95 161 255 95 161 255 96 161 255 96 161 255 97 160 255 97 160 255 99 159 255 96 161 255 92 161 254 97 163 255 107 154 255 114 135 252 123 127 252 129 130 255 124 129 255 124 129 255 124 129 255 125 129 255 125 129 255 127 128 255 128 127 255 128 127 255 128 127 255 155 98 255 155 98 255 157 97 255 157 97 255 158 96 255 158 96 255 160 96 255 160 96 255 159 95 252 155 95 251 159 97 255 169 90 255 178 70 251 188 63 251 192 65 255 188 65 255 189 67 255 189 67 255 191 66 255 191 66 255 192 65 255 192 65 255 194 65 255 194 65 255 220 34 255 220 34 255 220 34 255 222 34 255 223 33 255 223 33 255 224 32 255 224 32 255 224 32 253 221 33 252 225 35 255 234 26 255 241 8 250 252 0 250 255 1 255 252 1 255 255 2 255 255 1 255 255 1 255 255 1 255 254 0 254 254 0 254 254 0 254 253 0 253 255 28 255 255 28 255 255 28 255 255 28 255 255 28 255 255 28 255 255 28 255 255 28 255 252 31 255 255 25 255 255 27 253 249 30 246 255 60 255 250 63 255 254 65 255 255 59 252 255 62 255 255 62 255 255 62 255 255 62 255 255 62 255 255 62 255 255 62 255 255 62 255 255 93 255 255 93 255 255 93 255 255 93 255 255 93 255 255 93 255 255 93 255 255 93 255 254 95 255 255 90 252 255 92 250 251 94 245 255 124 255 252 127 255 255 129 255 255 123 251 255 126 255 255 126 255 255 126 255 255 126 255 255 126 255 255 126 255 255 126 255 255 126 255 255 157 255 255 157 255 255 157 255 255 157 255 255 157 255 255 157 255 255 157 255 255 157 255 250 158 255 255 156 255 255 159 255 250 160 248 255 186 255 247 188 255 252 192 255 255 188 253 255 189 255 255 189 255 255 189 255 255 189 255 255 189 255 255 189 255 255 189 255 255 189 255 255 222 255 255 222 255 255 222 255 255 222 255 255 222 255 255 222 255 255 222 255 255 222 255 252 222 255 255 220 254 255 224 255 252 224 246 255 251 255 248 252 253 254 255 253 255 254 251 249 253 252 252 254 253 255 253 254 255 254 255 255 253 254 252 254 253 245 254 251 243 254 250 30 209 241 38 221 252 37 224 255 31 222 251 30 223 254 33 223 255 32 220 255 36 223 255 34 223 253 30 224 252 35 225 255 44 217 255 51 198 250 61 189 250 67 192 255 62 192 254 64 192 255 64 192 255 64 192 255 64 192 255 
64 192 255 64 192 255 64 192 255 64 192 255 92 161 255 94 160 255 94 160 255 95 159 255 95 159 255 96 159 255 96 159 255 98 158 255 96 159 255 30 225 255 30 225 255 30 225 255 30 225 255 30 225 255 30 225 255 30 225 255 30 225 255 32 223 252 26 224 251 31 226 255 42 218 255 50 200 251 61 191 251 65 193 255 60 194 255 60 194 255 61 193 255 61 193 255 63 193 255 63 193 255 64 192 255 64 192 255 66 191 255 93 162 255 95 161 255 95 161 255 96 161 255 96 161 255 97 160 255 97 160 255 99 159 255 96 161 255 92 161 254 97 163 255 107 154 255 114 135 252 123 127 252 129 130 255 124 129 255 124 129 255 124 129 255 125 129 255 125 129 255 127 128 255 128 127 255 128 127 255 128 127 255 155 98 255 155 98 255 157 97 255 157 97 255 158 96 255 158 96 255 160 96 255 160 96 255 159 95 252 155 95 251 159 97 255 169 90 255 178 70 251 188 63 251 192 65 255 188 65 255 189 67 255 189 67 255 191 66 255 191 66 255 192 65 255 192 65 255 194 65 255 194 65 255 220 34 255 220 34 255 220 34 255 222 34 255 223 33 255 223 33 255 224 32 255 224 32 255 224 32 253 221 33 252 225 35 255 234 26 255 241 8 250 252 0 250 255 1 255 252 1 255 255 2 255 255 1 255 255 1 255 255 1 255 254 0 254 254 0 254 254 0 254 253 0 253 255 28 255 255 28 255 255 28 255 255 28 255 255 28 255 255 28 255 255 28 255 255 28 255 252 31 255 255 25 255 255 27 253 249 30 246 255 60 255 250 63 255 254 65 255 255 59 252 255 62 255 255 62 255 255 62 255 255 62 255 255 62 255 255 62 255 255 62 255 255 62 255 255 93 255 255 93 255 255 93 255 255 93 255 255 93 255 255 93 255 255 93 255 255 93 255 254 95 255 255 90 252 255 92 250 251 94 245 255 124 255 252 127 255 255 129 255 255 123 251 255 126 255 255 126 255 255 126 255 255 126 255 255 126 255 255 126 255 255 126 255 255 126 255 255 157 255 255 157 255 255 157 255 255 157 255 255 157 255 255 157 255 255 157 255 255 157 255 250 158 255 255 156 255 255 159 255 250 160 248 255 186 255 247 188 255 252 192 255 255 188 253 255 189 255 255 189 255 255 189 255 255 189 255 255 189 255 255 189 255 255 189 255 255 189 255 255 222 255 255 222 255 255 222 255 255 222 255 255 222 255 255 222 255 255 222 255 255 222 255 252 222 255 255 220 254 255 224 255 252 224 246 255 251 255 248 252 253 254 255 253 255 254 251 249 253 252 252 254 253 255 253 254 255 254 255 255 253 254 252 254 253 245 254 251 243 254 250 30 209 241 38 221 252 37 224 255 31 222 251 30 223 254 33 223 255 32 220 255 36 223 255 34 223 253 30 224 252 35 225 255 44 217 255 51 198 250 61 189 250 67 192 255 62 192 254 64 192 255 64 192 255 64 192 255 64 192 255 64 192 255 64 192 255 64 192 255 64 192 255 92 161 255 94 160 255 94 160 255 95 159 255 95 159 255 96 159 255 96 159 255 98 158 255 96 159 255 30 225 255 30 225 255 30 225 255 30 225 255 30 225 255 30 225 255 30 225 255 30 225 255 32 223 252 26 224 251 31 226 255 42 218 255 50 200 251 61 191 251 65 193 255 60 194 255 60 194 255 61 193 255 
61 193 255 63 193 255 63 193 255 64 192 255 64 192 255 66 191 255 93 162 255 95 161 255 95 161 255 96 161 255 96 161 255 97 160 255 97 160 255 99 159 255 96 161 255 92 161 254 97 163 255 107 154 255 114 135 252 123 127 252 129 130 255 124 129 255 124 129 255 124 129 255 125 129 255 125 129 255 127 128 255 128 127 255 128 127 255 128 127 255 155 98 255 155 98 255 157 97 255 157 97 255 158 96 255 158 96 255 160 96 255 160 96 255 159 95 252 155 95 251 159 97 255 169 90 255 178 70 251 188 63 251 192 65 255 188 65 255 189 67 255 189 67 255 191 66 255 191 66 255 192 65 255 192 65 255 194 65 255 194 65 255 220 34 255 220 34 255 220 34 255 222 34 255 223 33 255 223 33 255 224 32 255 224 32 255 224 32 253 221 33 252 225 35 255 234 26 255 241 8 250 252 0 250 255 1 255 252 1 255 255 2 255 255 1 255 255 1 255 255 1 255 254 0 254 254 0 254 254 0 254 253 0 253 255 28 255 255 28 255 255 28 255 255 28 255 255 28 255 255 28 255 255 28 255 255 28 255 252 31 255 255 25 255 255 27 253 249 30 246 255 60 255 250 63 255 254 65 255 255 59 252 255 62 255 255 62 255 255 62 255 255 62 255 255 62 255 255 62 255 255 62 255 255 62 255 255 93 255 255 93 255 255 93 255 255 93 255 255 93 255 255 93 255 255 93 255 255 93 255 254 95 255 255 90 252 255 92 250 251 94 245 255 124 255 252 127 255 255 129 255 255 123 251 255 126 255 255 126 255 255 126 255 255 126 255 255 126 255 255 126 255 255 126 255 255 126 255 255 157 255 255 157 255 255 157 255 255 157 255 255 157 255 255 157 255 255 157 255 255 157 255 250 158 255 255 156 255 255 159 255 250 160 248 255 186 255 247 188 255 252 192 255 255 188 253 255 189 255 255 189 255 255 189 255 255 189 255 255 189 255 255 189 255 255 189 255 255 189 255 255 222 255 255 222 255 255 222 255 255 222 255 255 222 255 255 222 255 255 222 255 255 222 255 252 222 255 255 220 254 255 224 255 252 224 246 255 251 255 248 252 253 254 255 253 255 254 251 249 253 252 252 254 253 255 253 254 255 254 255 255 253 254 252 254 253 245 254 251 243 254 250 30 209 241 38 221 252 37 224 255 31 222 251 30 223 254 33 223 255 32 220 255 36 223 255 34 223 253 30 224 252 35 225 255 44 217 255 51 198 250 61 189 250 67 192 255 62 192 254 64 192 255 64 192 255 64 192 255 64 192 255 64 192 255 64 192 255 64 192 255 64 192 255 92 161 255 94 160 255 94 160 255 95 159 255 95 159 255 96 159 255 96 159 255 98 158 255 96 159 255 30 225 255 30 225 255 30 225 255 30 225 255 30 225 255 30 225 255 30 225 255 30 225 255 32 223 252 26 224 251 31 226 255 42 218 255 50 200 251 61 191 251 65 193 255 60 194 255 60 194 255 61 193 255 61 193 255 63 193 255 63 193 255 64 192 255 64 192 255 66 191 255 93 162 255 95 161 255 95 161 255 96 161 255 96 161 255 97 160 255 97 160 255 99 159 255 96 161 255 92 161 254 97 163 255 107 154 255 114 135 252 123 127 252 129 130 255 124 129 255 124 129 255 124 129 255 125 129 255 125 129 255 127 128 255 128 127 255 128 127 255 128 127 255 155 98 255 
155 98 255 157 97 255 157 97 255 158 96 255 158 96 255 160 96 255 160 96 255 159 95 252 155 95 251 159 97 255 169 90 255 178 70 251 188 63 251 192 65 255 188 65 255 189 67 255 189 67 255 191 66 255 191 66 255 192 65 255 192 65 255 194 65 255 194 65 255 220 34 255 220 34 255 220 34 255 222 34 255 223 33 255 223 33 255 224 32 255 224 32 255 224 32 253 221 33 252 225 35 255 234 26 255 241 8 250 252 0 250 255 1 255 252 1 255 255 2 255 255 1 255 255 1 255 255 1 255 254 0 254 254 0 254 254 0 254 253 0 253 255 28 255 255 28 255 255 28 255 255 28 255 255 28 255 255 28 255 255 28 255 255 28 255 252 31 255 255 25 255 255 27 253 249 30 246 255 60 255 250 63 255 254 65 255 255 59 252 255 62 255 255 62 255 255 62 255 255 62 255 255 62 255 255 62 255 255 62 255 255 62 255 255 93 255 255 93 255 255 93 255 255 93 255 255 93 255 255 93 255 255 93 255 255 93 255 254 95 255 255 90 252 255 92 250 251 94 245 255 124 255 252 127 255 255 129 255 255 123 251 255 126 255 255 126 255 255 126 255 255 126 255 255 126 255 255 126 255 255 126 255 255 126 255 255 157 255 255 157 255 255 157 255 255 157 255 255 157 255 255 157 255 255 157 255 255 157 255 250 158 255 255 156 255 255 159 255 250 160 248 255 186 255 247 188 255 252 192 255 255 188 253 255 189 255 255 189 255 255 189 255 255 189 255 255 189 255 255 189 255 255 189 255 255 189 255 255 222 255 255 222 255 255 222 255 255 222 255 255 222 255 255 222 255 255 222 255 255 222 255 252 222 255 255 220 254 255 224 255 252 224 246 255 251 255 248 252 253 254 255 253 255 254 251 249 253 252 252 254 253 255 253 254 255 254 255 255 253 254 252 254 253 245 254 251 243 254 250 30 209 241 38 221 252 37 224 255 31 222 251 30 223 254 33 223 255 32 220 255 36 223 255 34 223 253 30 224 252 35 225 255 44 217 255 51 198 250 61 189 250 67 192 255 62 192 254 64 192 255 64 192 255 64 192 255 64 192 255 64 192 255 64 192 255 64 192 255 64 192 255 92 161 255 94 160 255 94 160 255 95 159 255 95 159 255 96 159 255 96 159 255 98 158 255 96 159 255 30 225 255 30 225 255 30 225 255 30 225 255 30 225 255 30 225 255 30 225 255 30 225 255 30 225 253 26 226 252 30 228 255 40 220 255 46 200 250 57 192 250 62 194 255 58 194 254 59 195 255 59 195 255 59 195 255 60 194 255 61 193 255 61 193 255 63 193 255 63 193 255 93 162 255 95 161 255 95 161 255 96 160 255 96 160 255 97 160 255 97 160 255 99 159 255 99 159 255 94 160 254 98 162 255 109 153 255 115 134 252 126 125 252 131 128 255 125 128 255 125 130 255 125 130 255 125 130 255 126 130 255 128 129 255 128 129 255 129 128 255 129 128 255 155 98 255 155 98 255 157 97 255 157 97 255 158 96 255 158 96 255 160 96 255 160 96 255 157 97 253 153 98 252 159 99 255 169 90 255 176 71 251 188 62 250 193 64 255 189 64 255 187 66 255 188 66 255 188 66 255 190 65 255 190 65 255 191 64 255 193 64 255 193 64 255 222 34 255 222 34 255 223 33 255 223 33 255 224 32 255 224 32 255 226 31 255 226 31 255 
226 32 253 222 32 252 226 34 255 236 26 255 244 6 250 253 0 250 255 0 255 254 0 255 255 1 255 255 1 255 255 1 255 255 1 255 255 1 255 255 1 255 255 1 255 255 1 255 255 28 255 255 28 255 255 28 255 255 28 255 255 28 255 255 28 255 255 28 255 255 28 255 255 30 255 255 25 253 255 25 250 252 29 244 255 59 255 253 61 255 255 63 255 255 58 250 255 64 255 255 64 255 255 64 255 255 64 255 255 64 255 255 64 255 255 64 255 255 64 255 255 94 255 255 94 255 255 94 255 255 94 255 255 94 255 255 94 255 255 94 255 255 94 255 253 97 255 254 92 253 255 92 250 248 95 245 255 125 255 249 128 255 253 128 254 254 124 250 255 127 255 255 127 255 255 127 255 255 127 255 255 127 255 255 127 255 255 127 255 255 127 255 255 159 255 255 159 255 255 159 255 255 159 255 255 159 255 255 159 255 255 159 255 255 159 255 251 160 255 255 157 255 255 160 254 251 161 248 255 188 255 248 189 253 253 193 253 255 190 251 253 191 254 253 191 254 253 191 254 253 191 254 253 191 254 253 191 254 253 191 254 253 191 254 255 223 254 255 223 254 255 223 254 255 223 254 255 223 254 255 223 254 255 223 254 255 223 254 248 227 242 255 222 255 244 234 255 247 222 254 252 255 255 255 246 248 235 255 255 250 248 255 255 251 248 255 251 248 255 249 248 255 248 248 255 250 248 253 252 248 249 254 248 246 255 248 36 210 245 37 216 249 34 221 252 32 226 254 30 225 253 30 224 252 33 224 253 36 223 254 31 221 253 27 222 252 31 224 255 43 216 255 50 197 251 60 190 252 64 192 255 60 192 255 64 192 255 64 192 255 64 192 255 64 192 255 64 192 255 64 192 255 64 192 255 64 192 255 95 159 255 95 159 255 95 159 255 95 159 255 95 159 255 95 159 255 95 159 255 95 159 255 96 159 255 30 225 255 30 225 255 30 225 255 30 225 255 30 225 255 30 225 255 30 225 255 30 225 255 30 225 253 26 226 252 30 228 255 40 220 255 48 200 250 57 192 250 62 194 255 58 194 254 59 195 255 59 195 255 60 194 255 60 194 255 61 193 255 63 193 255 63 193 255 63 193 255 93 162 255 95 161 255 95 161 255 96 160 255 96 160 255 97 160 255 97 160 255 99 159 255 99 159 255 94 160 254 98 162 255 109 153 255 115 134 252 126 125 252 131 128 255 125 128 255 125 130 255 125 130 255 126 130 255 126 130 255 128 129 255 129 128 255 129 128 255 129 128 255 155 98 255 155 98 255 157 97 255 157 97 255 158 96 255 158 96 255 160 96 255 160 96 255 157 97 253 153 98 252 159 99 255 169 90 255 178 70 251 188 62 250 193 64 255 189 64 255 188 66 255 188 66 255 188 66 255 190 65 255 191 64 255 191 64 255 193 64 255 193 64 255 222 34 255 222 34 255 223 33 255 223 33 255 224 32 255 224 32 255 226 31 255 226 31 255 226 32 253 222 32 252 226 34 255 236 26 255 244 6 250 253 0 250 255 0 255 254 0 255 255 1 255 255 1 255 255 1 255 255 1 255 255 1 255 255 1 255 255 1 255 255 1 255 255 28 255 255 28 255 255 28 255 255 28 255 255 28 255 255 28 255 255 28 255 255 28 255 255 30 255 255 25 253 255 26 251 250 29 244 255 59 255 252 62 255 255 63 255 
255 59 250 255 64 255 255 64 255 255 64 255 255 64 255 255 64 255 255 64 255 255 64 255 255 64 255 255 94 255 255 94 255 255 94 255 255 94 255 255 94 255 255 94 255 255 94 255 255 94 255 253 97 255 254 92 253 255 92 250 248 95 245 255 125 255 249 128 255 253 128 254 254 124 250 255 127 255 255 127 255 255 127 255 255 127 255 255 127 255 255 127 255 255 127 255 255 127 255 255 159 255 255 159 255 255 159 255 255 159 255 255 159 255 255 159 255 255 159 255 255 159 255 251 160 255 255 157 255 255 160 254 251 161 248 255 188 255 248 189 253 253 193 253 255 190 251 253 191 254 253 191 254 253 191 254 253 191 254 253 191 254 253 191 254 253 191 254 253 191 254 255 223 254 255 223 254 255 223 254 255 223 254 255 223 254 255 223 254 255 223 254 255 223 254 254 218 246 255 211 255 249 222 255 255 218 252 251 255 255 255 253 246 241 255 251 254 255 255 251 255 255 254 253 255 255 253 255 255 253 255 254 253 255 251 255 255 247 255 255 244 255 255 35 212 246 36 216 249 34 221 252 33 224 253 31 225 253 30 224 252 34 223 253 36 223 254 32 221 253 27 222 252 33 223 255 43 216 255 50 197 251 61 189 252 66 191 255 60 192 255 64 192 255 64 192 255 64 192 255 64 192 255 64 192 255 64 192 255 64 192 255 64 192 255 95 159 255 95 159 255 95 159 255 95 159 255 95 159 255 95 159 255 95 159 255 95 159 255 96 159 255 30 225 255 30 225 255 30 225 255 30 225 255 30 225 255 30 225 255 30 225 255 30 225 255 31 225 253 26 226 252 32 227 255 41 219 255 48 200 250 58 191 250 64 194 255 58 194 254 59 195 255 60 194 255 60 194 255 61 193 255 61 193 255 63 193 255 64 192 255 64 192 255 93 162 255 95 161 255 95 161 255 96 160 255 96 160 255 97 160 255 97 160 255 99 159 255 99 159 255 94 160 254 98 162 255 109 153 255 115 134 252 126 125 252 131 128 255 125 128 255 125 130 255 126 130 255 126 130 255 128 129 255 128 129 255 129 128 255 130 127 255 130 127 255 155 98 255 155 98 255 157 97 255 157 97 255 158 96 255 158 96 255 160 96 255 160 96 255 158 97 253 154 97 252 159 99 255 169 90 255 178 70 251 188 62 250 194 63 255 190 63 255 188 66 255 188 66 255 190 65 255 190 65 255 191 64 255 193 64 255 193 64 255 194 63 255 222 34 255 222 34 255 223 33 255 223 33 255 224 32 255 224 32 255 226 31 255 226 31 255 226 32 253 222 32 252 226 34 255 236 26 255 244 6 250 253 0 250 255 0 255 254 0 255 255 1 255 255 1 255 255 1 255 255 1 255 255 1 255 255 1 255 255 1 255 255 1 255 255 29 255 255 29 255 255 29 255 255 29 255 255 29 255 255 29 255 255 29 255 255 29 255 254 31 255 255 25 253 255 27 251 250 29 244 255 60 255 253 63 255 255 64 255 255 59 250 255 64 255 255 64 255 255 64 255 255 64 255 255 64 255 255 64 255 255 64 255 255 64 255 255 94 255 255 94 255 255 94 255 255 94 255 255 94 255 255 94 255 255 94 255 255 94 255 253 97 255 254 92 253 255 92 250 248 95 245 255 125 255 249 128 255 253 128 254 254 124 250 255 127 255 255 127 255 255 127 255 255 127 255 255 127 255 255 127 255 
255 127 255 255 127 255 255 159 255 255 159 255 255 159 255 255 159 255 255 159 255 255 159 255 255 159 255 255 159 255 251 160 255 255 157 255 255 160 254 251 161 248 255 188 255 248 189 253 253 193 253 255 190 251 253 191 254 253 191 254 253 191 254 253 191 254 253 191 254 253 191 254 253 191 254 253 191 254 255 223 254 255 223 254 255 223 254 255 223 254 255 223 254 255 223 254 255 223 254 255 223 254 255 225 255 255 218 255 255 223 255 255 222 255 239 255 255 249 255 248 238 255 247 244 250 248 253 252 250 255 251 250 255 250 250 255 250 250 255 250 250 253 252 250 251 253 250 249 254 250 34 214 249 34 217 251 34 221 254 33 223 255 32 222 254 32 222 254 34 223 255 36 223 255 32 221 253 28 221 252 33 223 255 43 216 255 51 196 251 61 189 252 66 191 255 62 191 255 66 191 255 66 191 255 66 191 255 66 191 255 66 191 255 66 191 255 66 191 255 66 191 255 95 159 255 95 159 255 95 159 255 95 159 255 95 159 255 95 159 255 95 159 255 95 159 255 98 158 255 31 224 255 31 224 255 31 224 255 31 224 255 31 224 255 31 224 255 31 224 255 31 224 255 31 225 253 27 225 252 32 227 255 42 218 255 49 199 250 58 191 250 64 194 255 59 193 254 60 194 255 60 194 255 61 193 255 61 193 255 63 193 255 64 192 255 64 192 255 64 192 255 93 162 255 95 161 255 95 161 255 96 160 255 96 160 255 97 160 255 97 160 255 99 159 255 99 159 255 94 160 254 98 162 255 109 153 255 115 134 252 126 125 252 131 128 255 125 128 255 126 130 255 126 130 255 128 129 255 128 129 255 129 128 255 130 127 255 130 127 255 130 127 255 155 98 255 155 98 255 157 97 255 157 97 255 158 96 255 158 96 255 160 96 255 160 96 255 158 97 253 154 97 252 160 98 255 171 89 255 179 70 251 190 61 250 196 62 255 192 62 255 190 65 255 190 65 255 190 65 255 191 64 255 193 64 255 193 64 255 194 63 255 194 63 255 222 34 255 222 34 255 223 33 255 223 33 255 224 32 255 224 32 255 226 31 255 226 31 255 226 32 253 222 32 252 226 34 255 236 26 255 244 6 250 253 0 250 255 0 255 254 0 255 255 1 255 255 1 255 255 1 255 255 1 255 255 1 255 255 1 255 255 1 255 255 1 255 255 30 255 255 30 255 255 30 255 255 30 255 255 30 255 255 30 255 255 30 255 255 30 255 254 31 255 255 27 254 255 28 251 250 31 245 255 62 255 251 64 255 255 65 255 255 60 251 255 64 255 255 64 255 255 64 255 255 64 255 255 64 255 255 64 255 255 64 255 255 64 255 255 94 255 255 94 255 255 94 255 255 94 255 255 94 255 255 94 255 255 94 255 255 94 255 253 97 255 254 92 253 255 92 250 248 95 245 255 125 255 249 128 255 253 128 254 254 124 250 255 127 255 255 127 255 255 127 255 255 127 255 255 127 255 255 127 255 255 127 255 255 127 255 255 159 255 255 159 255 255 159 255 255 159 255 255 159 255 255 159 255 255 159 255 255 159 255 251 160 255 255 157 255 255 160 254 251 161 248 255 188 255 248 189 253 253 193 253 255 190 251 253 191 254 253 191 254 253 191 254 253 191 254 253 191 254 253 191 254 253 191 254 253 191 254 255 223 254 255 223 254 255 223 254 255 223 254 255 223 254 
255 223 254 255 223 254 255 223 254 237 221 248 245 218 251 255 220 255 255 222 255 217 249 255 242 251 255 252 253 255 255 248 255 226 254 255 226 254 255 226 254 255 226 254 255 226 254 255 225 254 255 225 254 255 224 255 255 33 217 251 34 218 252 33 220 253 33 222 254 33 222 254 33 222 254 33 222 254 35 222 255 33 220 253 30 220 252 34 222 255 44 215 255 51 196 251 63 188 252 67 190 255 63 190 255 66 191 255 66 191 255 66 191 255 66 191 255 66 191 255 66 191 255 66 191 255 66 191 255 96 159 255 96 159 255 96 159 255 96 159 255 96 159 255 96 159 255 96 159 255 96 159 255 98 158 255 33 223 255 33 223 255 33 223 255 33 223 255 33 223 255 33 223 255 33 223 255 33 223 255 33 224 253 29 224 252 33 226 255 42 218 255 49 199 250 60 190 250 65 193 255 60 192 254 61 193 255 61 193 255 61 193 255 63 193 255 64 192 255 64 192 255 66 191 255 66 191 255 93 162 255 95 161 255 95 161 255 96 160 255 96 160 255 97 160 255 97 160 255 99 159 255 99 159 255 94 160 254 98 162 255 109 153 255 115 134 252 126 125 252 131 128 255 125 128 255 128 129 255 128 129 255 128 129 255 129 128 255 130 127 255 130 127 255 132 127 255 132 127 255 155 98 255 155 98 255 157 97 255 157 97 255 158 96 255 158 96 255 160 96 255 160 96 255 160 96 253 156 96 252 162 98 255 172 89 255 180 69 251 191 60 250 196 62 255 192 62 255 190 65 255 191 64 255 191 64 255 193 64 255 193 64 255 194 63 255 196 62 255 196 62 255 222 34 255 222 34 255 223 33 255 223 33 255 224 32 255 224 32 255 226 31 255 226 31 255 226 32 253 222 32 252 226 34 255 236 26 255 244 6 250 253 0 250 255 0 255 254 0 255 255 1 255 255 1 255 255 1 255 255 1 255 255 1 255 255 1 255 255 1 255 255 1 255 254 32 255 254 32 255 254 32 255 254 32 255 254 32 255 254 32 255 254 32 255 254 32 255 253 32 255 254 27 254 255 29 252 250 31 245 255 62 255 252 65 255 255 66 255 255 61 251 255 64 255 255 64 255 255 64 255 255 64 255 255 64 255 255 64 255 255 64 255 255 64 255 255 94 255 255 94 255 255 94 255 255 94 255 255 94 255 255 94 255 255 94 255 255 94 255 253 97 255 254 92 253 255 92 250 248 95 245 255 125 255 249 128 255 253 128 254 254 124 250 255 127 255 255 127 255 255 127 255 255 127 255 255 127 255 255 127 255 255 127 255 255 127 255 255 159 255 255 159 255 255 159 255 255 159 255 255 159 255 255 159 255 255 159 255 255 159 255 251 160 255 255 157 255 255 160 254 251 161 248 255 188 255 248 189 253 253 193 253 255 190 251 253 191 254 253 191 254 253 191 254 253 191 254 253 191 254 253 191 254 253 191 254 253 191 254 255 223 254 255 223 254 255 223 254 255 223 254 255 223 254 255 223 254 255 223 254 255 223 254 255 224 255 255 228 254 242 226 253 209 229 255 31 239 217 0 242 220 0 241 219 0 239 219 5 239 236 5 239 236 4 240 236 4 240 236 4 240 236 5 239 236 6 239 236 6 239 236 33 221 255 32 220 255 33 220 255 33 220 255 33 220 255 34 221 255 34 221 255 34 221 255 33 220 253 30 220 252 34 222 255 46 214 255 
52 195 251 63 188 252 67 190 255 63 190 255 67 190 255 67 190 255 67 190 255 67 190 255 67 190 255 67 190 255 67 190 255 67 190 255 98 158 255 98 158 255 98 158 255 98 158 255 98 158 255 98 158 255 98 158 255 98 158 255 99 157 255 33 223 255 33 223 255 33 223 255 33 223 255 33 223 255 33 223 255 33 223 255 33 223 255 34 223 253 29 224 252 33 226 255 44 217 255 51 198 250 60 190 250 67 192 255 60 192 254 61 193 255 61 193 255 63 193 255 64 192 255 64 192 255 66 191 255 66 191 255 67 191 255 93 162 255 95 161 255 95 161 255 96 160 255 96 160 255 97 160 255 97 160 255 99 159 255 99 159 255 94 160 254 98 162 255 109 153 255 115 134 252 126 125 252 131 128 255 125 128 255 128 129 255 128 129 255 129 128 255 130 127 255 130 127 255 132 127 255 132 127 255 133 126 255 155 98 255 155 98 255 157 97 255 157 97 255 158 96 255 158 96 255 160 96 255 160 96 255 161 95 253 157 96 252 162 98 255 172 89 255 180 69 251 191 60 250 197 61 255 193 61 255 191 64 255 191 64 255 193 64 255 193 64 255 194 63 255 196 62 255 196 62 255 196 62 255 222 34 255 222 34 255 223 33 255 223 33 255 224 32 255 224 32 255 226 31 255 226 31 255 226 32 253 222 32 252 226 34 255 236 26 255 244 6 250 253 0 250 255 0 255 254 0 255 255 1 255 255 1 255 255 1 255 255 1 255 255 1 255 255 1 255 255 1 255 255 1 255 254 32 255 254 32 255 254 32 255 254 32 255 254 32 255 254 32 255 254 32 255 254 32 255 253 34 255 255 28 255 255 29 252 250 33 246 255 63 255 251 66 255 254 68 255 255 61 251 255 64 255 255 64 255 255 64 255 255 64 255 255 64 255 255 64 255 255 64 255 255 64 255 255 94 255 255 94 255 255 94 255 255 94 255 255 94 255 255 94 255 255 94 255 255 94 255 253 97 255 254 92 253 255 92 250 248 95 245 255 125 255 249 128 255 253 128 254 254 124 250 255 127 255 255 127 255 255 127 255 255 127 255 255 127 255 255 127 255 255 127 255 255 127 255 255 159 255 255 159 255 255 159 255 255 159 255 255 159 255 255 159 255 255 159 255 255 159 255 251 160 255 255 157 255 255 160 254 251 161 248 255 188 255 248 189 253 253 193 253 255 190 251 253 191 254 253 191 254 253 191 254 253 191 254 253 191 254 253 191 254 253 191 254 253 191 254 255 223 254 255 223 254 255 223 254 255 223 254 255 223 254 255 223 254 255 223 254 255 223 254 251 219 243 236 228 243 244 224 251 226 234 255 17 236 230 0 247 252 8 246 255 0 255 255 0 254 255 0 254 255 0 254 255 0 254 255 0 254 255 0 254 255 0 254 255 0 253 255 30 224 255 32 222 255 31 219 255 34 218 255 36 218 255 36 220 255 36 220 255 34 220 255 35 219 253 31 220 252 35 222 255 46 214 255 54 195 251 64 188 252 68 190 255 65 190 255 67 190 255 67 190 255 67 190 255 67 190 255 67 190 255 67 190 255 67 190 255 67 190 255 98 158 255 98 158 255 98 158 255 98 158 255 98 158 255 98 158 255 98 158 255 98 158 255 99 157 255 34 223 255 34 223 255 34 223 255 34 223 255 34 223 255 34 223 255 34 223 255 34 223 255 34 223 253 30 224 252 
35 225 255 44 217 255 52 197 250 61 189 250 67 192 255 62 192 254 63 193 255 63 193 255 63 193 255 64 192 255 66 191 255 66 191 255 67 191 255 67 191 255 93 162 255 95 161 255 95 161 255 96 160 255 96 160 255 97 160 255 97 160 255 99 159 255 99 159 255 94 160 254 98 162 255 109 153 255 115 134 252 126 125 252 131 128 255 125 128 255 129 128 255 129 128 255 129 128 255 130 127 255 132 127 255 132 127 255 133 126 255 133 126 255 155 98 255 155 98 255 157 97 255 157 97 255 158 96 255 158 96 255 160 96 255 160 96 255 161 95 253 157 96 252 163 97 255 174 88 255 182 68 251 193 59 250 197 61 255 193 61 255 191 64 255 193 64 255 193 64 255 194 63 255 196 62 255 196 62 255 197 61 255 197 61 255 222 34 255 222 34 255 223 33 255 223 33 255 224 32 255 224 32 255 226 31 255 226 31 255 226 32 253 222 32 252 226 34 255 236 26 255 244 6 250 253 0 250 255 0 255 254 0 255 255 1 255 255 1 255 255 1 255 255 1 255 255 1 255 255 1 255 255 1 255 255 1 255 254 33 255 254 33 255 254 33 255 254 33 255 254 33 255 254 33 255 254 33 255 254 33 255 253 34 255 254 29 255 255 30 253 248 34 246 255 63 255 250 66 255 254 68 255 255 63 252 255 64 255 255 64 255 255 64 255 255 64 255 255 64 255 255 64 255 255 64 255 255 64 255 255 94 255 255 94 255 255 94 255 255 94 255 255 94 255 255 94 255 255 94 255 255 94 255 253 97 255 254 92 253 255 92 250 248 95 245 255 125 255 249 128 255 253 128 254 254 124 250 255 127 255 255 127 255 255 127 255 255 127 255 255 127 255 255 127 255 255 127 255 255 127 255 255 159 255 255 159 255 255 159 255 255 159 255 255 159 255 255 159 255 255 159 255 255 159 255 251 160 255 255 157 255 255 160 254 251 161 248 255 188 255 248 189 253 253 193 253 255 190 251 253 191 254 253 191 254 253 191 254 253 191 254 253 191 254 253 191 254 253 191 254 253 191 254 255 223 254 255 223 254 255 223 254 255 223 254 255 223 254 255 223 254 255 223 254 255 223 254 255 228 255 239 236 253 255 227 255 242 241 255 4 238 229 0 252 255 10 248 255 0 254 255 8 255 247 6 255 247 3 255 247 3 255 247 5 255 247 8 255 247 12 253 247 15 251 247 30 227 255 29 223 255 31 219 255 34 216 255 38 217 255 37 219 255 36 220 255 33 219 255 36 219 253 31 220 252 35 222 255 47 214 255 54 195 251 64 188 252 70 189 255 65 190 255 68 190 255 68 190 255 68 190 255 68 190 255 68 190 255 68 190 255 68 190 255 68 190 255 99 157 255 99 157 255 99 157 255 99 157 255 99 157 255 99 157 255 99 157 255 99 157 255 101 156 255 34 223 255 34 223 255 34 223 255 34 223 255 34 223 255 34 223 255 34 223 255 34 223 255 34 223 253 30 224 252 35 225 255 45 217 255 52 197 250 61 189 250 67 192 255 62 192 254 63 193 255 63 193 255 64 192 255 64 192 255 66 191 255 67 191 255 67 191 255 67 191 255 93 162 255 95 161 255 95 161 255 96 160 255 96 160 255 97 160 255 97 160 255 99 159 255 99 159 255 94 160 254 98 162 255 109 153 255 115 134 252 126 125 252 131 128 255 125 128 255 129 128 255 
129 128 255 130 127 255 130 127 255 132 127 255 133 126 255 133 126 255 133 126 255 155 98 255 155 98 255 157 97 255 157 97 255 158 96 255 158 96 255 160 96 255 160 96 255 161 95 253 157 96 252 163 97 255 174 88 255 182 68 251 193 59 250 198 61 255 195 61 255 193 64 255 193 64 255 193 64 255 194 63 255 196 62 255 196 62 255 197 61 255 197 61 255 222 34 255 222 34 255 223 33 255 223 33 255 224 32 255 224 32 255 226 31 255 226 31 255 226 32 253 222 32 252 226 34 255 236 26 255 244 6 250 253 0 250 255 0 255 254 0 255 255 1 255 255 1 255 255 1 255 255 1 255 255 1 255 255 1 255 255 1 255 255 1 255 254 33 255 254 33 255 254 33 255 254 33 255 254 33 255 254 33 255 254 33 255 254 33 255 251 35 255 254 29 255 255 31 253 248 34 246 255 64 255 251 67 255 254 68 255 255 63 252 255 64 255 255 64 255 255 64 255 255 64 255 255 64 255 255 64 255 255 64 255 255 64 255 255 94 255 255 94 255 255 94 255 255 94 255 255 94 255 255 94 255 255 94 255 255 94 255 253 97 255 254 92 253 255 92 250 248 95 245 255 125 255 249 128 255 253 128 254 254 124 250 255 127 255 255 127 255 255 127 255 255 127 255 255 127 255 255 127 255 255 127 255 255 127 255 255 159 255 255 159 255 255 159 255 255 159 255 255 159 255 255 159 255 255 159 255 255 159 255 251 160 255 255 157 255 255 160 254 251 161 248 255 188 255 248 189 253 253 193 253 255 190 251 253 191 254 253 191 254 253 191 254 253 191 254 253 191 254 253 191 254 253 191 254 253 191 254 255 223 254 255 223 254 255 223 254 255 223 254 255 223 254 255 223 254 255 223 254 255 223 254 255 221 255 242 228 253 255 217 250 252 237 255 1 237 223 1 255 254 14 252 254 0 255 242 2 250 255 0 252 255 0 252 255 0 252 255 0 252 255 2 250 255 7 247 255 10 246 255 30 229 255 30 224 255 30 218 255 34 216 255 38 217 255 39 218 255 36 220 255 33 219 255 36 219 253 32 219 252 37 221 255 47 214 255 54 195 251 65 187 252 70 189 255 66 189 255 68 190 255 68 190 255 68 190 255 68 190 255 68 190 255 68 190 255 68 190 255 68 190 255 99 157 255 99 157 255 99 157 255 99 157 255 99 157 255 99 157 255 99 157 255 99 157 255 101 156 255 34 223 255 34 223 255 34 223 255 34 223 255 34 223 255 34 223 255 34 223 255 34 223 255 34 223 253 30 224 252 35 225 255 44 217 255 51 198 250 61 189 250 67 192 255 62 192 254 64 192 255 64 192 255 64 192 255 64 192 255 64 192 255 64 192 255 64 192 255 64 192 255 92 161 255 94 160 255 94 160 255 95 159 255 95 159 255 96 159 255 96 159 255 98 158 255 97 157 253 92 158 252 96 160 255 108 152 255 114 133 251 126 125 252 130 127 255 125 128 255 126 130 255 128 129 255 128 129 255 129 128 255 129 128 255 130 127 255 130 127 255 132 127 255 160 96 255 160 96 255 160 96 255 160 96 255 160 96 255 160 96 255 160 96 255 160 96 255 161 95 253 157 96 252 163 97 255 174 88 255 180 69 251 191 60 250 197 61 255 193 61 255 191 64 255 193 64 255 193 64 255 194 63 255 194 63 255 196 62 255 196 62 255 197 61 255 
220 32 253 220 32 253 221 31 253 221 31 253 222 30 253 222 30 253 224 29 253 224 29 253 224 30 251 220 30 250 224 32 255 234 24 255 243 5 249 253 0 250 255 0 255 254 0 255 253 0 253 253 0 253 253 0 253 253 0 253 253 0 253 253 0 253 253 0 253 253 0 253 255 31 255 255 31 255 255 31 255 255 31 255 255 31 255 255 31 255 255 31 255 255 31 255 253 34 255 255 28 255 255 30 253 250 33 246 255 63 255 251 66 255 254 68 255 255 62 252 255 64 255 255 64 255 255 64 255 255 64 255 255 64 255 255 64 255 255 64 255 255 64 255 255 94 255 255 94 255 255 94 255 255 94 255 255 94 255 255 94 255 255 94 255 255 94 255 253 97 255 254 92 253 255 93 251 249 96 246 255 126 255 251 130 255 255 130 255 255 126 252 254 128 253 254 128 253 254 128 253 254 128 253 254 128 253 254 128 253 254 128 253 254 128 253 255 159 255 255 159 255 255 159 255 255 159 255 255 159 255 255 159 255 255 159 255 255 159 255 250 160 255 255 158 255 255 161 254 250 162 248 255 188 255 246 190 253 252 194 253 255 190 251 254 192 255 254 192 255 254 192 255 254 192 255 254 192 255 254 192 255 254 192 255 254 192 255 255 224 255 255 224 255 255 224 255 255 224 255 255 224 255 255 224 255 255 224 255 255 224 255 251 226 255 255 227 244 253 220 255 225 244 255 16 230 238 1 255 244 0 254 255 9 248 251 3 252 254 3 252 254 3 252 254 3 252 254 3 252 254 3 252 254 3 252 254 3 252 254 34 221 255 34 221 255 34 221 255 34 221 255 34 221 255 34 221 255 34 221 255 34 221 255 35 219 253 31 220 252 35 222 255 47 214 255 54 195 251 64 188 252 68 190 255 65 190 255 65 190 255 65 190 255 66 189 255 66 189 255 67 189 255 69 188 255 69 188 255 69 188 255 99 157 255 99 157 255 99 157 255 99 157 255 99 157 255 99 157 255 99 157 255 99 157 255 99 157 255 34 223 255 34 223 255 34 223 255 34 223 255 34 223 255 34 223 255 34 223 255 34 223 255 34 223 253 30 224 252 35 225 255 44 217 255 51 198 250 61 189 250 67 192 255 62 192 254 64 192 255 64 192 255 64 192 255 64 192 255 64 192 255 64 192 255 64 192 255 64 192 255 92 161 255 94 160 255 94 160 255 95 159 255 95 159 255 96 159 255 96 159 255 98 158 255 97 157 253 92 158 252 96 160 255 108 152 255 114 133 251 126 125 252 130 127 255 125 128 255 126 130 255 128 129 255 128 129 255 129 128 255 129 128 255 130 127 255 130 127 255 132 127 255 160 96 255 160 96 255 160 96 255 160 96 255 160 96 255 160 96 255 160 96 255 160 96 255 161 95 253 157 96 252 163 97 255 174 88 255 180 69 251 191 60 250 197 61 255 193 61 255 191 64 255 193 64 255 193 64 255 194 63 255 194 63 255 196 62 255 196 62 255 197 61 255 220 32 253 220 32 253 221 31 253 221 31 253 222 30 253 222 30 253 224 29 253 224 29 253 224 30 251 220 30 250 224 32 255 234 24 255 243 5 249 253 0 250 255 0 255 254 0 255 253 0 253 253 0 253 253 0 253 253 0 253 253 0 253 253 0 253 253 0 253 253 0 253 255 31 255 255 31 255 255 31 255 255 31 255 255 31 255 255 31 255 255 31 255 
255 31 255 253 34 255 255 28 255 255 30 253 250 33 246 255 63 255 251 66 255 254 68 255 255 62 252 255 64 255 255 64 255 255 64 255 255 64 255 255 64 255 255 64 255 255 64 255 255 64 255 255 94 255 255 94 255 255 94 255 255 94 255 255 94 255 255 94 255 255 94 255 255 94 255 253 97 255 254 92 253 255 93 251 249 96 246 255 126 255 251 130 255 255 130 255 255 126 252 254 128 253 254 128 253 254 128 253 254 128 253 254 128 253 254 128 253 254 128 253 254 128 253 255 159 255 255 159 255 255 159 255 255 159 255 255 159 255 255 159 255 255 159 255 255 159 255 250 160 255 255 158 255 255 161 254 250 162 248 255 188 255 246 190 253 252 194 253 255 190 251 254 192 255 254 192 255 254 192 255 254 192 255 254 192 255 254 192 255 254 192 255 254 192 255 255 224 255 255 224 255 255 224 255 255 224 255 255 224 255 255 224 255 255 224 255 255 224 255 251 226 255 255 227 244 253 220 255 225 244 255 16 230 238 1 255 244 0 254 255 9 248 251 3 252 254 3 252 254 3 252 254 3 252 254 3 252 254 3 252 254 3 252 254 3 252 254 34 221 255 34 221 255 34 221 255 34 221 255 34 221 255 34 221 255 34 221 255 34 221 255 35 219 253 31 220 252 35 222 255 47 214 255 54 195 251 64 188 252 68 190 255 65 190 255 65 190 255 65 190 255 66 189 255 66 189 255 67 189 255 69 188 255 69 188 255 69 188 255 99 157 255 99 157 255 99 157 255 99 157 255 99 157 255 99 157 255 99 157 255 99 157 255 99 157 255 34 223 255 34 223 255 34 223 255 34 223 255 34 223 255 34 223 255 34 223 255 34 223 255 34 223 253 30 224 252 35 225 255 44 217 255 51 198 250 61 189 250 67 192 255 62 192 254 64 192 255 64 192 255 64 192 255 64 192 255 64 192 255 64 192 255 64 192 255 64 192 255 92 161 255 94 160 255 94 160 255 95 159 255 95 159 255 96 159 255 96 159 255 98 158 255 97 157 253 92 158 252 96 160 255 108 152 255 114 133 251 126 125 252 130 127 255 125 128 255 126 130 255 128 129 255 128 129 255 129 128 255 129 128 255 130 127 255 130 127 255 132 127 255 160 96 255 160 96 255 160 96 255 160 96 255 160 96 255 160 96 255 160 96 255 160 96 255 161 95 253 157 96 252 163 97 255 174 88 255 180 69 251 191 60 250 197 61 255 193 61 255 191 64 255 193 64 255 193 64 255 194 63 255 194 63 255 196 62 255 196 62 255 197 61 255 220 32 253 220 32 253 221 31 253 221 31 253 222 30 253 222 30 253 224 29 253 224 29 253 224 30 251 220 30 250 224 32 255 234 24 255 243 5 249 253 0 250 255 0 255 254 0 255 253 0 253 253 0 253 253 0 253 253 0 253 253 0 253 253 0 253 253 0 253 253 0 253 255 31 255 255 31 255 255 31 255 255 31 255 255 31 255 255 31 255 255 31 255 255 31 255 253 34 255 255 28 255 255 30 253 250 33 246 255 63 255 251 66 255 254 68 255 255 62 252 255 64 255 255 64 255 255 64 255 255 64 255 255 64 255 255 64 255 255 64 255 255 64 255 255 94 255 255 94 255 255 94 255 255 94 255 255 94 255 255 94 255 255 94 255 255 94 255 253 97 255 254 92 253 255 93 251 249 96 246 255 126 255 251 130 255 
255 130 255 255 126 252 254 128 253 254 128 253 254 128 253 254 128 253 254 128 253 254 128 253 254 128 253 254 128 253 255 159 255 255 159 255 255 159 255 255 159 255 255 159 255 255 159 255 255 159 255 255 159 255 250 160 255 255 158 255 255 161 254 250 162 248 255 188 255 246 190 253 252 194 253 255 190 251 254 192 255 254 192 255 254 192 255 254 192 255 254 192 255 254 192 255 254 192 255 254 192 255 255 224 255 255 224 255 255 224 255 255 224 255 255 224 255 255 224 255 255 224 255 255 224 255 251 226 255 255 227 244 253 220 255 225 244 255 16 230 238 1 255 244 0 254 255 9 248 251 3 252 254 3 252 254 3 252 254 3 252 254 3 252 254 3 252 254 3 252 254 3 252 254 34 221 255 34 221 255 34 221 255 34 221 255 34 221 255 34 221 255 34 221 255 34 221 255 35 219 253 31 220 252 35 222 255 47 214 255 54 195 251 64 188 252 68 190 255 65 190 255 65 190 255 65 190 255 66 189 255 66 189 255 67 189 255 69 188 255 69 188 255 69 188 255 99 157 255 99 157 255 99 157 255 99 157 255 99 157 255 99 157 255 99 157 255 99 157 255 99 157 255 34 223 255 34 223 255 34 223 255 34 223 255 34 223 255 34 223 255 34 223 255 34 223 255 34 223 253 30 224 252 35 225 255 44 217 255 51 198 250 61 189 250 67 192 255 62 192 254 64 192 255 64 192 255 64 192 255 64 192 255 64 192 255 64 192 255 64 192 255 64 192 255 92 161 255 94 160 255 94 160 255 95 159 255 95 159 255 96 159 255 96 159 255 98 158 255 97 157 253 92 158 252 96 160 255 108 152 255 114 133 251 126 125 252 130 127 255 125 128 255 126 130 255 128 129 255 128 129 255 129 128 255 129 128 255 130 127 255 130 127 255 132 127 255 160 96 255 160 96 255 160 96 255 160 96 255 160 96 255 160 96 255 160 96 255 160 96 255 161 95 253 157 96 252 163 97 255 174 88 255 180 69 251 191 60 250 197 61 255 193 61 255 191 64 255 193 64 255 193 64 255 194 63 255 194 63 255 196 62 255 196 62 255 197 61 255 220 32 253 220 32 253 221 31 253 221 31 253 222 30 253 222 30 253 224 29 253 224 29 253 224 30 251 220 30 250 224 32 255 234 24 255 243 5 249 253 0 250 255 0 255 254 0 255 253 0 253 253 0 253 253 0 253 253 0 253 253 0 253 253 0 253 253 0 253 253 0 253 255 31 255 255 31 255 255 31 255 255 31 255 255 31 255 255 31 255 255 31 255 255 31 255 253 34 255 255 28 255 255 30 253 250 33 246 255 63 255 251 66 255 254 68 255 255 62 252 255 64 255 255 64 255 255 64 255 255 64 255 255 64 255 255 64 255 255 64 255 255 64 255 255 94 255 255 94 255 255 94 255 255 94 255 255 94 255 255 94 255 255 94 255 255 94 255 253 97 255 254 92 253 255 93 251 249 96 246 255 126 255 251 130 255 255 130 255 255 126 252 254 128 253 254 128 253 254 128 253 254 128 253 254 128 253 254 128 253 254 128 253 254 128 253 255 159 255 255 159 255 255 159 255 255 159 255 255 159 255 255 159 255 255 159 255 255 159 255 250 160 255 255 158 255 255 161 254 250 162 248 255 188 255 246 190 253 252 194 253 255 190 251 254 192 255 254 192 255 254 192 255 254 192 255 254 192 255 
254 192 255 254 192 255 254 192 255 255 224 255 255 224 255 255 224 255 255 224 255 255 224 255 255 224 255 255 224 255 255 224 255 251 226 255 255 227 244 253 220 255 225 244 255 16 230 238 1 255 244 0 254 255 9 248 251 3 252 254 3 252 254 3 252 254 3 252 254 3 252 254 3 252 254 3 252 254 3 252 254 34 221 255 34 221 255 34 221 255 34 221 255 34 221 255 34 221 255 34 221 255 34 221 255 35 219 253 31 220 252 35 222 255 47 214 255 54 195 251 64 188 252 68 190 255 65 190 255 65 190 255 65 190 255 66 189 255 66 189 255 67 189 255 69 188 255 69 188 255 69 188 255 99 157 255 99 157 255 99 157 255 99 157 255 99 157 255 99 157 255 99 157 255 99 157 255 99 157 255 34 223 255 34 223 255 34 223 255 34 223 255 34 223 255 34 223 255 34 223 255 34 223 255 34 223 253 30 224 252 35 225 255 44 217 255 51 198 250 61 189 250 67 192 255 62 192 254 64 192 255 64 192 255 64 192 255 64 192 255 64 192 255 64 192 255 64 192 255 64 192 255 92 161 255 94 160 255 94 160 255 95 159 255 95 159 255 96 159 255 96 159 255 98 158 255 97 157 253 92 158 252 96 160 255 108 152 255 114 133 251 126 125 252 130 127 255 125 128 255 126 130 255 128 129 255 128 129 255 129 128 255 129 128 255 130 127 255 130 127 255 132 127 255 160 96 255 160 96 255 160 96 255 160 96 255 160 96 255 160 96 255 160 96 255 160 96 255 161 95 253 157 96 252 163 97 255 174 88 255 180 69 251 191 60 250 197 61 255 193 61 255 191 64 255 193 64 255 193 64 255 194 63 255 194 63 255 196 62 255 196 62 255 197 61 255 220 32 253 220 32 253 221 31 253 221 31 253 222 30 253 222 30 253 224 29 253 224 29 253 224 30 251 220 30 250 224 32 255 234 24 255 243 5 249 253 0 250 255 0 255 254 0 255 253 0 253 253 0 253 253 0 253 253 0 253 253 0 253 253 0 253 253 0 253 253 0 253 255 31 255 255 31 255 255 31 255 255 31 255 255 31 255 255 31 255 255 31 255 255 31 255 253 34 255 255 28 255 255 30 253 250 33 246 255 63 255 251 66 255 254 68 255 255 62 252 255 64 255 255 64 255 255 64 255 255 64 255 255 64 255 255 64 255 255 64 255 255 64 255 255 94 255 255 94 255 255 94 255 255 94 255 255 94 255 255 94 255 255 94 255 255 94 255 253 97 255 254 92 253 255 93 251 249 96 246 255 126 255 251 130 255 255 130 255 255 126 252 254 128 253 254 128 253 254 128 253 254 128 253 254 128 253 254 128 253 254 128 253 254 128 253 255 159 255 255 159 255 255 159 255 255 159 255 255 159 255 255 159 255 255 159 255 255 159 255 250 160 255 255 158 255 255 161 254 250 162 248 255 188 255 246 190 253 252 194 253 255 190 251 254 192 255 254 192 255 254 192 255 254 192 255 254 192 255 254 192 255 254 192 255 254 192 255 255 224 255 255 224 255 255 224 255 255 224 255 255 224 255 255 224 255 255 224 255 255 224 255 251 226 255 255 227 244 253 220 255 225 244 255 16 230 238 1 255 244 0 254 255 9 248 251 3 252 254 3 252 254 3 252 254 3 252 254 3 252 254 3 252 254 3 252 254 3 252 254 34 221 255 34 221 255 34 221 255 34 221 255 
34 221 255 34 221 255 34 221 255 34 221 255 35 219 253 31 220 252 35 222 255 47 214 255 54 195 251 64 188 252 68 190 255 65 190 255 65 190 255 65 190 255 66 189 255 66 189 255 67 189 255 69 188 255 69 188 255 69 188 255 99 157 255 99 157 255 99 157 255 99 157 255 99 157 255 99 157 255 99 157 255 99 157 255 99 157 255 34 223 255 34 223 255 34 223 255 34 223 255 34 223 255 34 223 255 34 223 255 34 223 255 34 223 253 30 224 252 35 225 255 44 217 255 51 198 250 61 189 250 67 192 255 62 192 254 64 192 255 64 192 255 64 192 255 64 192 255 64 192 255 64 192 255 64 192 255 64 192 255 92 161 255 94 160 255 94 160 255 95 159 255 95 159 255 96 159 255 96 159 255 98 158 255 97 157 253 92 158 252 96 160 255 108 152 255 114 133 251 126 125 252 130 127 255 125 128 255 126 130 255 128 129 255 128 129 255 129 128 255 129 128 255 130 127 255 130 127 255 132 127 255 160 96 255 160 96 255 160 96 255 160 96 255 160 96 255 160 96 255 160 96 255 160 96 255 161 95 253 157 96 252 163 97 255 174 88 255 180 69 251 191 60 250 197 61 255 193 61 255 191 64 255 193 64 255 193 64 255 194 63 255 194 63 255 196 62 255 196 62 255 197 61 255 220 32 253 220 32 253 221 31 253 221 31 253 222 30 253 222 30 253 224 29 253 224 29 253 224 30 251 220 30 250 224 32 255 234 24 255 243 5 249 253 0 250 255 0 255 254 0 255 253 0 253 253 0 253 253 0 253 253 0 253 253 0 253 253 0 253 253 0 253 253 0 253 255 31 255 255 31 255 255 31 255 255 31 255 255 31 255 255 31 255 255 31 255 255 31 255 253 34 255 255 28 255 255 30 253 250 33 246 255 63 255 251 66 255 254 68 255 255 62 252 255 64 255 255 64 255 255 64 255 255 64 255 255 64 255 255 64 255 255 64 255 255 64 255 255 94 255 255 94 255 255 94 255 255 94 255 255 94 255 255 94 255 255 94 255 255 94 255 253 97 255 254 92 253 255 93 251 249 96 246 255 126 255 251 130 255 255 130 255 255 126 252 254 128 253 254 128 253 254 128 253 254 128 253 254 128 253 254 128 253 254 128 253 254 128 253 255 159 255 255 159 255 255 159 255 255 159 255 255 159 255 255 159 255 255 159 255 255 159 255 250 160 255 255 158 255 255 161 254 250 162 248 255 188 255 246 190 253 252 194 253 255 190 251 254 192 255 254 192 255 254 192 255 254 192 255 254 192 255 254 192 255 254 192 255 254 192 255 255 224 255 255 224 255 255 224 255 255 224 255 255 224 255 255 224 255 255 224 255 255 224 255 251 226 255 255 227 244 253 220 255 225 244 255 16 230 238 1 255 244 0 254 255 9 248 251 3 252 254 3 252 254 3 252 254 3 252 254 3 252 254 3 252 254 3 252 254 3 252 254 34 221 255 34 221 255 34 221 255 34 221 255 34 221 255 34 221 255 34 221 255 34 221 255 35 219 253 31 220 252 35 222 255 47 214 255 54 195 251 64 188 252 68 190 255 65 190 255 65 190 255 65 190 255 66 189 255 66 189 255 67 189 255 69 188 255 69 188 255 69 188 255 99 157 255 99 157 255 99 157 255 99 157 255 99 157 255 99 157 255 99 157 255 99 157 255 99 157 255 34 223 255 34 223 255 
34 223 255 34 223 255 34 223 255 34 223 255 34 223 255 34 223 255 34 223 253 30 224 252 35 225 255 44 217 255 51 198 250 61 189 250 67 192 255 62 192 254 64 192 255 64 192 255 64 192 255 64 192 255 64 192 255 64 192 255 64 192 255 64 192 255 92 161 255 94 160 255 94 160 255 95 159 255 95 159 255 96 159 255 96 159 255 98 158 255 97 157 253 92 158 252 96 160 255 108 152 255 114 133 251 126 125 252 130 127 255 125 128 255 126 130 255 128 129 255 128 129 255 129 128 255 129 128 255 130 127 255 130 127 255 132 127 255 160 96 255 160 96 255 160 96 255 160 96 255 160 96 255 160 96 255 160 96 255 160 96 255 161 95 253 157 96 252 163 97 255 174 88 255 180 69 251 191 60 250 197 61 255 193 61 255 191 64 255 193 64 255 193 64 255 194 63 255 194 63 255 196 62 255 196 62 255 197 61 255 220 32 253 220 32 253 221 31 253 221 31 253 222 30 253 222 30 253 224 29 253 224 29 253 224 30 251 220 30 250 224 32 255 234 24 255 243 5 249 253 0 250 255 0 255 254 0 255 253 0 253 253 0 253 253 0 253 253 0 253 253 0 253 253 0 253 253 0 253 253 0 253 255 31 255 255 31 255 255 31 255 255 31 255 255 31 255 255 31 255 255 31 255 255 31 255 253 34 255 255 28 255 255 30 253 250 33 246 255 63 255 251 66 255 254 68 255 255 62 252 255 64 255 255 64 255 255 64 255 255 64 255 255 64 255 255 64 255 255 64 255 255 64 255 255 94 255 255 94 255 255 94 255 255 94 255 255 94 255 255 94 255 255 94 255 255 94 255 253 97 255 254 92 253 255 93 251 249 96 246 255 126 255 251 130 255 255 130 255 255 126 252 254 128 253 254 128 253 254 128 253 254 128 253 254 128 253 254 128 253 254 128 253 254 128 253 255 159 255 255 159 255 255 159 255 255 159 255 255 159 255 255 159 255 255 159 255 255 159 255 250 160 255 255 158 255 255 161 254 250 162 248 255 188 255 246 190 253 252 194 253 255 190 251 254 192 255 254 192 255 254 192 255 254 192 255 254 192 255 254 192 255 254 192 255 254 192 255 255 224 255 255 224 255 255 224 255 255 224 255 255 224 255 255 224 255 255 224 255 255 224 255 251 226 255 255 227 244 253 220 255 225 244 255 16 230 238 1 255 244 0 254 255 9 248 251 3 252 254 3 252 254 3 252 254 3 252 254 3 252 254 3 252 254 3 252 254 3 252 254 34 221 255 34 221 255 34 221 255 34 221 255 34 221 255 34 221 255 34 221 255 34 221 255 35 219 253 31 220 252 35 222 255 47 214 255 54 195 251 64 188 252 68 190 255 65 190 255 65 190 255 65 190 255 66 189 255 66 189 255 67 189 255 69 188 255 69 188 255 69 188 255 99 157 255 99 157 255 99 157 255 99 157 255 99 157 255 99 157 255 99 157 255 99 157 255 99 157 255 34 223 255 34 223 255 34 223 255 34 223 255 34 223 255 34 223 255 34 223 255 34 223 255 34 223 253 30 224 252 35 225 255 44 217 255 51 198 250 61 189 250 67 192 255 62 192 254 64 192 255 64 192 255 64 192 255 64 192 255 64 192 255 64 192 255 64 192 255 64 192 255 92 161 255 94 160 255 94 160 255 95 159 255 95 159 255 96 159 255 96 159 255 98 158 255 97 157 253 
92 158 252 96 160 255 108 152 255 114 133 251 126 125 252 130 127 255 125 128 255 126 130 255 128 129 255 128 129 255 129 128 255 129 128 255 130 127 255 130 127 255 132 127 255 160 96 255 160 96 255 160 96 255 160 96 255 160 96 255 160 96 255 160 96 255 160 96 255 161 95 253 157 96 252 163 97 255 174 88 255 180 69 251 191 60 250 197 61 255 193 61 255 191 64 255 193 64 255 193 64 255 194 63 255 194 63 255 196 62 255 196 62 255 197 61 255 220 32 253 220 32 253 221 31 253 221 31 253 222 30 253 222 30 253 224 29 253 224 29 253 224 30 251 220 30 250 224 32 255 234 24 255 243 5 249 253 0 250 255 0 255 254 0 255 253 0 253 253 0 253 253 0 253 253 0 253 253 0 253 253 0 253 253 0 253 253 0 253 255 31 255 255 31 255 255 31 255 255 31 255 255 31 255 255 31 255 255 31 255 255 31 255 253 34 255 255 28 255 255 30 253 250 33 246 255 63 255 251 66 255 254 68 255 255 62 252 255 64 255 255 64 255 255 64 255 255 64 255 255 64 255 255 64 255 255 64 255 255 64 255 255 94 255 255 94 255 255 94 255 255 94 255 255 94 255 255 94 255 255 94 255 255 94 255 253 97 255 254 92 253 255 93 251 249 96 246 255 126 255 251 130 255 255 130 255 255 126 252 254 128 253 254 128 253 254 128 253 254 128 253 254 128 253 254 128 253 254 128 253 254 128 253 255 159 255 255 159 255 255 159 255 255 159 255 255 159 255 255 159 255 255 159 255 255 159 255 250 160 255 255 158 255 255 161 254 250 162 248 255 188 255 246 190 253 252 194 253 255 190 251 254 192 255 254 192 255 254 192 255 254 192 255 254 192 255 254 192 255 254 192 255 254 192 255 255 224 255 255 224 255 255 224 255 255 224 255 255 224 255 255 224 255 255 224 255 255 224 255 251 226 255 255 227 244 253 220 255 225 244 255 16 230 238 1 255 244 0 254 255 9 248 251 3 252 254 3 252 254 3 252 254 3 252 254 3 252 254 3 252 254 3 252 254 3 252 254 34 221 255 34 221 255 34 221 255 34 221 255 34 221 255 34 221 255 34 221 255 34 221 255 35 219 253 31 220 252 35 222 255 47 214 255 54 195 251 64 188 252 68 190 255 65 190 255 65 190 255 65 190 255 66 189 255 66 189 255 67 189 255 69 188 255 69 188 255 69 188 255 99 157 255 99 157 255 99 157 255 99 157 255 99 157 255 99 157 255 99 157 255 99 157 255 99 157 255 34 221 255 34 221 255 34 221 255 34 221 255 34 221 255 34 221 255 34 221 255 34 221 255 35 219 253 31 220 252 35 222 255 47 214 255 54 195 251 64 188 252 68 190 255 65 190 255 65 190 255 65 190 255 66 189 255 66 189 255 67 189 255 69 188 255 69 188 255 69 188 255 99 157 255 99 157 255 99 157 255 99 157 255 99 157 255 99 157 255 99 157 255 99 157 255 101 157 254 97 157 253 101 159 255 110 151 255 119 131 251 128 123 251 132 125 255 128 125 255 129 126 255 129 126 255 131 126 255 131 126 255 132 125 255 132 125 255 134 124 255 134 124 255 156 94 253 158 94 253 158 94 253 159 93 253 159 93 253 160 92 253 160 92 253 162 92 253 160 93 251 157 93 250 162 94 255 173 85 255 182 67 250 194 59 250 198 61 255 195 61 255 
194 63 255 194 63 255 194 63 255 196 62 255 197 61 255 197 61 255 198 61 255 198 61 255 222 30 255 224 29 255 224 29 255 225 28 255 225 28 255 227 28 255 227 28 255 228 27 255 229 28 255 225 28 255 228 31 255 238 24 255 245 5 250 254 0 249 255 1 254 253 2 253 255 2 255 255 1 255 255 1 255 255 1 255 254 0 254 254 0 254 254 0 254 253 0 253 255 33 255 255 33 255 255 33 255 255 33 255 255 33 255 255 33 255 255 33 255 255 33 255 253 35 255 255 32 254 255 35 254 253 36 247 255 63 255 249 64 254 254 68 255 255 64 252 255 66 255 255 66 255 255 66 255 255 66 255 255 66 255 255 66 255 255 66 255 255 66 255 255 98 255 255 98 255 255 98 255 255 98 255 255 98 255 255 98 255 255 98 255 255 98 255 252 101 255 254 94 252 255 96 251 249 99 246 255 129 255 251 133 255 253 134 254 255 128 249 254 131 255 254 131 255 254 131 255 254 131 255 254 131 255 254 131 255 254 131 255 254 131 255 255 161 255 255 161 255 255 161 255 255 161 255 255 161 255 255 161 255 255 161 255 255 161 255 253 164 255 254 157 252 255 159 250 250 163 244 255 192 255 251 195 255 255 197 255 255 191 249 255 194 254 255 194 254 255 194 254 255 194 254 255 194 254 255 194 254 255 194 254 255 194 254 255 225 255 255 225 255 255 225 255 255 225 255 255 225 255 255 225 255 255 225 255 255 225 255 253 227 255 255 224 250 252 223 243 226 243 255 17 233 232 0 253 255 0 253 255 10 250 247 3 252 255 3 252 255 3 252 255 4 251 255 6 251 255 6 251 255 7 250 255 7 250 255 31 219 254 32 219 254 32 219 254 34 218 254 34 218 254 35 217 254 35 217 254 37 217 254 37 217 252 31 218 251 36 220 255 46 211 255 54 193 250 66 185 251 70 187 255 65 188 255 66 189 255 67 189 255 67 189 255 69 188 255 69 188 255 70 187 255 70 187 255 72 186 255 99 154 254 99 154 254 99 154 254 99 154 254 99 154 254 99 154 254 99 154 254 99 154 254 101 156 255 34 221 255 34 221 255 34 221 255 34 221 255 34 221 255 34 221 255 34 221 255 34 221 255 35 219 253 31 220 252 35 222 255 47 214 255 54 195 251 64 188 252 68 190 255 65 190 255 65 190 255 65 190 255 66 189 255 66 189 255 67 189 255 69 188 255 69 188 255 69 188 255 99 157 255 99 157 255 99 157 255 99 157 255 99 157 255 99 157 255 99 157 255 99 157 255 101 157 254 97 157 253 101 159 255 110 151 255 119 131 251 128 123 251 132 125 255 128 125 255 129 126 255 129 126 255 131 126 255 131 126 255 132 125 255 132 125 255 134 124 255 134 124 255 156 94 253 158 94 253 158 94 253 159 93 253 159 93 253 160 92 253 160 92 253 162 92 253 160 93 251 157 93 250 162 94 255 173 85 255 182 67 250 194 59 250 198 61 255 195 61 255 194 63 255 194 63 255 194 63 255 196 62 255 197 61 255 197 61 255 198 61 255 198 61 255 222 30 255 224 29 255 224 29 255 225 28 255 225 28 255 227 28 255 227 28 255 228 27 255 229 28 255 225 28 255 228 31 255 238 24 255 245 5 250 254 0 249 255 1 254 253 2 253 255 2 255 255 1 255 255 1 255 255 1 255 254 0 254 254 0 254 254 0 254 
253 0 253 255 33 255 255 33 255 255 33 255 255 33 255 255 33 255 255 33 255 255 33 255 255 33 255 253 35 255 255 32 254 255 35 254 253 36 247 255 63 255 249 64 254 254 68 255 255 64 252 255 66 255 255 66 255 255 66 255 255 66 255 255 66 255 255 66 255 255 66 255 255 66 255 255 98 255 255 98 255 255 98 255 255 98 255 255 98 255 255 98 255 255 98 255 255 98 255 252 101 255 254 94 252 255 96 251 249 99 246 255 129 255 251 133 255 253 134 254 255 128 249 254 131 255 254 131 255 254 131 255 254 131 255 254 131 255 254 131 255 254 131 255 254 131 255 255 161 255 255 161 255 255 161 255 255 161 255 255 161 255 255 161 255 255 161 255 255 161 255 253 164 255 254 157 252 255 159 250 250 163 244 255 192 255 251 195 255 255 197 255 255 191 249 255 194 254 255 194 254 255 194 254 255 194 254 255 194 254 255 194 254 255 194 254 255 194 254 255 225 255 255 225 255 255 225 255 255 225 255 255 225 255 255 225 255 255 225 255 255 225 255 253 227 255 255 224 250 252 223 243 226 243 255 17 233 232 0 253 255 0 253 255 10 250 247 3 252 255 3 252 255 3 252 255 4 251 255 6 251 255 6 251 255 7 250 255 7 250 255 31 219 254 32 219 254 32 219 254 34 218 254 34 218 254 35 217 254 35 217 254 37 217 254 37 217 252 31 218 251 36 220 255 46 211 255 54 193 250 66 185 251 70 187 255 65 188 255 66 189 255 67 189 255 67 189 255 69 188 255 69 188 255 70 187 255 70 187 255 72 186 255 99 154 254 99 154 254 99 154 254 99 154 254 99 154 254 99 154 254 99 154 254 99 154 254 101 156 255 34 221 255 34 221 255 34 221 255 34 221 255 34 221 255 34 221 255 34 221 255 34 221 255 35 219 253 31 220 252 35 222 255 47 214 255 54 195 251 64 188 252 68 190 255 65 190 255 65 190 255 65 190 255 66 189 255 66 189 255 67 189 255 69 188 255 69 188 255 69 188 255 99 157 255 99 157 255 99 157 255 99 157 255 99 157 255 99 157 255 99 157 255 99 157 255 101 157 254 97 157 253 101 159 255 110 151 255 119 131 251 128 123 251 132 125 255 128 125 255 129 126 255 129 126 255 131 126 255 131 126 255 132 125 255 132 125 255 134 124 255 134 124 255 156 94 253 158 94 253 158 94 253 159 93 253 159 93 253 160 92 253 160 92 253 162 92 253 160 93 251 157 93 250 162 94 255 173 85 255 182 67 250 194 59 250 198 61 255 195 61 255 194 63 255 194 63 255 194 63 255 196 62 255 197 61 255 197 61 255 198 61 255 198 61 255 222 30 255 224 29 255 224 29 255 225 28 255 225 28 255 227 28 255 227 28 255 228 27 255 229 28 255 225 28 255 228 31 255 238 24 255 245 5 250 254 0 249 255 1 254 253 2 253 255 2 255 255 1 255 255 1 255 255 1 255 254 0 254 254 0 254 254 0 254 253 0 253 255 33 255 255 33 255 255 33 255 255 33 255 255 33 255 255 33 255 255 33 255 255 33 255 253 35 255 255 32 254 255 35 254 253 36 247 255 63 255 249 64 254 254 68 255 255 64 252 255 66 255 255 66 255 255 66 255 255 66 255 255 66 255 255 66 255 255 66 255 255 66 255 255 98 255 255 98 255 255 98 255 255 98 255 255 98 255 255 98 255 
255 98 255 255 98 255 252 101 255 254 94 252 255 96 251 249 99 246 255 129 255 251 133 255 253 134 254 255 128 249 254 131 255 254 131 255 254 131 255 254 131 255 254 131 255 254 131 255 254 131 255 254 131 255 255 161 255 255 161 255 255 161 255 255 161 255 255 161 255 255 161 255 255 161 255 255 161 255 253 164 255 254 157 252 255 159 250 250 163 244 255 192 255 251 195 255 255 197 255 255 191 249 255 194 254 255 194 254 255 194 254 255 194 254 255 194 254 255 194 254 255 194 254 255 194 254 255 225 255 255 225 255 255 225 255 255 225 255 255 225 255 255 225 255 255 225 255 255 225 255 253 227 255 255 224 250 252 223 243 226 243 255 17 233 232 0 253 255 0 253 255 10 250 247 3 252 255 3 252 255 3 252 255 4 251 255 6 251 255 6 251 255 7 250 255 7 250 255 31 219 254 32 219 254 32 219 254 34 218 254 34 218 254 35 217 254 35 217 254 37 217 254 37 217 252 31 218 251 36 220 255 46 211 255 54 193 250 66 185 251 70 187 255 65 188 255 66 189 255 67 189 255 67 189 255 69 188 255 69 188 255 70 187 255 70 187 255 72 186 255 99 154 254 99 154 254 99 154 254 99 154 254 99 154 254 99 154 254 99 154 254 99 154 254 101 156 255 34 221 255 34 221 255 34 221 255 34 221 255 34 221 255 34 221 255 34 221 255 34 221 255 35 219 253 31 220 252 35 222 255 47 214 255 54 195 251 64 188 252 68 190 255 65 190 255 65 190 255 65 190 255 66 189 255 66 189 255 67 189 255 69 188 255 69 188 255 69 188 255 99 157 255 99 157 255 99 157 255 99 157 255 99 157 255 99 157 255 99 157 255 99 157 255 101 157 254 97 157 253 101 159 255 110 151 255 119 131 251 128 123 251 132 125 255 128 125 255 129 126 255 129 126 255 131 126 255 131 126 255 132 125 255 132 125 255 134 124 255 134 124 255 156 94 253 158 94 253 158 94 253 159 93 253 159 93 253 160 92 253 160 92 253 162 92 253 160 93 251 157 93 250 162 94 255 173 85 255 182 67 250 194 59 250 198 61 255 195 61 255 194 63 255 194 63 255 194 63 255 196 62 255 197 61 255 197 61 255 198 61 255 198 61 255 222 30 255 224 29 255 224 29 255 225 28 255 225 28 255 227 28 255 227 28 255 228 27 255 229 28 255 225 28 255 228 31 255 238 24 255 245 5 250 254 0 249 255 1 254 253 2 253 255 2 255 255 1 255 255 1 255 255 1 255 254 0 254 254 0 254 254 0 254 253 0 253 255 33 255 255 33 255 255 33 255 255 33 255 255 33 255 255 33 255 255 33 255 255 33 255 253 35 255 255 32 254 255 35 254 253 36 247 255 63 255 249 64 254 254 68 255 255 64 252 255 66 255 255 66 255 255 66 255 255 66 255 255 66 255 255 66 255 255 66 255 255 66 255 255 98 255 255 98 255 255 98 255 255 98 255 255 98 255 255 98 255 255 98 255 255 98 255 252 101 255 254 94 252 255 96 251 249 99 246 255 129 255 251 133 255 253 134 254 255 128 249 254 131 255 254 131 255 254 131 255 254 131 255 254 131 255 254 131 255 254 131 255 254 131 255 255 161 255 255 161 255 255 161 255 255 161 255 255 161 255 255 161 255 255 161 255 255 161 255 253 164 255 254 157 252 255 159 250 250 163 244 255 192 255 
251 195 255 255 197 255 255 191 249 255 194 254 255 194 254 255 194 254 255 194 254 255 194 254 255 194 254 255 194 254 255 194 254 255 225 255 255 225 255 255 225 255 255 225 255 255 225 255 255 225 255 255 225 255 255 225 255 253 227 255 255 224 250 252 223 243 226 243 255 17 233 232 0 253 255 0 253 255 10 250 247 3 252 255 3 252 255 3 252 255 4 251 255 6 251 255 6 251 255 7 250 255 7 250 255 31 219 254 32 219 254 32 219 254 34 218 254 34 218 254 35 217 254 35 217 254 37 217 254 37 217 252 31 218 251 36 220 255 46 211 255 54 193 250 66 185 251 70 187 255 65 188 255 66 189 255 67 189 255 67 189 255 69 188 255 69 188 255 70 187 255 70 187 255 72 186 255 99 154 254 99 154 254 99 154 254 99 154 254 99 154 254 99 154 254 99 154 254 99 154 254 101 156 255 34 221 255 34 221 255 34 221 255 34 221 255 34 221 255 34 221 255 34 221 255 34 221 255 35 219 253 31 220 252 35 222 255 47 214 255 54 195 251 64 188 252 68 190 255 65 190 255 65 190 255 65 190 255 66 189 255 66 189 255 67 189 255 69 188 255 69 188 255 69 188 255 99 157 255 99 157 255 99 157 255 99 157 255 99 157 255 99 157 255 99 157 255 99 157 255 101 157 254 97 157 253 101 159 255 110 151 255 119 131 251 128 123 251 132 125 255 128 125 255 129 126 255 129 126 255 131 126 255 131 126 255 132 125 255 132 125 255 134 124 255 134 124 255 156 94 253 158 94 253 158 94 253 159 93 253 159 93 253 160 92 253 160 92 253 162 92 253 160 93 251 157 93 250 162 94 255 173 85 255 182 67 250 194 59 250 198 61 255 195 61 255 194 63 255 194 63 255 194 63 255 196 62 255 197 61 255 197 61 255 198 61 255 198 61 255 222 30 255 224 29 255 224 29 255 225 28 255 225 28 255 227 28 255 227 28 255 228 27 255 229 28 255 225 28 255 228 31 255 238 24 255 245 5 250 254 0 249 255 1 254 253 2 253 255 2 255 255 1 255 255 1 255 255 1 255 254 0 254 254 0 254 254 0 254 253 0 253 255 33 255 255 33 255 255 33 255 255 33 255 255 33 255 255 33 255 255 33 255 255 33 255 253 35 255 255 32 254 255 35 254 253 36 247 255 63 255 249 64 254 254 68 255 255 64 252 255 66 255 255 66 255 255 66 255 255 66 255 255 66 255 255 66 255 255 66 255 255 66 255 255 98 255 255 98 255 255 98 255 255 98 255 255 98 255 255 98 255 255 98 255 255 98 255 252 101 255 254 94 252 255 96 251 249 99 246 255 129 255 251 133 255 253 134 254 255 128 249 254 131 255 254 131 255 254 131 255 254 131 255 254 131 255 254 131 255 254 131 255 254 131 255 255 161 255 255 161 255 255 161 255 255 161 255 255 161 255 255 161 255 255 161 255 255 161 255 253 164 255 254 157 252 255 159 250 250 163 244 255 192 255 251 195 255 255 197 255 255 191 249 255 194 254 255 194 254 255 194 254 255 194 254 255 194 254 255 194 254 255 194 254 255 194 254 255 225 255 255 225 255 255 225 255 255 225 255 255 225 255 255 225 255 255 225 255 255 225 255 253 227 255 255 224 250 252 223 243 226 243 255 17 233 232 0 253 255 0 253 255 10 250 247 3 252 255 3 252 255 3 252 255 4 251 255 
6 251 255 6 251 255 7 250 255 7 250 255 31 219 254 32 219 254 32 219 254 34 218 254 34 218 254 35 217 254 35 217 254 37 217 254 37 217 252 31 218 251 36 220 255 46 211 255 54 193 250 66 185 251 70 187 255 65 188 255 66 189 255 67 189 255 67 189 255 69 188 255 69 188 255 70 187 255 70 187 255 72 186 255 99 154 254 99 154 254 99 154 254 99 154 254 99 154 254 99 154 254 99 154 254 99 154 254 101 156 255 34 221 255 34 221 255 34 221 255 34 221 255 34 221 255 34 221 255 34 221 255 34 221 255 35 219 253 31 220 252 35 222 255 47 214 255 54 195 251 64 188 252 68 190 255 65 190 255 65 190 255 65 190 255 66 189 255 66 189 255 67 189 255 69 188 255 69 188 255 69 188 255 99 157 255 99 157 255 99 157 255 99 157 255 99 157 255 99 157 255 99 157 255 99 157 255 101 157 254 97 157 253 101 159 255 110 151 255 119 131 251 128 123 251 132 125 255 128 125 255 129 126 255 129 126 255 131 126 255 131 126 255 132 125 255 132 125 255 134 124 255 134 124 255 156 94 253 158 94 253 158 94 253 159 93 253 159 93 253 160 92 253 160 92 253 162 92 253 160 93 251 157 93 250 162 94 255 173 85 255 182 67 250 194 59 250 198 61 255 195 61 255 194 63 255 194 63 255 194 63 255 196 62 255 197 61 255 197 61 255 198 61 255 198 61 255 222 30 255 224 29 255 224 29 255 225 28 255 225 28 255 227 28 255 227 28 255 228 27 255 229 28 255 225 28 255 228 31 255 238 24 255 245 5 250 254 0 249 255 1 254 253 2 253 255 2 255 255 1 255 255 1 255 255 1 255 254 0 254 254 0 254 254 0 254 253 0 253 255 33 255 255 33 255 255 33 255 255 33 255 255 33 255 255 33 255 255 33 255 255 33 255 253 35 255 255 32 254 255 35 254 253 36 247 255 63 255 249 64 254 254 68 255 255 64 252 255 66 255 255 66 255 255 66 255 255 66 255 255 66 255 255 66 255 255 66 255 255 66 255 255 98 255 255 98 255 255 98 255 255 98 255 255 98 255 255 98 255 255 98 255 255 98 255 252 101 255 254 94 252 255 96 251 249 99 246 255 129 255 251 133 255 253 134 254 255 128 249 254 131 255 254 131 255 254 131 255 254 131 255 254 131 255 254 131 255 254 131 255 254 131 255 255 161 255 255 161 255 255 161 255 255 161 255 255 161 255 255 161 255 255 161 255 255 161 255 253 164 255 254 157 252 255 159 250 250 163 244 255 192 255 251 195 255 255 197 255 255 191 249 255 194 254 255 194 254 255 194 254 255 194 254 255 194 254 255 194 254 255 194 254 255 194 254 255 225 255 255 225 255 255 225 255 255 225 255 255 225 255 255 225 255 255 225 255 255 225 255 253 227 255 255 224 250 252 223 243 226 243 255 17 233 232 0 253 255 0 253 255 10 250 247 3 252 255 3 252 255 3 252 255 4 251 255 6 251 255 6 251 255 7 250 255 7 250 255 31 219 254 32 219 254 32 219 254 34 218 254 34 218 254 35 217 254 35 217 254 37 217 254 37 217 252 31 218 251 36 220 255 46 211 255 54 193 250 66 185 251 70 187 255 65 188 255 66 189 255 67 189 255 67 189 255 69 188 255 69 188 255 70 187 255 70 187 255 72 186 255 99 154 254 99 154 254 99 154 254 
99 154 254 99 154 254 99 154 254 99 154 254 99 154 254 101 156 255 34 221 255 34 221 255 34 221 255 34 221 255 34 221 255 34 221 255 34 221 255 34 221 255 35 219 253 31 220 252 35 222 255 47 214 255 54 195 251 64 188 252 68 190 255 65 190 255 65 190 255 65 190 255 66 189 255 66 189 255 67 189 255 69 188 255 69 188 255 69 188 255 99 157 255 99 157 255 99 157 255 99 157 255 99 157 255 99 157 255 99 157 255 99 157 255 101 157 254 97 157 253 101 159 255 110 151 255 119 131 251 128 123 251 132 125 255 128 125 255 129 126 255 129 126 255 131 126 255 131 126 255 132 125 255 132 125 255 134 124 255 134 124 255 156 94 253 158 94 253 158 94 253 159 93 253 159 93 253 160 92 253 160 92 253 162 92 253 160 93 251 157 93 250 162 94 255 173 85 255 182 67 250 194 59 250 198 61 255 195 61 255 194 63 255 194 63 255 194 63 255 196 62 255 197 61 255 197 61 255 198 61 255 198 61 255 222 30 255 224 29 255 224 29 255 225 28 255 225 28 255 227 28 255 227 28 255 228 27 255 229 28 255 225 28 255 228 31 255 238 24 255 245 5 250 254 0 249 255 1 254 253 2 253 255 2 255 255 1 255 255 1 255 255 1 255 254 0 254 254 0 254 254 0 254 253 0 253 255 33 255 255 33 255 255 33 255 255 33 255 255 33 255 255 33 255 255 33 255 255 33 255 253 35 255 255 32 254 255 35 254 253 36 247 255 63 255 249 64 254 254 68 255 255 64 252 255 66 255 255 66 255 255 66 255 255 66 255 255 66 255 255 66 255 255 66 255 255 66 255 255 98 255 255 98 255 255 98 255 255 98 255 255 98 255 255 98 255 255 98 255 255 98 255 252 101 255 254 94 252 255 96 251 249 99 246 255 129 255 251 133 255 253 134 254 255 128 249 254 131 255 254 131 255 254 131 255 254 131 255 254 131 255 254 131 255 254 131 255 254 131 255 255 161 255 255 161 255 255 161 255 255 161 255 255 161 255 255 161 255 255 161 255 255 161 255 253 164 255 254 157 252 255 159 250 250 163 244 255 192 255 251 195 255 255 197 255 255 191 249 255 194 254 255 194 254 255 194 254 255 194 254 255 194 254 255 194 254 255 194 254 255 194 254 255 225 255 255 225 255 255 225 255 255 225 255 255 225 255 255 225 255 255 225 255 255 225 255 253 227 255 255 224 250 252 223 243 226 243 255 17 233 232 0 253 255 0 253 255 10 250 247 3 252 255 3 252 255 3 252 255 4 251 255 6 251 255 6 251 255 7 250 255 7 250 255 31 219 254 32 219 254 32 219 254 34 218 254 34 218 254 35 217 254 35 217 254 37 217 254 37 217 252 31 218 251 36 220 255 46 211 255 54 193 250 66 185 251 70 187 255 65 188 255 66 189 255 67 189 255 67 189 255 69 188 255 69 188 255 70 187 255 70 187 255 72 186 255 99 154 254 99 154 254 99 154 254 99 154 254 99 154 254 99 154 254 99 154 254 99 154 254 101 156 255 34 221 255 34 221 255 34 221 255 34 221 255 34 221 255 34 221 255 34 221 255 34 221 255 35 219 253 31 220 252 35 222 255 47 214 255 54 195 251 64 188 252 68 190 255 65 190 255 65 190 255 65 190 255 66 189 255 66 189 255 67 189 255 69 188 255 69 188 255 69 188 255 99 157 255 
99 157 255 99 157 255 99 157 255 99 157 255 99 157 255 99 157 255 99 157 255 101 157 254 97 157 253 101 159 255 110 151 255 119 131 251 128 123 251 132 125 255 128 125 255 129 126 255 129 126 255 131 126 255 131 126 255 132 125 255 132 125 255 134 124 255 134 124 255 156 94 253 158 94 253 158 94 253 159 93 253 159 93 253 160 92 253 160 92 253 162 92 253 160 93 251 157 93 250 162 94 255 173 85 255 182 67 250 194 59 250 198 61 255 195 61 255 194 63 255 194 63 255 194 63 255 196 62 255 197 61 255 197 61 255 198 61 255 198 61 255 222 30 255 224 29 255 224 29 255 225 28 255 225 28 255 227 28 255 227 28 255 228 27 255 229 28 255 225 28 255 228 31 255 238 24 255 245 5 250 254 0 249 255 1 254 253 2 253 255 2 255 255 1 255 255 1 255 255 1 255 254 0 254 254 0 254 254 0 254 253 0 253 255 33 255 255 33 255 255 33 255 255 33 255 255 33 255 255 33 255 255 33 255 255 33 255 253 35 255 255 32 254 255 35 254 253 36 247 255 63 255 249 64 254 254 68 255 255 64 252 255 66 255 255 66 255 255 66 255 255 66 255 255 66 255 255 66 255 255 66 255 255 66 255 255 98 255 255 98 255 255 98 255 255 98 255 255 98 255 255 98 255 255 98 255 255 98 255 252 101 255 254 94 252 255 96 251 249 99 246 255 129 255 251 133 255 253 134 254 255 128 249 254 131 255 254 131 255 254 131 255 254 131 255 254 131 255 254 131 255 254 131 255 254 131 255 255 161 255 255 161 255 255 161 255 255 161 255 255 161 255 255 161 255 255 161 255 255 161 255 253 164 255 254 157 252 255 159 250 250 163 244 255 192 255 251 195 255 255 197 255 255 191 249 255 194 254 255 194 254 255 194 254 255 194 254 255 194 254 255 194 254 255 194 254 255 194 254 255 225 255 255 225 255 255 225 255 255 225 255 255 225 255 255 225 255 255 225 255 255 225 255 253 227 255 255 224 250 252 223 243 226 243 255 17 233 232 0 253 255 0 253 255 10 250 247 3 252 255 3 252 255 3 252 255 4 251 255 6 251 255 6 251 255 7 250 255 7 250 255 31 219 254 32 219 254 32 219 254 34 218 254 34 218 254 35 217 254 35 217 254 37 217 254 37 217 252 31 218 251 36 220 255 46 211 255 54 193 250 66 185 251 70 187 255 65 188 255 66 189 255 67 189 255 67 189 255 69 188 255 69 188 255 70 187 255 70 187 255 72 186 255 99 154 254 99 154 254 99 154 254 99 154 254 99 154 254 99 154 254 99 154 254 99 154 254 101 156 255 33 221 255 33 221 255 33 221 255 33 221 255 33 221 255 33 221 255 33 221 255 33 221 255 35 219 253 31 220 252 35 222 255 46 214 255 52 195 251 64 188 252 68 190 255 65 190 255 65 190 255 65 190 255 65 190 255 66 189 255 67 189 255 67 189 255 69 188 255 69 188 255 99 157 255 99 157 255 99 157 255 99 157 255 99 157 255 99 157 255 99 157 255 99 157 255 101 157 254 97 157 253 101 159 255 112 150 255 120 130 251 131 122 251 136 123 255 133 123 255 128 127 255 129 126 255 129 126 255 131 126 255 131 126 255 132 125 255 134 124 255 134 124 255 156 94 253 156 94 253 158 94 253 158 94 253 159 93 253 160 92 253 160 92 253 160 92 253 
161 93 254 157 92 254 162 95 255 173 87 255 181 67 251 192 58 251 197 59 255 194 59 255 193 63 255 193 63 255 194 62 255 194 62 255 196 62 255 197 61 255 197 61 255 198 60 255 221 30 255 221 30 255 221 30 255 222 30 255 224 29 255 224 29 255 225 28 255 225 28 255 230 29 255 225 28 255 229 32 255 238 24 255 245 5 250 253 0 248 255 1 254 252 1 252 252 1 254 252 1 254 252 1 254 252 1 254 252 1 254 252 1 254 252 1 254 252 1 254 255 34 255 255 34 255 255 34 255 255 34 255 255 34 255 255 34 255 255 34 255 255 34 255 253 37 255 254 32 253 255 34 252 249 37 246 255 65 255 249 68 255 253 69 255 254 64 250 255 67 255 255 67 255 255 67 255 255 67 255 255 67 255 255 67 255 255 67 255 255 67 255 254 99 253 254 99 253 254 99 253 254 99 253 254 99 253 254 99 253 254 99 253 254 99 253 254 103 255 255 96 254 255 98 253 250 100 247 255 130 255 251 133 255 254 135 255 255 128 249 254 131 255 254 131 255 254 131 255 254 131 255 254 131 255 254 131 255 254 131 255 254 131 255 255 162 253 255 162 253 255 162 253 255 162 253 255 162 253 255 162 253 255 162 253 255 162 253 251 162 255 255 159 254 255 162 253 251 164 245 255 190 255 247 191 252 253 195 253 255 193 251 254 194 254 254 194 254 254 194 254 254 194 254 254 194 254 254 194 254 254 194 254 254 194 254 252 226 255 252 226 255 252 226 255 252 226 255 252 226 255 252 226 255 252 226 255 252 226 255 255 225 255 255 225 250 247 226 243 223 244 255 22 230 232 6 250 255 2 250 255 8 251 247 1 253 255 1 253 255 3 252 255 3 252 255 4 251 255 6 251 255 6 251 255 7 250 255 35 217 254 35 217 254 35 217 254 35 217 254 35 217 254 35 217 254 35 217 254 35 217 254 32 219 252 29 219 251 34 221 255 45 212 255 54 193 250 66 185 251 72 186 255 68 186 255 66 189 255 66 189 255 67 189 255 67 189 255 69 188 255 70 187 255 70 187 255 70 187 255 97 155 255 97 155 255 97 155 255 97 155 255 97 155 255 97 155 255 97 155 255 97 155 255 97 155 255 34 221 255 34 221 255 34 221 255 34 221 255 34 221 255 34 221 255 34 221 255 34 221 255 35 219 253 31 220 252 35 222 255 46 214 255 54 195 251 64 188 252 68 190 255 65 190 255 65 190 255 65 190 255 66 189 255 66 189 255 67 189 255 69 188 255 69 188 255 69 188 255 99 157 255 99 157 255 99 157 255 99 157 255 99 157 255 99 157 255 99 157 255 99 157 255 101 157 254 97 157 253 101 159 255 112 150 255 120 130 251 131 122 251 136 123 255 133 123 255 129 126 255 129 126 255 129 126 255 131 126 255 132 125 255 132 125 255 134 124 255 134 124 255 156 94 253 156 94 253 158 94 253 158 94 253 159 93 253 160 92 253 160 92 253 162 92 253 161 93 254 157 92 254 163 95 255 174 86 255 181 67 251 193 57 251 197 59 255 194 59 255 192 62 255 193 61 255 193 61 255 195 61 255 195 61 255 196 60 255 197 59 255 197 59 255 221 30 255 221 30 255 222 30 255 222 30 255 224 29 255 225 28 255 225 28 255 225 28 255 230 29 255 225 28 255 229 32 255 238 24 255 245 5 250 253 0 248 255 1 254 
252 1 252 253 2 255 253 2 255 253 2 255 253 2 255 253 2 255 253 2 255 253 2 255 253 2 255 255 34 255 255 34 255 255 34 255 255 34 255 255 34 255 255 34 255 255 34 255 255 34 255 253 37 255 254 32 253 255 34 252 249 37 246 255 65 255 249 68 255 253 69 255 254 64 250 255 67 255 255 67 255 255 67 255 255 67 255 255 67 255 255 67 255 255 67 255 255 67 255 254 99 253 254 99 253 254 99 253 254 99 253 254 99 253 254 99 253 254 99 253 254 99 253 254 103 255 255 96 254 255 98 253 250 100 247 255 130 255 251 133 255 254 135 255 255 128 249 254 131 255 254 131 255 254 131 255 254 131 255 254 131 255 254 131 255 254 131 255 254 131 255 255 162 253 255 162 253 255 162 253 255 162 253 255 162 253 255 162 253 255 162 253 255 162 253 251 162 255 255 159 254 255 163 254 252 165 246 255 191 255 248 192 253 253 195 253 255 193 251 254 194 254 254 194 254 254 194 254 254 194 254 254 194 254 254 194 254 254 194 254 254 194 254 252 226 255 252 226 255 252 226 255 252 226 255 252 226 255 252 226 255 252 226 255 252 226 255 255 225 255 255 225 250 247 226 243 223 244 255 22 230 232 6 250 255 2 250 255 8 251 247 1 253 255 3 252 255 3 252 255 4 251 255 4 251 255 6 251 255 7 250 255 7 250 255 35 217 254 35 217 254 35 217 254 35 217 254 35 217 254 35 217 254 35 217 254 35 217 254 34 218 252 30 219 251 34 221 255 45 212 255 54 193 250 66 185 251 72 186 255 68 186 255 66 189 255 66 189 255 67 189 255 67 189 255 69 188 255 70 187 255 70 187 255 72 186 255 99 154 255 99 154 255 99 154 255 99 154 255 99 154 255 99 154 255 99 154 255 99 154 255 99 154 255 34 221 255 34 221 255 34 221 255 34 221 255 34 221 255 34 221 255 34 221 255 34 221 255 36 219 253 31 220 252 37 221 255 47 214 255 54 195 251 65 187 252 70 189 255 65 190 255 65 190 255 66 189 255 66 189 255 67 189 255 67 189 255 69 188 255 70 187 255 70 187 255 99 157 255 99 157 255 99 157 255 99 157 255 99 157 255 99 157 255 99 157 255 99 157 255 101 157 254 97 157 253 101 159 255 112 150 255 120 130 251 131 122 251 136 123 255 133 123 255 129 126 255 129 126 255 131 126 255 131 126 255 132 125 255 134 124 255 134 124 255 135 124 255 158 94 253 158 94 253 158 94 253 159 93 253 160 92 253 160 92 253 162 92 253 162 92 253 161 93 254 157 92 254 163 95 255 174 86 255 182 66 251 193 57 251 199 59 255 195 59 255 193 61 255 193 61 255 195 61 255 195 61 255 196 60 255 197 59 255 197 59 255 197 59 255 221 30 255 222 30 255 222 30 255 224 29 255 224 29 255 225 28 255 227 28 255 227 28 255 229 28 255 225 28 255 228 31 255 238 24 255 245 5 250 254 0 249 255 1 254 253 2 253 253 2 255 253 2 255 253 2 255 253 2 255 253 2 255 253 2 255 253 2 255 253 2 255 255 34 255 255 34 255 255 34 255 255 34 255 255 34 255 255 34 255 255 34 255 255 34 255 253 37 255 254 32 253 255 34 252 249 37 246 255 65 255 249 68 255 253 69 255 254 64 250 255 67 255 255 67 255 255 67 255 255 67 255 255 67 255 255 67 255 
255 67 255 255 67 255 254 99 253 254 99 253 254 99 253 254 99 253 254 99 253 254 99 253 254 99 253 254 99 253 254 103 255 255 96 254 255 98 253 250 100 247 255 130 255 251 133 255 254 135 255 255 128 249 254 131 255 254 131 255 254 131 255 254 131 255 254 131 255 254 131 255 254 131 255 254 131 255 255 162 253 255 162 253 255 162 253 255 162 253 255 162 253 255 162 253 255 162 253 255 162 253 252 163 255 255 159 254 255 163 254 252 165 246 255 191 255 248 192 253 254 196 254 255 193 251 254 194 254 254 194 254 254 194 254 254 194 254 254 194 254 254 194 254 254 194 254 254 194 254 253 227 255 253 227 255 253 227 255 253 227 255 253 227 255 253 227 255 253 227 255 253 227 255 255 225 255 255 225 250 247 226 243 223 244 255 22 230 232 6 250 255 2 250 255 8 251 247 3 252 255 3 252 255 4 251 255 4 251 255 6 251 255 7 250 255 7 250 255 7 250 255 35 217 254 35 217 254 35 217 254 35 217 254 35 217 254 35 217 254 35 217 254 35 217 254 34 218 252 30 219 251 36 220 255 46 211 255 56 192 250 67 184 251 72 186 255 68 186 255 67 189 255 67 189 255 67 189 255 69 188 255 70 187 255 70 187 255 72 186 255 72 186 255 99 154 255 99 154 255 99 154 255 99 154 255 99 154 255 99 154 255 99 154 255 99 154 255 99 154 255 36 220 255 36 220 255 36 220 255 36 220 255 36 220 255 36 220 255 36 220 255 36 220 255 36 219 253 32 219 252 37 221 255 48 213 255 55 194 251 65 187 252 70 189 255 66 189 255 66 189 255 66 189 255 67 189 255 67 189 255 69 188 255 70 187 255 70 187 255 70 187 255 99 157 255 99 157 255 99 157 255 99 157 255 99 157 255 99 157 255 99 157 255 99 157 255 101 157 254 97 157 253 101 159 255 112 150 255 120 130 251 131 122 251 136 123 255 133 123 255 131 126 255 131 126 255 131 126 255 132 125 255 134 124 255 134 124 255 135 124 255 135 124 255 158 94 253 158 94 253 159 93 253 160 92 253 160 92 253 162 92 253 162 92 253 163 91 253 163 93 254 158 92 254 165 94 255 175 85 255 184 65 251 194 57 251 199 59 255 195 59 255 193 61 255 195 61 255 195 61 255 196 60 255 197 59 255 197 59 255 199 59 255 199 59 255 222 30 255 222 30 255 224 29 255 224 29 255 225 28 255 227 28 255 227 28 255 227 28 255 228 27 255 224 27 254 228 31 255 237 23 255 246 6 251 254 0 249 255 2 255 254 3 254 253 2 255 253 2 255 253 2 255 253 2 255 253 2 255 253 2 255 253 2 255 253 2 255 255 34 255 255 34 255 255 34 255 255 34 255 255 34 255 255 34 255 255 34 255 255 34 255 253 37 255 254 32 253 255 34 252 249 37 246 255 65 255 249 68 255 253 69 255 254 64 250 255 67 255 255 67 255 255 67 255 255 67 255 255 67 255 255 67 255 255 67 255 255 67 255 254 99 253 254 99 253 254 99 253 254 99 253 254 99 253 254 99 253 254 99 253 254 99 253 254 103 255 255 96 254 255 98 253 250 100 247 255 130 255 251 133 255 254 135 255 255 128 249 254 131 255 254 131 255 254 131 255 254 131 255 254 131 255 254 131 255 254 131 255 254 131 255 255 163 254 255 163 254 255 163 254 255 163 254 255 163 254 
255 163 254 255 163 254 255 163 254 252 163 255 255 160 255 255 163 254 252 165 246 255 191 255 248 192 253 254 196 254 255 193 251 254 194 254 254 194 254 254 194 254 254 194 254 254 194 254 254 194 254 254 194 254 254 194 254 253 227 255 253 227 255 253 227 255 253 227 255 253 227 255 253 227 255 253 227 255 253 227 255 255 225 255 255 225 250 247 226 243 223 244 255 22 230 232 6 250 255 2 250 255 8 251 247 3 252 255 4 251 255 4 251 255 6 251 255 7 250 255 7 250 255 8 249 255 8 249 255 35 217 254 35 217 254 35 217 254 35 217 254 35 217 254 35 217 254 35 217 254 35 217 254 35 218 252 31 218 251 36 220 255 46 211 255 56 192 250 67 184 251 73 186 255 69 186 255 67 189 255 67 189 255 69 188 255 70 187 255 70 187 255 72 186 255 72 186 255 73 186 255 100 153 255 100 153 255 100 153 255 100 153 255 100 153 255 100 153 255 100 153 255 100 153 255 100 153 255 36 220 255 36 220 255 36 220 255 36 220 255 36 220 255 36 220 255 36 220 255 36 220 255 38 218 253 34 218 252 38 220 255 48 213 255 55 194 251 67 186 252 71 188 255 67 188 255 67 189 255 67 189 255 67 189 255 69 188 255 70 187 255 70 187 255 72 186 255 72 186 255 99 157 255 99 157 255 99 157 255 99 157 255 99 157 255 99 157 255 99 157 255 99 157 255 101 157 254 97 157 253 101 159 255 112 150 255 120 130 251 131 122 251 136 123 255 133 123 255 131 126 255 132 125 255 132 125 255 134 124 255 134 124 255 135 124 255 136 123 255 136 123 255 159 93 253 159 93 253 160 92 253 160 92 253 162 92 253 163 91 253 163 91 253 163 91 253 164 92 254 159 91 254 165 94 255 175 85 255 184 65 251 194 57 251 200 58 255 196 58 255 194 60 255 194 60 255 195 59 255 195 59 255 196 58 255 198 58 255 198 58 255 199 57 255 224 29 255 224 29 255 224 29 255 225 28 255 227 28 255 227 28 255 228 27 255 228 27 255 228 27 255 223 26 253 227 30 255 237 23 255 246 6 251 255 0 250 255 3 255 254 3 254 254 3 255 254 3 255 254 3 255 254 3 255 254 3 255 254 3 255 254 3 255 254 3 255 255 34 255 255 34 255 255 34 255 255 34 255 255 34 255 255 34 255 255 34 255 255 34 255 253 37 255 254 32 253 255 34 252 249 37 246 255 65 255 249 68 255 253 69 255 254 64 250 255 67 255 255 67 255 255 67 255 255 67 255 255 67 255 255 67 255 255 67 255 255 67 255 254 99 253 254 99 253 254 99 253 254 99 253 254 99 253 254 99 253 254 99 253 254 99 253 254 103 255 255 96 254 255 98 253 250 100 247 255 130 255 251 133 255 254 135 255 255 128 249 254 131 255 254 131 255 254 131 255 254 131 255 254 131 255 254 131 255 254 131 255 254 131 255 255 163 254 255 163 254 255 163 254 255 163 254 255 163 254 255 163 254 255 163 254 255 163 254 253 164 255 255 160 255 255 164 255 253 166 247 255 192 255 249 193 254 255 197 255 255 194 252 254 194 254 254 194 254 254 194 254 254 194 254 254 194 254 254 194 254 254 194 254 254 194 254 254 228 255 254 228 255 254 228 255 254 228 255 254 228 255 254 228 255 254 228 255 254 228 255 255 225 255 255 225 250 247 226 243 223 244 255 
22 230 232 6 250 255 2 250 255 8 251 247 4 251 255 4 251 255 6 251 255 6 251 255 7 250 255 8 249 255 8 249 255 10 249 255 35 217 254 35 217 254 35 217 254 35 217 254 35 217 254 35 217 254 35 217 254 35 217 254 35 218 252 31 218 251 37 219 255 48 210 255 57 192 250 69 184 251 74 185 255 71 185 255 69 188 255 69 188 255 70 187 255 70 187 255 72 186 255 73 186 255 73 186 255 73 186 255 100 153 255 100 153 255 100 153 255 100 153 255 100 153 255 100 153 255 100 153 255 100 153 255 100 153 255 37 219 255 37 219 255 37 219 255 37 219 255 37 219 255 37 219 255 37 219 255 37 219 255 39 217 253 34 218 252 38 220 255 50 212 255 57 193 251 67 186 252 73 187 255 67 188 255 67 189 255 67 189 255 69 188 255 70 187 255 70 187 255 72 186 255 72 186 255 73 186 255 99 157 255 99 157 255 99 157 255 99 157 255 99 157 255 99 157 255 99 157 255 99 157 255 101 157 254 97 157 253 101 159 255 112 150 255 120 130 251 131 122 251 136 123 255 133 123 255 132 125 255 132 125 255 134 124 255 134 124 255 135 124 255 136 123 255 136 123 255 136 123 255 159 93 253 160 92 253 160 92 253 162 92 253 163 91 253 163 91 253 165 90 253 165 90 253 164 92 254 159 91 254 166 93 255 177 84 255 185 65 251 196 56 251 202 57 255 198 57 255 195 59 255 195 59 255 195 59 255 196 58 255 198 58 255 198 58 255 199 57 255 199 57 255 224 29 255 224 29 255 225 28 255 227 28 255 227 28 255 228 27 255 228 27 255 229 26 255 227 26 254 223 26 253 227 30 255 237 23 255 246 6 251 255 0 250 255 3 255 255 4 255 254 3 255 254 3 255 254 3 255 254 3 255 254 3 255 254 3 255 254 3 255 254 3 255 255 34 255 255 34 255 255 34 255 255 34 255 255 34 255 255 34 255 255 34 255 255 34 255 253 37 255 254 32 253 255 34 252 249 37 246 255 65 255 249 68 255 253 69 255 254 64 250 255 67 255 255 67 255 255 67 255 255 67 255 255 67 255 255 67 255 255 67 255 255 67 255 254 99 253 254 99 253 254 99 253 254 99 253 254 99 253 254 99 253 254 99 253 254 99 253 254 103 255 255 96 254 255 98 253 250 100 247 255 130 255 251 133 255 254 135 255 255 128 249 254 131 255 254 131 255 254 131 255 254 131 255 254 131 255 254 131 255 254 131 255 254 131 255 255 164 255 255 164 255 255 164 255 255 164 255 255 164 255 255 164 255 255 164 255 255 164 255 253 164 255 255 161 255 255 164 255 253 166 247 255 192 255 249 193 254 255 197 255 255 194 252 254 194 254 254 194 254 254 194 254 254 194 254 254 194 254 254 194 254 254 194 254 254 194 254 254 228 255 254 228 255 254 228 255 254 228 255 254 228 255 254 228 255 254 228 255 254 228 255 255 225 255 255 225 250 247 226 243 223 244 255 22 230 232 6 250 255 2 250 255 8 251 247 6 251 255 6 251 255 6 251 255 7 250 255 8 249 255 8 249 255 10 249 255 10 249 255 35 217 254 35 217 254 35 217 254 35 217 254 35 217 254 35 217 254 35 217 254 35 217 254 37 217 252 33 217 251 39 219 255 49 209 255 58 191 250 70 183 251 74 185 255 71 185 255 69 188 255 70 187 255 70 187 255 
72 186 255 73 186 255 73 186 255 74 185 255 74 185 255 101 153 255 101 153 255 101 153 255 101 153 255 101 153 255 101 153 255 101 153 255 101 153 255 101 153 255 37 219 255 37 219 255 37 219 255 37 219 255 37 219 255 37 219 255 37 219 255 37 219 255 39 217 253 35 218 252 40 220 255 50 212 255 58 193 251 68 185 252 73 187 255 69 187 255 69 188 255 69 188 255 69 188 255 70 187 255 72 186 255 72 186 255 73 186 255 73 186 255 99 157 255 99 157 255 99 157 255 99 157 255 99 157 255 99 157 255 99 157 255 99 157 255 101 157 254 97 157 253 101 159 255 112 150 255 120 130 251 131 122 251 136 123 255 133 123 255 132 125 255 134 124 255 134 124 255 135 124 255 136 123 255 136 123 255 138 122 255 138 122 255 160 92 253 160 92 253 162 92 253 162 92 253 163 91 253 165 90 253 165 90 253 165 90 253 166 91 254 161 90 254 166 93 255 178 84 255 185 65 251 196 56 251 202 57 255 198 57 255 194 58 254 194 58 254 195 57 254 197 57 254 197 57 254 198 56 254 198 56 254 200 55 254 225 28 255 225 28 255 225 28 255 227 28 255 228 27 255 228 27 255 229 26 255 229 26 255 226 25 253 222 25 252 227 30 255 237 23 255 246 6 251 255 0 250 255 4 255 255 5 255 255 4 255 255 4 255 255 4 255 255 4 255 255 4 255 255 4 255 255 4 255 255 4 255 255 34 255 255 34 255 255 34 255 255 34 255 255 34 255 255 34 255 255 34 255 255 34 255 253 37 255 254 32 253 255 34 252 249 37 246 255 65 255 249 68 255 253 69 255 254 64 250 255 67 255 255 67 255 255 67 255 255 67 255 255 67 255 255 67 255 255 67 255 255 67 255 254 99 253 254 99 253 254 99 253 254 99 253 254 99 253 254 99 253 254 99 253 254 99 253 254 103 255 255 96 254 255 98 253 250 100 247 255 130 255 251 133 255 254 135 255 255 128 249 254 131 255 254 131 255 254 131 255 254 131 255 254 131 255 254 131 255 254 131 255 254 131 255 255 164 255 255 164 255 255 164 255 255 164 255 255 164 255 255 164 255 255 164 255 255 164 255 254 165 255 255 161 255 255 165 255 254 167 248 255 193 255 250 194 255 255 197 255 255 195 253 254 194 254 254 194 254 254 194 254 254 194 254 254 194 254 254 194 254 254 194 254 254 194 254 254 228 255 254 228 255 254 228 255 254 228 255 254 228 255 254 228 255 254 228 255 254 228 255 255 225 255 255 225 250 247 226 243 223 244 255 22 230 232 6 250 255 2 250 255 8 251 247 6 251 255 6 251 255 7 250 255 8 249 255 8 249 255 10 249 255 10 249 255 11 248 255 35 217 254 35 217 254 35 217 254 35 217 254 35 217 254 35 217 254 35 217 254 35 217 254 38 216 252 34 217 251 39 219 255 49 209 255 58 191 250 70 183 251 76 184 255 72 184 255 70 187 255 70 187 255 72 186 255 72 186 255 73 186 255 74 185 255 74 185 255 74 185 255 101 153 255 101 153 255 101 153 255 101 153 255 101 153 255 101 153 255 101 153 255 101 153 255 101 153 255 39 219 255 39 219 255 39 219 255 39 219 255 39 219 255 39 219 255 39 219 255 39 219 255 39 217 253 35 218 252 40 220 255 51 211 255 58 193 251 68 185 252 73 187 255 69 187 255 69 188 255 
69 188 255 70 187 255 70 187 255 72 186 255 73 186 255 73 186 255 73 186 255 99 157 255 99 157 255 99 157 255 99 157 255 99 157 255 99 157 255 99 157 255 99 157 255 101 157 254 97 157 253 101 159 255 112 150 255 120 130 251 131 122 251 136 123 255 133 123 255 134 124 255 134 124 255 134 124 255 135 124 255 136 123 255 136 123 255 138 122 255 138 122 255 160 92 253 160 92 253 162 92 253 163 91 253 163 91 253 165 90 253 165 90 253 166 89 253 166 91 254 161 90 254 168 92 255 178 84 255 186 64 251 197 55 251 202 57 255 198 57 255 194 58 254 195 57 254 195 57 254 197 57 254 198 56 254 198 56 254 200 55 254 200 55 254 225 28 255 225 28 255 227 28 255 227 28 255 228 27 255 229 26 255 229 26 255 229 26 255 226 25 253 222 25 252 226 29 255 237 23 255 246 6 251 255 1 251 255 4 255 255 5 255 255 4 255 255 4 255 255 4 255 255 4 255 255 4 255 255 4 255 255 4 255 255 4 255 255 34 255 255 34 255 255 34 255 255 34 255 255 34 255 255 34 255 255 34 255 255 34 255 253 37 255 254 32 253 255 34 252 249 37 246 255 65 255 249 68 255 253 69 255 254 64 250 255 67 255 255 67 255 255 67 255 255 67 255 255 67 255 255 67 255 255 67 255 255 67 255 254 99 253 254 99 253 254 99 253 254 99 253 254 99 253 254 99 253 254 99 253 254 99 253 254 103 255 255 96 254 255 98 253 250 100 247 255 130 255 251 133 255 254 135 255 255 128 249 254 131 255 254 131 255 254 131 255 254 131 255 254 131 255 254 131 255 254 131 255 254 131 255 255 164 255 255 164 255 255 164 255 255 164 255 255 164 255 255 164 255 255 164 255 255 164 255 254 165 255 255 161 255 255 165 255 254 167 248 255 193 255 250 194 255 255 198 255 255 195 253 254 194 254 254 194 254 254 194 254 254 194 254 254 194 254 254 194 254 254 194 254 254 194 254 254 228 255 254 228 255 254 228 255 254 228 255 254 228 255 254 228 255 254 228 255 254 228 255 255 225 255 255 225 250 247 226 243 223 244 255 22 230 232 6 250 255 2 250 255 8 251 247 6 251 255 7 250 255 7 250 255 8 249 255 10 249 255 10 249 255 11 248 255 11 248 255 35 217 254 35 217 254 35 217 254 35 217 254 35 217 254 35 217 254 35 217 254 35 217 254 38 216 252 34 217 251 39 219 255 51 209 255 58 191 250 70 183 251 76 184 255 72 184 255 70 187 255 70 187 255 72 186 255 73 186 255 73 186 255 74 185 255 74 185 255 76 184 255 103 152 255 103 152 255 103 152 255 103 152 255 103 152 255 103 152 255 103 152 255 103 152 255 103 152 255 37 219 255 37 219 255 37 219 255 37 219 255 37 219 255 37 219 255 37 219 255 37 219 255 37 217 252 31 218 251 36 220 255 46 211 255 54 193 250 66 185 251 70 187 255 65 188 255 66 189 255 67 189 255 67 189 255 69 188 255 69 188 255 70 187 255 70 187 255 72 186 255 99 154 254 99 154 254 99 154 254 99 154 254 99 154 254 99 154 254 99 154 254 99 154 254 100 156 253 96 156 252 100 158 255 112 150 255 120 130 251 132 123 252 137 124 255 134 124 255 132 125 255 134 124 255 134 124 255 135 124 255 135 124 255 136 123 255 136 123 255 138 122 255 
160 92 255 160 92 255 162 91 255 162 91 255 163 90 255 163 90 255 165 90 255 165 90 255 163 93 254 158 92 254 165 94 255 175 85 255 184 65 251 194 57 251 200 58 255 196 58 255 195 59 255 195 59 255 196 58 255 196 58 255 198 58 255 199 57 255 199 57 255 199 57 255 225 28 255 225 28 255 225 28 255 227 28 255 228 27 255 228 27 255 229 26 255 229 26 255 231 25 255 227 28 255 226 27 254 234 20 255 248 10 254 255 4 253 255 3 254 253 4 254 255 5 255 255 5 255 255 4 255 255 4 255 255 4 255 254 3 254 254 3 254 254 3 254 255 34 255 255 34 255 255 34 255 255 34 255 255 34 255 255 34 255 255 34 255 255 34 255 252 36 255 253 31 252 255 33 251 248 36 245 255 65 255 250 69 255 254 70 255 255 65 251 254 68 253 254 68 253 254 68 253 254 68 253 254 68 253 254 68 253 254 68 253 254 68 253 255 100 254 255 100 254 255 100 254 255 100 254 255 100 254 255 100 254 255 100 254 255 100 254 250 100 255 255 98 255 255 102 255 250 102 248 255 130 255 246 130 253 252 134 254 255 132 252 255 132 255 255 132 255 255 132 255 255 132 255 255 132 255 255 132 255 255 132 255 255 132 255 255 165 255 255 165 255 255 165 255 255 165 255 255 165 255 255 165 255 255 165 255 255 165 255 252 165 255 255 162 255 255 166 255 252 167 248 255 193 255 249 195 255 253 198 255 255 196 253 255 195 255 255 195 255 255 195 255 255 195 255 255 195 255 255 195 255 255 195 255 255 195 255 254 228 255 254 228 255 254 228 255 254 228 255 254 228 255 254 228 255 254 228 255 254 228 255 253 226 255 255 229 249 249 231 245 225 247 255 23 228 231 3 245 255 1 247 255 11 251 252 8 249 255 8 249 255 8 249 255 8 249 255 8 249 255 8 249 255 8 249 255 8 249 255 35 217 254 35 217 254 35 217 254 35 217 254 35 217 254 35 217 254 35 217 254 35 217 254 37 217 252 33 217 251 39 219 255 49 209 255 58 191 250 70 183 251 76 184 255 72 184 255 70 187 255 70 187 255 72 186 255 72 186 255 73 186 255 73 186 255 74 185 255 74 185 255 97 155 255 99 154 255 99 154 255 100 153 255 100 153 255 101 153 255 101 153 255 103 152 255 101 153 255 37 219 255 37 219 255 37 219 255 37 219 255 37 219 255 37 219 255 37 219 255 37 219 255 37 217 252 31 218 251 36 220 255 46 211 255 54 193 250 66 185 251 70 187 255 65 188 255 66 189 255 67 189 255 67 189 255 69 188 255 69 188 255 70 187 255 70 187 255 72 186 255 99 154 254 99 154 254 99 154 254 99 154 254 99 154 254 99 154 254 99 154 254 99 154 254 100 156 253 96 156 252 100 158 255 112 150 255 120 130 251 132 123 252 137 124 255 134 124 255 132 125 255 134 124 255 134 124 255 135 124 255 135 124 255 136 123 255 136 123 255 138 122 255 160 92 255 160 92 255 162 91 255 162 91 255 163 90 255 163 90 255 165 90 255 165 90 255 163 93 254 158 92 254 165 94 255 175 85 255 184 65 251 194 57 251 200 58 255 196 58 255 195 59 255 195 59 255 196 58 255 196 58 255 198 58 255 199 57 255 199 57 255 199 57 255 225 28 255 225 28 255 225 28 255 227 28 255 228 27 255 228 27 255 229 26 255 
229 26 255 231 25 255 227 28 255 226 27 254 234 20 255 248 10 254 255 4 253 255 3 254 253 4 254 255 5 255 255 5 255 255 4 255 255 4 255 255 4 255 254 3 254 254 3 254 254 3 254 255 34 255 255 34 255 255 34 255 255 34 255 255 34 255 255 34 255 255 34 255 255 34 255 252 36 255 253 31 252 255 33 251 248 36 245 255 65 255 250 69 255 254 70 255 255 65 251 254 68 253 254 68 253 254 68 253 254 68 253 254 68 253 254 68 253 254 68 253 254 68 253 255 100 254 255 100 254 255 100 254 255 100 254 255 100 254 255 100 254 255 100 254 255 100 254 250 100 255 255 98 255 255 102 255 250 102 248 255 130 255 246 130 253 252 134 254 255 132 252 255 132 255 255 132 255 255 132 255 255 132 255 255 132 255 255 132 255 255 132 255 255 132 255 255 165 255 255 165 255 255 165 255 255 165 255 255 165 255 255 165 255 255 165 255 255 165 255 252 165 255 255 162 255 255 166 255 252 167 248 255 193 255 249 195 255 253 198 255 255 196 253 255 195 255 255 195 255 255 195 255 255 195 255 255 195 255 255 195 255 255 195 255 255 195 255 254 228 255 254 228 255 254 228 255 254 228 255 254 228 255 254 228 255 254 228 255 254 228 255 253 226 255 255 229 249 249 231 245 225 247 255 23 228 231 3 245 255 1 247 255 11 251 252 8 249 255 8 249 255 8 249 255 8 249 255 8 249 255 8 249 255 8 249 255 8 249 255 35 217 254 35 217 254 35 217 254 35 217 254 35 217 254 35 217 254 35 217 254 35 217 254 37 217 252 33 217 251 39 219 255 49 209 255 58 191 250 70 183 251 76 184 255 72 184 255 70 187 255 70 187 255 72 186 255 72 186 255 73 186 255 73 186 255 74 185 255 74 185 255 97 155 255 99 154 255 99 154 255 100 153 255 100 153 255 101 153 255 101 153 255 103 152 255 101 153 255 37 219 255 37 219 255 37 219 255 37 219 255 37 219 255 37 219 255 37 219 255 37 219 255 37 217 252 31 218 251 36 220 255 46 211 255 54 193 250 66 185 251 70 187 255 65 188 255 66 189 255 67 189 255 67 189 255 69 188 255 69 188 255 70 187 255 70 187 255 72 186 255 99 154 254 99 154 254 99 154 254 99 154 254 99 154 254 99 154 254 99 154 254 99 154 254 100 156 253 96 156 252 100 158 255 112 150 255 120 130 251 132 123 252 137 124 255 134 124 255 132 125 255 134 124 255 134 124 255 135 124 255 135 124 255 136 123 255 136 123 255 138 122 255 160 92 255 160 92 255 162 91 255 162 91 255 163 90 255 163 90 255 165 90 255 165 90 255 163 93 254 158 92 254 165 94 255 175 85 255 184 65 251 194 57 251 200 58 255 196 58 255 195 59 255 195 59 255 196 58 255 196 58 255 198 58 255 199 57 255 199 57 255 199 57 255 225 28 255 225 28 255 225 28 255 227 28 255 228 27 255 228 27 255 229 26 255 229 26 255 231 25 255 227 28 255 226 27 254 234 20 255 248 10 254 255 4 253 255 3 254 253 4 254 255 5 255 255 5 255 255 4 255 255 4 255 255 4 255 254 3 254 254 3 254 254 3 254 255 34 255 255 34 255 255 34 255 255 34 255 255 34 255 255 34 255 255 34 255 255 34 255 252 36 255 253 31 252 255 33 251 248 36 245 255 65 255 250 69 255 
254 70 255 255 65 251 254 68 253 254 68 253 254 68 253 254 68 253 254 68 253 254 68 253 254 68 253 254 68 253 255 100 254 255 100 254 255 100 254 255 100 254 255 100 254 255 100 254 255 100 254 255 100 254 250 100 255 255 98 255 255 102 255 250 102 248 255 130 255 246 130 253 252 134 254 255 132 252 255 132 255 255 132 255 255 132 255 255 132 255 255 132 255 255 132 255 255 132 255 255 132 255 255 165 255 255 165 255 255 165 255 255 165 255 255 165 255 255 165 255 255 165 255 255 165 255 252 165 255 255 162 255 255 166 255 252 167 248 255 193 255 249 195 255 253 198 255 255 196 253 255 195 255 255 195 255 255 195 255 255 195 255 255 195 255 255 195 255 255 195 255 255 195 255 254 228 255 254 228 255 254 228 255 254 228 255 254 228 255 254 228 255 254 228 255 254 228 255 253 226 255 255 229 249 249 231 245 225 247 255 23 228 231 3 245 255 1 247 255 11 251 252 8 249 255 8 249 255 8 249 255 8 249 255 8 249 255 8 249 255 8 249 255 8 249 255 35 217 254 35 217 254 35 217 254 35 217 254 35 217 254 35 217 254 35 217 254 35 217 254 37 217 252 33 217 251 39 219 255 49 209 255 58 191 250 70 183 251 76 184 255 72 184 255 70 187 255 70 187 255 72 186 255 72 186 255 73 186 255 73 186 255 74 185 255 74 185 255 97 155 255 99 154 255 99 154 255 100 153 255 100 153 255 101 153 255 101 153 255 103 152 255 101 153 255 37 219 255 37 219 255 37 219 255 37 219 255 37 219 255 37 219 255 37 219 255 37 219 255 37 217 252 31 218 251 36 220 255 46 211 255 54 193 250 66 185 251 70 187 255 65 188 255 66 189 255 67 189 255 67 189 255 69 188 255 69 188 255 70 187 255 70 187 255 72 186 255 99 154 254 99 154 254 99 154 254 99 154 254 99 154 254 99 154 254 99 154 254 99 154 254 100 156 253 96 156 252 100 158 255 112 150 255 120 130 251 132 123 252 137 124 255 134 124 255 132 125 255 134 124 255 134 124 255 135 124 255 135 124 255 136 123 255 136 123 255 138 122 255 160 92 255 160 92 255 162 91 255 162 91 255 163 90 255 163 90 255 165 90 255 165 90 255 163 93 254 158 92 254 165 94 255 175 85 255 184 65 251 194 57 251 200 58 255 196 58 255 195 59 255 195 59 255 196 58 255 196 58 255 198 58 255 199 57 255 199 57 255 199 57 255 225 28 255 225 28 255 225 28 255 227 28 255 228 27 255 228 27 255 229 26 255 229 26 255 231 25 255 227 28 255 226 27 254 234 20 255 248 10 254 255 4 253 255 3 254 253 4 254 255 5 255 255 5 255 255 4 255 255 4 255 255 4 255 254 3 254 254 3 254 254 3 254 255 34 255 255 34 255 255 34 255 255 34 255 255 34 255 255 34 255 255 34 255 255 34 255 252 36 255 253 31 252 255 33 251 248 36 245 255 65 255 250 69 255 254 70 255 255 65 251 254 68 253 254 68 253 254 68 253 254 68 253 254 68 253 254 68 253 254 68 253 254 68 253 255 100 254 255 100 254 255 100 254 255 100 254 255 100 254 255 100 254 255 100 254 255 100 254 250 100 255 255 98 255 255 102 255 250 102 248 255 130 255 246 130 253 252 134 254 255 132 252 255 132 255 255 132 255 255 132 255 255 132 255 255 132 255 
255 132 255 255 132 255 255 132 255 255 165 255 255 165 255 255 165 255 255 165 255 255 165 255 255 165 255 255 165 255 255 165 255 252 165 255 255 162 255 255 166 255 252 167 248 255 193 255 249 195 255 253 198 255 255 196 253 255 195 255 255 195 255 255 195 255 255 195 255 255 195 255 255 195 255 255 195 255 255 195 255 254 228 255 254 228 255 254 228 255 254 228 255 254 228 255 254 228 255 254 228 255 254 228 255 253 226 255 255 229 249 249 231 245 225 247 255 23 228 231 3 245 255 1 247 255 11 251 252 8 249 255 8 249 255 8 249 255 8 249 255 8 249 255 8 249 255 8 249 255 8 249 255 35 217 254 35 217 254 35 217 254 35 217 254 35 217 254 35 217 254 35 217 254 35 217 254 37 217 252 33 217 251 39 219 255 49 209 255 58 191 250 70 183 251 76 184 255 72 184 255 70 187 255 70 187 255 72 186 255 72 186 255 73 186 255 73 186 255 74 185 255 74 185 255 97 155 255 99 154 255 99 154 255 100 153 255 100 153 255 101 153 255 101 153 255 103 152 255 101 153 255 37 219 255 37 219 255 37 219 255 37 219 255 37 219 255 37 219 255 37 219 255 37 219 255 37 217 252 31 218 251 36 220 255 46 211 255 54 193 250 66 185 251 70 187 255 65 188 255 66 189 255 67 189 255 67 189 255 69 188 255 69 188 255 70 187 255 70 187 255 72 186 255 99 154 254 99 154 254 99 154 254 99 154 254 99 154 254 99 154 254 99 154 254 99 154 254 100 156 253 96 156 252 100 158 255 112 150 255 120 130 251 132 123 252 137 124 255 134 124 255 132 125 255 134 124 255 134 124 255 135 124 255 135 124 255 136 123 255 136 123 255 138 122 255 160 92 255 160 92 255 162 91 255 162 91 255 163 90 255 163 90 255 165 90 255 165 90 255 163 93 254 158 92 254 165 94 255 175 85 255 184 65 251 194 57 251 200 58 255 196 58 255 195 59 255 195 59 255 196 58 255 196 58 255 198 58 255 199 57 255 199 57 255 199 57 255 225 28 255 225 28 255 225 28 255 227 28 255 228 27 255 228 27 255 229 26 255 229 26 255 231 25 255 227 28 255 226 27 254 234 20 255 248 10 254 255 4 253 255 3 254 253 4 254 255 5 255 255 5 255 255 4 255 255 4 255 255 4 255 254 3 254 254 3 254 254 3 254 255 34 255 255 34 255 255 34 255 255 34 255 255 34 255 255 34 255 255 34 255 255 34 255 252 36 255 253 31 252 255 33 251 248 36 245 255 65 255 250 69 255 254 70 255 255 65 251 254 68 253 254 68 253 254 68 253 254 68 253 254 68 253 254 68 253 254 68 253 254 68 253 255 100 254 255 100 254 255 100 254 255 100 254 255 100 254 255 100 254 255 100 254 255 100 254 250 100 255 255 98 255 255 102 255 250 102 248 255 130 255 246 130 253 252 134 254 255 132 252 255 132 255 255 132 255 255 132 255 255 132 255 255 132 255 255 132 255 255 132 255 255 132 255 255 165 255 255 165 255 255 165 255 255 165 255 255 165 255 255 165 255 255 165 255 255 165 255 252 165 255 255 162 255 255 166 255 252 167 248 255 193 255 249 195 255 253 198 255 255 196 253 255 195 255 255 195 255 255 195 255 255 195 255 255 195 255 255 195 255 255 195 255 255 195 255 254 228 255 254 228 255 254 228 255 254 228 255 
254 228 255 254 228 255 254 228 255 254 228 255 253 226 255 255 229 249 249 231 245 225 247 255 23 228 231 3 245 255 1 247 255 11 251 252 8 249 255 8 249 255 8 249 255 8 249 255 8 249 255 8 249 255 8 249 255 8 249 255 35 217 254 35 217 254 35 217 254 35 217 254 35 217 254 35 217 254 35 217 254 35 217 254 37 217 252 33 217 251 39 219 255 49 209 255 58 191 250 70 183 251 76 184 255 72 184 255 70 187 255 70 187 255 72 186 255 72 186 255 73 186 255 73 186 255 74 185 255 74 185 255 97 155 255 99 154 255 99 154 255 100 153 255 100 153 255 101 153 255 101 153 255 103 152 255 101 153 255 37 219 255 37 219 255 37 219 255 37 219 255 37 219 255 37 219 255 37 219 255 37 219 255 37 217 252 31 218 251 36 220 255 46 211 255 54 193 250 66 185 251 70 187 255 65 188 255 66 189 255 67 189 255 67 189 255 69 188 255 69 188 255 70 187 255 70 187 255 72 186 255 99 154 254 99 154 254 99 154 254 99 154 254 99 154 254 99 154 254 99 154 254 99 154 254 100 156 253 96 156 252 100 158 255 112 150 255 120 130 251 132 123 252 137 124 255 134 124 255 132 125 255 134 124 255 134 124 255 135 124 255 135 124 255 136 123 255 136 123 255 138 122 255 160 92 255 160 92 255 162 91 255 162 91 255 163 90 255 163 90 255 165 90 255 165 90 255 163 93 254 158 92 254 165 94 255 175 85 255 184 65 251 194 57 251 200 58 255 196 58 255 195 59 255 195 59 255 196 58 255 196 58 255 198 58 255 199 57 255 199 57 255 199 57 255 225 28 255 225 28 255 225 28 255 227 28 255 228 27 255 228 27 255 229 26 255 229 26 255 231 25 255 227 28 255 226 27 254 234 20 255 248 10 254 255 4 253 255 3 254 253 4 254 255 5 255 255 5 255 255 4 255 255 4 255 255 4 255 254 3 254 254 3 254 254 3 254 255 34 255 255 34 255 255 34 255 255 34 255 255 34 255 255 34 255 255 34 255 255 34 255 252 36 255 253 31 252 255 33 251 248 36 245 255 65 255 250 69 255 254 70 255 255 65 251 254 68 253 254 68 253 254 68 253 254 68 253 254 68 253 254 68 253 254 68 253 254 68 253 255 100 254 255 100 254 255 100 254 255 100 254 255 100 254 255 100 254 255 100 254 255 100 254 250 100 255 255 98 255 255 102 255 250 102 248 255 130 255 246 130 253 252 134 254 255 132 252 255 132 255 255 132 255 255 132 255 255 132 255 255 132 255 255 132 255 255 132 255 255 132 255 255 165 255 255 165 255 255 165 255 255 165 255 255 165 255 255 165 255 255 165 255 255 165 255 252 165 255 255 162 255 255 166 255 252 167 248 255 193 255 249 195 255 253 198 255 255 196 253 255 195 255 255 195 255 255 195 255 255 195 255 255 195 255 255 195 255 255 195 255 255 195 255 254 228 255 254 228 255 254 228 255 254 228 255 254 228 255 254 228 255 254 228 255 254 228 255 253 226 255 255 229 249 249 231 245 225 247 255 23 228 231 3 245 255 1 247 255 11 251 252 8 249 255 8 249 255 8 249 255 8 249 255 8 249 255 8 249 255 8 249 255 8 249 255 35 217 254 35 217 254 35 217 254 35 217 254 35 217 254 35 217 254 35 217 254 35 217 254 37 217 252 33 217 251 39 219 255 
49 209 255 58 191 250 70 183 251 76 184 255 72 184 255 70 187 255 70 187 255 72 186 255 72 186 255 73 186 255 73 186 255 74 185 255 74 185 255 97 155 255 99 154 255 99 154 255 100 153 255 100 153 255 101 153 255 101 153 255 103 152 255 101 153 255 37 219 255 37 219 255 37 219 255 37 219 255 37 219 255 37 219 255 37 219 255 37 219 255 37 217 252 31 218 251 36 220 255 46 211 255 54 193 250 66 185 251 70 187 255 65 188 255 66 189 255 67 189 255 67 189 255 69 188 255 69 188 255 70 187 255 70 187 255 72 186 255 99 154 254 99 154 254 99 154 254 99 154 254 99 154 254 99 154 254 99 154 254 99 154 254 100 156 253 96 156 252 100 158 255 112 150 255 120 130 251 132 123 252 137 124 255 134 124 255 132 125 255 134 124 255 134 124 255 135 124 255 135 124 255 136 123 255 136 123 255 138 122 255 160 92 255 160 92 255 162 91 255 162 91 255 163 90 255 163 90 255 165 90 255 165 90 255 163 93 254 158 92 254 165 94 255 175 85 255 184 65 251 194 57 251 200 58 255 196 58 255 195 59 255 195 59 255 196 58 255 196 58 255 198 58 255 199 57 255 199 57 255 199 57 255 225 28 255 225 28 255 225 28 255 227 28 255 228 27 255 228 27 255 229 26 255 229 26 255 231 25 255 227 28 255 226 27 254 234 20 255 248 10 254 255 4 253 255 3 254 253 4 254 255 5 255 255 5 255 255 4 255 255 4 255 255 4 255 254 3 254 254 3 254 254 3 254 255 34 255 255 34 255 255 34 255 255 34 255 255 34 255 255 34 255 255 34 255 255 34 255 252 36 255 253 31 252 255 33 251 248 36 245 255 65 255 250 69 255 254 70 255 255 65 251 254 68 253 254 68 253 254 68 253 254 68 253 254 68 253 254 68 253 254 68 253 254 68 253 255 100 254 255 100 254 255 100 254 255 100 254 255 100 254 255 100 254 255 100 254 255 100 254 250 100 255 255 98 255 255 102 255 250 102 248 255 130 255 246 130 253 252 134 254 255 132 252 255 132 255 255 132 255 255 132 255 255 132 255 255 132 255 255 132 255 255 132 255 255 132 255 255 165 255 255 165 255 255 165 255 255 165 255 255 165 255 255 165 255 255 165 255 255 165 255 252 165 255 255 162 255 255 166 255 252 167 248 255 193 255 249 195 255 253 198 255 255 196 253 255 195 255 255 195 255 255 195 255 255 195 255 255 195 255 255 195 255 255 195 255 255 195 255 254 228 255 254 228 255 254 228 255 254 228 255 254 228 255 254 228 255 254 228 255 254 228 255 253 226 255 255 229 249 249 231 245 225 247 255 23 228 231 3 245 255 1 247 255 11 251 252 8 249 255 8 249 255 8 249 255 8 249 255 8 249 255 8 249 255 8 249 255 8 249 255 35 217 254 35 217 254 35 217 254 35 217 254 35 217 254 35 217 254 35 217 254 35 217 254 37 217 252 33 217 251 39 219 255 49 209 255 58 191 250 70 183 251 76 184 255 72 184 255 70 187 255 70 187 255 72 186 255 72 186 255 73 186 255 73 186 255 74 185 255 74 185 255 97 155 255 99 154 255 99 154 255 100 153 255 100 153 255 101 153 255 101 153 255 103 152 255 101 153 255 37 219 255 37 219 255 37 219 255 37 219 255 37 219 255 37 219 255 37 219 255 37 219 255 37 217 252 
31 218 251 36 220 255 46 211 255 54 193 250 66 185 251 70 187 255 65 188 255 66 189 255 67 189 255 67 189 255 69 188 255 69 188 255 70 187 255 70 187 255 72 186 255 99 154 254 99 154 254 99 154 254 99 154 254 99 154 254 99 154 254 99 154 254 99 154 254 100 156 253 96 156 252 100 158 255 112 150 255 120 130 251 132 123 252 137 124 255 134 124 255 132 125 255 134 124 255 134 124 255 135 124 255 135 124 255 136 123 255 136 123 255 138 122 255 160 92 255 160 92 255 162 91 255 162 91 255 163 90 255 163 90 255 165 90 255 165 90 255 163 93 254 158 92 254 165 94 255 175 85 255 184 65 251 194 57 251 200 58 255 196 58 255 195 59 255 195 59 255 196 58 255 196 58 255 198 58 255 199 57 255 199 57 255 199 57 255 225 28 255 225 28 255 225 28 255 227 28 255 228 27 255 228 27 255 229 26 255 229 26 255 231 25 255 227 28 255 226 27 254 234 20 255 248 10 254 255 4 253 255 3 254 253 4 254 255 5 255 255 5 255 255 4 255 255 4 255 255 4 255 254 3 254 254 3 254 254 3 254 255 34 255 255 34 255 255 34 255 255 34 255 255 34 255 255 34 255 255 34 255 255 34 255 252 36 255 253 31 252 255 33 251 248 36 245 255 65 255 250 69 255 254 70 255 255 65 251 254 68 253 254 68 253 254 68 253 254 68 253 254 68 253 254 68 253 254 68 253 254 68 253 255 100 254 255 100 254 255 100 254 255 100 254 255 100 254 255 100 254 255 100 254 255 100 254 250 100 255 255 98 255 255 102 255 250 102 248 255 130 255 246 130 253 252 134 254 255 132 252 255 132 255 255 132 255 255 132 255 255 132 255 255 132 255 255 132 255 255 132 255 255 132 255 255 165 255 255 165 255 255 165 255 255 165 255 255 165 255 255 165 255 255 165 255 255 165 255 252 165 255 255 162 255 255 166 255 252 167 248 255 193 255 249 195 255 253 198 255 255 196 253 255 195 255 255 195 255 255 195 255 255 195 255 255 195 255 255 195 255 255 195 255 255 195 255 254 228 255 254 228 255 254 228 255 254 228 255 254 228 255 254 228 255 254 228 255 254 228 255 253 226 255 255 229 249 249 231 245 225 247 255 23 228 231 3 245 255 1 247 255 11 251 252 8 249 255 8 249 255 8 249 255 8 249 255 8 249 255 8 249 255 8 249 255 8 249 255 35 217 254 35 217 254 35 217 254 35 217 254 35 217 254 35 217 254 35 217 254 35 217 254 37 217 252 33 217 251 39 219 255 49 209 255 58 191 250 70 183 251 76 184 255 72 184 255 70 187 255 70 187 255 72 186 255 72 186 255 73 186 255 73 186 255 74 185 255 74 185 255 97 155 255 99 154 255 99 154 255 100 153 255 100 153 255 101 153 255 101 153 255 103 152 255 101 153 255 40 218 255 40 218 255 40 218 255 40 218 255 40 218 255 40 218 255 40 218 255 40 218 255 37 217 252 33 217 251 39 219 255 49 209 255 58 191 250 70 183 251 76 184 255 72 184 255 70 187 255 70 187 255 72 186 255 72 186 255 73 186 255 73 186 255 74 185 255 74 185 255 97 155 255 99 154 255 99 154 255 100 153 255 100 153 255 101 153 255 101 153 255 103 152 255 101 153 254 98 153 254 103 154 255 114 146 255 123 127 252 135 119 252 139 121 255 135 121 255 
133 121 255 133 121 255 133 121 255 134 120 255 136 120 255 136 120 255 137 119 255 137 119 255 166 89 255 166 89 255 166 89 255 166 89 255 166 89 255 166 89 255 166 89 255 166 89 255 169 88 253 164 89 254 168 91 255 179 82 255 186 64 251 198 56 252 203 58 255 197 59 255 196 58 255 198 58 255 198 58 255 199 57 255 199 57 255 201 56 255 201 56 255 202 55 255 231 25 255 231 25 255 231 25 255 231 25 255 231 25 255 231 25 255 231 25 255 231 25 255 234 24 255 229 26 255 227 26 254 237 21 255 250 12 255 255 7 255 255 5 255 252 8 255 255 7 253 255 7 253 255 7 253 255 7 253 255 7 253 255 7 253 255 7 253 255 7 253 255 38 255 255 38 255 255 38 255 255 38 255 255 38 255 255 38 255 255 38 255 255 38 255 250 39 255 255 37 255 255 40 255 250 41 247 255 68 255 247 69 253 252 73 253 255 70 252 253 71 254 253 71 254 253 71 254 253 71 254 253 71 254 253 71 254 253 71 254 253 71 254 255 102 255 255 102 255 255 102 255 255 102 255 255 102 255 255 102 255 255 102 255 255 102 255 252 103 255 255 99 254 255 103 255 252 105 247 255 131 255 248 133 254 253 136 253 255 133 251 255 133 254 255 133 254 255 133 254 255 133 254 255 133 254 255 133 254 255 133 254 255 133 254 255 166 254 255 166 254 255 166 254 255 166 254 255 166 254 255 166 254 255 166 254 255 166 254 252 167 255 255 165 255 255 168 255 251 170 247 255 196 255 247 198 254 254 201 255 255 198 252 255 197 255 255 197 255 255 197 255 255 197 255 255 197 255 255 197 255 255 197 255 255 197 255 255 231 255 255 231 255 255 231 255 255 231 255 255 231 255 255 231 255 255 231 255 255 231 255 254 227 255 255 229 249 249 231 245 225 247 255 22 227 230 3 245 255 1 247 255 10 250 251 5 248 254 6 247 254 6 247 254 8 247 254 8 247 254 9 246 254 9 246 254 11 245 254 37 216 255 37 216 255 38 215 255 38 215 255 39 215 255 41 214 255 41 214 255 41 214 255 39 215 254 36 215 255 40 217 255 51 208 255 60 190 252 71 182 253 77 183 255 73 183 255 72 183 255 72 183 255 72 183 255 72 183 255 72 183 255 72 183 255 72 183 255 72 183 255 106 150 255 106 150 255 106 150 255 106 150 255 106 150 255 106 150 255 106 150 255 106 150 255 106 150 255 40 218 255 40 218 255 40 218 255 40 218 255 40 218 255 40 218 255 40 218 255 40 218 255 37 217 252 33 217 251 39 219 255 49 209 255 58 191 250 70 183 251 76 184 255 72 184 255 70 187 255 70 187 255 72 186 255 72 186 255 73 186 255 73 186 255 74 185 255 74 185 255 97 155 255 99 154 255 99 154 255 100 153 255 100 153 255 101 153 255 101 153 255 103 152 255 101 153 254 98 153 254 103 154 255 114 146 255 123 127 252 135 119 252 139 121 255 135 121 255 133 121 255 133 121 255 133 121 255 134 120 255 136 120 255 136 120 255 137 119 255 137 119 255 166 89 255 166 89 255 166 89 255 166 89 255 166 89 255 166 89 255 166 89 255 166 89 255 169 88 253 164 89 254 168 91 255 179 82 255 186 64 251 198 56 252 203 58 255 197 59 255 196 58 255 198 58 255 198 58 255 199 57 255 199 57 255 201 56 255 201 56 255 
202 55 255 231 25 255 231 25 255 231 25 255 231 25 255 231 25 255 231 25 255 231 25 255 231 25 255 234 24 255 229 26 255 227 26 254 237 21 255 250 12 255 255 7 255 255 5 255 252 8 255 255 7 253 255 7 253 255 7 253 255 7 253 255 7 253 255 7 253 255 7 253 255 7 253 255 38 255 255 38 255 255 38 255 255 38 255 255 38 255 255 38 255 255 38 255 255 38 255 250 39 255 255 37 255 255 40 255 250 41 247 255 68 255 247 69 253 252 73 253 255 70 252 253 71 254 253 71 254 253 71 254 253 71 254 253 71 254 253 71 254 253 71 254 253 71 254 255 102 255 255 102 255 255 102 255 255 102 255 255 102 255 255 102 255 255 102 255 255 102 255 252 103 255 255 99 254 255 103 255 252 105 247 255 131 255 248 133 254 253 136 253 255 133 251 255 133 254 255 133 254 255 133 254 255 133 254 255 133 254 255 133 254 255 133 254 255 133 254 255 166 254 255 166 254 255 166 254 255 166 254 255 166 254 255 166 254 255 166 254 255 166 254 252 167 255 255 165 255 255 168 255 251 170 247 255 196 255 247 198 254 254 201 255 255 198 252 255 197 255 255 197 255 255 197 255 255 197 255 255 197 255 255 197 255 255 197 255 255 197 255 255 231 255 255 231 255 255 231 255 255 231 255 255 231 255 255 231 255 255 231 255 255 231 255 254 227 255 255 229 249 249 231 245 225 247 255 22 227 230 3 245 255 1 247 255 10 250 251 5 248 254 6 247 254 6 247 254 8 247 254 8 247 254 9 246 254 9 246 254 11 245 254 37 216 255 37 216 255 38 215 255 38 215 255 39 215 255 41 214 255 41 214 255 41 214 255 39 215 254 36 215 255 40 217 255 51 208 255 60 190 252 71 182 253 77 183 255 73 183 255 72 183 255 72 183 255 72 183 255 72 183 255 72 183 255 72 183 255 72 183 255 72 183 255 106 150 255 106 150 255 106 150 255 106 150 255 106 150 255 106 150 255 106 150 255 106 150 255 106 150 255 40 218 255 40 218 255 40 218 255 40 218 255 40 218 255 40 218 255 40 218 255 40 218 255 37 217 252 33 217 251 39 219 255 49 209 255 58 191 250 70 183 251 76 184 255 72 184 255 70 187 255 70 187 255 72 186 255 72 186 255 73 186 255 73 186 255 74 185 255 74 185 255 97 155 255 99 154 255 99 154 255 100 153 255 100 153 255 101 153 255 101 153 255 103 152 255 101 153 254 98 153 254 103 154 255 114 146 255 123 127 252 135 119 252 139 121 255 135 121 255 133 121 255 133 121 255 133 121 255 134 120 255 136 120 255 136 120 255 137 119 255 137 119 255 166 89 255 166 89 255 166 89 255 166 89 255 166 89 255 166 89 255 166 89 255 166 89 255 169 88 253 164 89 254 168 91 255 179 82 255 186 64 251 198 56 252 203 58 255 197 59 255 196 58 255 198 58 255 198 58 255 199 57 255 199 57 255 201 56 255 201 56 255 202 55 255 231 25 255 231 25 255 231 25 255 231 25 255 231 25 255 231 25 255 231 25 255 231 25 255 234 24 255 229 26 255 227 26 254 237 21 255 250 12 255 255 7 255 255 5 255 252 8 255 255 7 253 255 7 253 255 7 253 255 7 253 255 7 253 255 7 253 255 7 253 255 7 253 255 38 255 255 38 255 255 38 255 255 38 255 255 38 255 255 38 255 
255 38 255 255 38 255 250 39 255 255 37 255 255 40 255 250 41 247 255 68 255 247 69 253 252 73 253 255 70 252 253 71 254 253 71 254 253 71 254 253 71 254 253 71 254 253 71 254 253 71 254 253 71 254 255 102 255 255 102 255 255 102 255 255 102 255 255 102 255 255 102 255 255 102 255 255 102 255 252 103 255 255 99 254 255 103 255 252 105 247 255 131 255 248 133 254 253 136 253 255 133 251 255 133 254 255 133 254 255 133 254 255 133 254 255 133 254 255 133 254 255 133 254 255 133 254 255 166 254 255 166 254 255 166 254 255 166 254 255 166 254 255 166 254 255 166 254 255 166 254 252 167 255 255 165 255 255 168 255 251 170 247 255 196 255 247 198 254 254 201 255 255 198 252 255 197 255 255 197 255 255 197 255 255 197 255 255 197 255 255 197 255 255 197 255 255 197 255 255 231 255 255 231 255 255 231 255 255 231 255 255 231 255 255 231 255 255 231 255 255 231 255 254 227 255 255 229 249 249 231 245 225 247 255 22 227 230 3 245 255 1 247 255 10 250 251 5 248 254 6 247 254 6 247 254 8 247 254 8 247 254 9 246 254 9 246 254 11 245 254 37 216 255 37 216 255 38 215 255 38 215 255 39 215 255 41 214 255 41 214 255 41 214 255 39 215 254 36 215 255 40 217 255 51 208 255 60 190 252 71 182 253 77 183 255 73 183 255 72 183 255 72 183 255 72 183 255 72 183 255 72 183 255 72 183 255 72 183 255 72 183 255 106 150 255 106 150 255 106 150 255 106 150 255 106 150 255 106 150 255 106 150 255 106 150 255 106 150 255 40 218 255 40 218 255 40 218 255 40 218 255 40 218 255 40 218 255 40 218 255 40 218 255 37 217 252 33 217 251 39 219 255 49 209 255 58 191 250 70 183 251 76 184 255 72 184 255 70 187 255 70 187 255 72 186 255 72 186 255 73 186 255 73 186 255 74 185 255 74 185 255 97 155 255 99 154 255 99 154 255 100 153 255 100 153 255 101 153 255 101 153 255 103 152 255 101 153 254 98 153 254 103 154 255 114 146 255 123 127 252 135 119 252 139 121 255 135 121 255 133 121 255 133 121 255 133 121 255 134 120 255 136 120 255 136 120 255 137 119 255 137 119 255 166 89 255 166 89 255 166 89 255 166 89 255 166 89 255 166 89 255 166 89 255 166 89 255 169 88 253 164 89 254 168 91 255 179 82 255 186 64 251 198 56 252 203 58 255 197 59 255 196 58 255 198 58 255 198 58 255 199 57 255 199 57 255 201 56 255 201 56 255 202 55 255 231 25 255 231 25 255 231 25 255 231 25 255 231 25 255 231 25 255 231 25 255 231 25 255 234 24 255 229 26 255 227 26 254 237 21 255 250 12 255 255 7 255 255 5 255 252 8 255 255 7 253 255 7 253 255 7 253 255 7 253 255 7 253 255 7 253 255 7 253 255 7 253 255 38 255 255 38 255 255 38 255 255 38 255 255 38 255 255 38 255 255 38 255 255 38 255 250 39 255 255 37 255 255 40 255 250 41 247 255 68 255 247 69 253 252 73 253 255 70 252 253 71 254 253 71 254 253 71 254 253 71 254 253 71 254 253 71 254 253 71 254 253 71 254 255 102 255 255 102 255 255 102 255 255 102 255 255 102 255 255 102 255 255 102 255 255 102 255 252 103 255 255 99 254 255 103 255 252 105 247 255 131 255 
248 133 254 253 136 253 255 133 251 255 133 254 255 133 254 255 133 254 255 133 254 255 133 254 255 133 254 255 133 254 255 133 254 255 166 254 255 166 254 255 166 254 255 166 254 255 166 254 255 166 254 255 166 254 255 166 254 252 167 255 255 165 255 255 168 255 251 170 247 255 196 255 247 198 254 254 201 255 255 198 252 255 197 255 255 197 255 255 197 255 255 197 255 255 197 255 255 197 255 255 197 255 255 197 255 255 231 255 255 231 255 255 231 255 255 231 255 255 231 255 255 231 255 255 231 255 255 231 255 254 227 255 255 229 249 249 231 245 225 247 255 22 227 230 3 245 255 1 247 255 10 250 251 5 248 254 6 247 254 6 247 254 8 247 254 8 247 254 9 246 254 9 246 254 11 245 254 37 216 255 37 216 255 38 215 255 38 215 255 39 215 255 41 214 255 41 214 255 41 214 255 39 215 254 36 215 255 40 217 255 51 208 255 60 190 252 71 182 253 77 183 255 73 183 255 72 183 255 72 183 255 72 183 255 72 183 255 72 183 255 72 183 255 72 183 255 72 183 255 106 150 255 106 150 255 106 150 255 106 150 255 106 150 255 106 150 255 106 150 255 106 150 255 106 150 255 40 218 255 40 218 255 40 218 255 40 218 255 40 218 255 40 218 255 40 218 255 40 218 255 37 217 252 33 217 251 39 219 255 49 209 255 58 191 250 70 183 251 76 184 255 72 184 255 70 187 255 70 187 255 72 186 255 72 186 255 73 186 255 73 186 255 74 185 255 74 185 255 97 155 255 99 154 255 99 154 255 100 153 255 100 153 255 101 153 255 101 153 255 103 152 255 101 153 254 98 153 254 103 154 255 114 146 255 123 127 252 135 119 252 139 121 255 135 121 255 133 121 255 133 121 255 133 121 255 134 120 255 136 120 255 136 120 255 137 119 255 137 119 255 166 89 255 166 89 255 166 89 255 166 89 255 166 89 255 166 89 255 166 89 255 166 89 255 169 88 253 164 89 254 168 91 255 179 82 255 186 64 251 198 56 252 203 58 255 197 59 255 196 58 255 198 58 255 198 58 255 199 57 255 199 57 255 201 56 255 201 56 255 202 55 255 231 25 255 231 25 255 231 25 255 231 25 255 231 25 255 231 25 255 231 25 255 231 25 255 234 24 255 229 26 255 227 26 254 237 21 255 250 12 255 255 7 255 255 5 255 252 8 255 255 7 253 255 7 253 255 7 253 255 7 253 255 7 253 255 7 253 255 7 253 255 7 253 255 38 255 255 38 255 255 38 255 255 38 255 255 38 255 255 38 255 255 38 255 255 38 255 250 39 255 255 37 255 255 40 255 250 41 247 255 68 255 247 69 253 252 73 253 255 70 252 253 71 254 253 71 254 253 71 254 253 71 254 253 71 254 253 71 254 253 71 254 253 71 254 255 102 255 255 102 255 255 102 255 255 102 255 255 102 255 255 102 255 255 102 255 255 102 255 252 103 255 255 99 254 255 103 255 252 105 247 255 131 255 248 133 254 253 136 253 255 133 251 255 133 254 255 133 254 255 133 254 255 133 254 255 133 254 255 133 254 255 133 254 255 133 254 255 166 254 255 166 254 255 166 254 255 166 254 255 166 254 255 166 254 255 166 254 255 166 254 252 167 255 255 165 255 255 168 255 251 170 247 255 196 255 247 198 254 254 201 255 255 198 252 255 197 255 255 197 255 255 197 255 255 197 255 
255 197 255 255 197 255 255 197 255 255 197 255 255 231 255 255 231 255 255 231 255 255 231 255 255 231 255 255 231 255 255 231 255 255 231 255 254 227 255 255 229 249 249 231 245 225 247 255 22 227 230 3 245 255 1 247 255 10 250 251 5 248 254 6 247 254 6 247 254 8 247 254 8 247 254 9 246 254 9 246 254 11 245 254 37 216 255 37 216 255 38 215 255 38 215 255 39 215 255 41 214 255 41 214 255 41 214 255 39 215 254 36 215 255 40 217 255 51 208 255 60 190 252 71 182 253 77 183 255 73 183 255 72 183 255 72 183 255 72 183 255 72 183 255 72 183 255 72 183 255 72 183 255 72 183 255 106 150 255 106 150 255 106 150 255 106 150 255 106 150 255 106 150 255 106 150 255 106 150 255 106 150 255 40 218 255 40 218 255 40 218 255 40 218 255 40 218 255 40 218 255 40 218 255 40 218 255 37 217 252 33 217 251 39 219 255 49 209 255 58 191 250 70 183 251 76 184 255 72 184 255 70 187 255 70 187 255 72 186 255 72 186 255 73 186 255 73 186 255 74 185 255 74 185 255 97 155 255 99 154 255 99 154 255 100 153 255 100 153 255 101 153 255 101 153 255 103 152 255 101 153 254 98 153 254 103 154 255 114 146 255 123 127 252 135 119 252 139 121 255 135 121 255 133 121 255 133 121 255 133 121 255 134 120 255 136 120 255 136 120 255 137 119 255 137 119 255 166 89 255 166 89 255 166 89 255 166 89 255 166 89 255 166 89 255 166 89 255 166 89 255 169 88 253 164 89 254 168 91 255 179 82 255 186 64 251 198 56 252 203 58 255 197 59 255 196 58 255 198 58 255 198 58 255 199 57 255 199 57 255 201 56 255 201 56 255 202 55 255 231 25 255 231 25 255 231 25 255 231 25 255 231 25 255 231 25 255 231 25 255 231 25 255 234 24 255 229 26 255 227 26 254 237 21 255 250 12 255 255 7 255 255 5 255 252 8 255 255 7 253 255 7 253 255 7 253 255 7 253 255 7 253 255 7 253 255 7 253 255 7 253 255 38 255 255 38 255 255 38 255 255 38 255 255 38 255 255 38 255 255 38 255 255 38 255 250 39 255 255 37 255 255 40 255 250 41 247 255 68 255 247 69 253 252 73 253 255 70 252 253 71 254 253 71 254 253 71 254 253 71 254 253 71 254 253 71 254 253 71 254 253 71 254 255 102 255 255 102 255 255 102 255 255 102 255 255 102 255 255 102 255 255 102 255 255 102 255 252 103 255 255 99 254 255 103 255 252 105 247 255 131 255 248 133 254 253 136 253 255 133 251 255 133 254 255 133 254 255 133 254 255 133 254 255 133 254 255 133 254 255 133 254 255 133 254 255 166 254 255 166 254 255 166 254 255 166 254 255 166 254 255 166 254 255 166 254 255 166 254 252 167 255 255 165 255 255 168 255 251 170 247 255 196 255 247 198 254 254 201 255 255 198 252 255 197 255 255 197 255 255 197 255 255 197 255 255 197 255 255 197 255 255 197 255 255 197 255 255 231 255 255 231 255 255 231 255 255 231 255 255 231 255 255 231 255 255 231 255 255 231 255 254 227 255 255 229 249 249 231 245 225 247 255 22 227 230 3 245 255 1 247 255 10 250 251 5 248 254 6 247 254 6 247 254 8 247 254 8 247 254 9 246 254 9 246 254 11 245 254 37 216 255 37 216 255 38 215 255 
38 215 255 39 215 255 41 214 255 41 214 255 41 214 255 39 215 254 36 215 255 40 217 255 51 208 255 60 190 252 71 182 253 77 183 255 73 183 255 72 183 255 72 183 255 72 183 255 72 183 255 72 183 255 72 183 255 72 183 255 72 183 255 106 150 255 106 150 255 106 150 255 106 150 255 106 150 255 106 150 255 106 150 255 106 150 255 106 150 255 40 218 255 40 218 255 40 218 255 40 218 255 40 218 255 40 218 255 40 218 255 40 218 255 37 217 252 33 217 251 39 219 255 49 209 255 58 191 250 70 183 251 76 184 255 72 184 255 70 187 255 70 187 255 72 186 255 72 186 255 73 186 255 73 186 255 74 185 255 74 185 255 97 155 255 99 154 255 99 154 255 100 153 255 100 153 255 101 153 255 101 153 255 103 152 255 101 153 254 98 153 254 103 154 255 114 146 255 123 127 252 135 119 252 139 121 255 135 121 255 133 121 255 133 121 255 133 121 255 134 120 255 136 120 255 136 120 255 137 119 255 137 119 255 166 89 255 166 89 255 166 89 255 166 89 255 166 89 255 166 89 255 166 89 255 166 89 255 169 88 253 164 89 254 168 91 255 179 82 255 186 64 251 198 56 252 203 58 255 197 59 255 196 58 255 198 58 255 198 58 255 199 57 255 199 57 255 201 56 255 201 56 255 202 55 255 231 25 255 231 25 255 231 25 255 231 25 255 231 25 255 231 25 255 231 25 255 231 25 255 234 24 255 229 26 255 227 26 254 237 21 255 250 12 255 255 7 255 255 5 255 252 8 255 255 7 253 255 7 253 255 7 253 255 7 253 255 7 253 255 7 253 255 7 253 255 7 253 255 38 255 255 38 255 255 38 255 255 38 255 255 38 255 255 38 255 255 38 255 255 38 255 250 39 255 255 37 255 255 40 255 250 41 247 255 68 255 247 69 253 252 73 253 255 70 252 253 71 254 253 71 254 253 71 254 253 71 254 253 71 254 253 71 254 253 71 254 253 71 254 255 102 255 255 102 255 255 102 255 255 102 255 255 102 255 255 102 255 255 102 255 255 102 255 252 103 255 255 99 254 255 103 255 252 105 247 255 131 255 248 133 254 253 136 253 255 133 251 255 133 254 255 133 254 255 133 254 255 133 254 255 133 254 255 133 254 255 133 254 255 133 254 255 166 254 255 166 254 255 166 254 255 166 254 255 166 254 255 166 254 255 166 254 255 166 254 252 167 255 255 165 255 255 168 255 251 170 247 255 196 255 247 198 254 254 201 255 255 198 252 255 197 255 255 197 255 255 197 255 255 197 255 255 197 255 255 197 255 255 197 255 255 197 255 255 231 255 255 231 255 255 231 255 255 231 255 255 231 255 255 231 255 255 231 255 255 231 255 254 227 255 255 229 249 249 231 245 225 247 255 22 227 230 3 245 255 1 247 255 10 250 251 5 248 254 6 247 254 6 247 254 8 247 254 8 247 254 9 246 254 9 246 254 11 245 254 37 216 255 37 216 255 38 215 255 38 215 255 39 215 255 41 214 255 41 214 255 41 214 255 39 215 254 36 215 255 40 217 255 51 208 255 60 190 252 71 182 253 77 183 255 73 183 255 72 183 255 72 183 255 72 183 255 72 183 255 72 183 255 72 183 255 72 183 255 72 183 255 106 150 255 106 150 255 106 150 255 106 150 255 106 150 255 106 150 255 106 150 255 106 150 255 106 150 255 40 218 255 
40 218 255 40 218 255 40 218 255 40 218 255 40 218 255 40 218 255 40 218 255 37 217 252 33 217 251 39 219 255 49 209 255 58 191 250 70 183 251 76 184 255 72 184 255 70 187 255 70 187 255 72 186 255 72 186 255 73 186 255 73 186 255 74 185 255 74 185 255 97 155 255 99 154 255 99 154 255 100 153 255 100 153 255 101 153 255 101 153 255 103 152 255 101 153 254 98 153 254 103 154 255 114 146 255 123 127 252 135 119 252 139 121 255 135 121 255 133 121 255 133 121 255 133 121 255 134 120 255 136 120 255 136 120 255 137 119 255 137 119 255 166 89 255 166 89 255 166 89 255 166 89 255 166 89 255 166 89 255 166 89 255 166 89 255 169 88 253 164 89 254 168 91 255 179 82 255 186 64 251 198 56 252 203 58 255 197 59 255 196 58 255 198 58 255 198 58 255 199 57 255 199 57 255 201 56 255 201 56 255 202 55 255 231 25 255 231 25 255 231 25 255 231 25 255 231 25 255 231 25 255 231 25 255 231 25 255 234 24 255 229 26 255 227 26 254 237 21 255 250 12 255 255 7 255 255 5 255 252 8 255 255 7 253 255 7 253 255 7 253 255 7 253 255 7 253 255 7 253 255 7 253 255 7 253 255 38 255 255 38 255 255 38 255 255 38 255 255 38 255 255 38 255 255 38 255 255 38 255 250 39 255 255 37 255 255 40 255 250 41 247 255 68 255 247 69 253 252 73 253 255 70 252 253 71 254 253 71 254 253 71 254 253 71 254 253 71 254 253 71 254 253 71 254 253 71 254 255 102 255 255 102 255 255 102 255 255 102 255 255 102 255 255 102 255 255 102 255 255 102 255 252 103 255 255 99 254 255 103 255 252 105 247 255 131 255 248 133 254 253 136 253 255 133 251 255 133 254 255 133 254 255 133 254 255 133 254 255 133 254 255 133 254 255 133 254 255 133 254 255 166 254 255 166 254 255 166 254 255 166 254 255 166 254 255 166 254 255 166 254 255 166 254 252 167 255 255 165 255 255 168 255 251 170 247 255 196 255 247 198 254 254 201 255 255 198 252 255 197 255 255 197 255 255 197 255 255 197 255 255 197 255 255 197 255 255 197 255 255 197 255 255 231 255 255 231 255 255 231 255 255 231 255 255 231 255 255 231 255 255 231 255 255 231 255 254 227 255 255 229 249 249 231 245 225 247 255 22 227 230 3 245 255 1 247 255 10 250 251 5 248 254 6 247 254 6 247 254 8 247 254 8 247 254 9 246 254 9 246 254 11 245 254 37 216 255 37 216 255 38 215 255 38 215 255 39 215 255 41 214 255 41 214 255 41 214 255 39 215 254 36 215 255 40 217 255 51 208 255 60 190 252 71 182 253 77 183 255 73 183 255 72 183 255 72 183 255 72 183 255 72 183 255 72 183 255 72 183 255 72 183 255 72 183 255 106 150 255 106 150 255 106 150 255 106 150 255 106 150 255 106 150 255 106 150 255 106 150 255 106 150 255 40 218 255 40 218 255 40 218 255 40 218 255 40 218 255 40 218 255 40 218 255 40 218 255 37 217 252 33 217 251 39 219 255 49 209 255 58 191 250 70 183 251 76 184 255 72 184 255 70 187 255 70 187 255 72 186 255 72 186 255 73 186 255 73 186 255 74 185 255 74 185 255 97 155 255 99 154 255 99 154 255 100 153 255 100 153 255 101 153 255 101 153 255 103 152 255 
101 153 254 98 153 254 103 154 255 114 146 255 123 127 252 135 119 252 139 121 255 135 121 255 133 121 255 133 121 255 133 121 255 134 120 255 136 120 255 136 120 255 137 119 255 137 119 255 166 89 255 166 89 255 166 89 255 166 89 255 166 89 255 166 89 255 166 89 255 166 89 255 169 88 253 164 89 254 168 91 255 179 82 255 186 64 251 198 56 252 203 58 255 197 59 255 196 58 255 198 58 255 198 58 255 199 57 255 199 57 255 201 56 255 201 56 255 202 55 255 231 25 255 231 25 255 231 25 255 231 25 255 231 25 255 231 25 255 231 25 255 231 25 255 234 24 255 229 26 255 227 26 254 237 21 255 250 12 255 255 7 255 255 5 255 252 8 255 255 7 253 255 7 253 255 7 253 255 7 253 255 7 253 255 7 253 255 7 253 255 7 253 255 38 255 255 38 255 255 38 255 255 38 255 255 38 255 255 38 255 255 38 255 255 38 255 250 39 255 255 37 255 255 40 255 250 41 247 255 68 255 247 69 253 252 73 253 255 70 252 253 71 254 253 71 254 253 71 254 253 71 254 253 71 254 253 71 254 253 71 254 253 71 254 255 102 255 255 102 255 255 102 255 255 102 255 255 102 255 255 102 255 255 102 255 255 102 255 252 103 255 255 99 254 255 103 255 252 105 247 255 131 255 248 133 254 253 136 253 255 133 251 255 133 254 255 133 254 255 133 254 255 133 254 255 133 254 255 133 254 255 133 254 255 133 254 255 166 254 255 166 254 255 166 254 255 166 254 255 166 254 255 166 254 255 166 254 255 166 254 252 167 255 255 165 255 255 168 255 251 170 247 255 196 255 247 198 254 254 201 255 255 198 252 255 197 255 255 197 255 255 197 255 255 197 255 255 197 255 255 197 255 255 197 255 255 197 255 255 231 255 255 231 255 255 231 255 255 231 255 255 231 255 255 231 255 255 231 255 255 231 255 254 227 255 255 229 249 249 231 245 225 247 255 22 227 230 3 245 255 1 247 255 10 250 251 5 248 254 6 247 254 6 247 254 8 247 254 8 247 254 9 246 254 9 246 254 11 245 254 37 216 255 37 216 255 38 215 255 38 215 255 39 215 255 41 214 255 41 214 255 41 214 255 39 215 254 36 215 255 40 217 255 51 208 255 60 190 252 71 182 253 77 183 255 73 183 255 72 183 255 72 183 255 72 183 255 72 183 255 72 183 255 72 183 255 72 183 255 72 183 255 106 150 255 106 150 255 106 150 255 106 150 255 106 150 255 106 150 255 106 150 255 106 150 255 106 150 255 106 150 255 106 150 255 106 150 255 106 150 255 106 150 255 106 150 255 106 150 255 106 150 255 106 150 255 106 150 255 106 150 255 106 150 255 106 150 255 106 150 255 106 150 255 106 150 255 106 150 255 106 150 255 106 150 255 106 150 255 106 150 255 106 150 255 106 150 255 106 150 255 106 150 255 106 150 255 106 150 255 106 150 255 106 150 255 106 150 255 106 150 255 106 150 255 106 150 255 106 150 255 106 150 255 106 150 255 106 150 255 106 150 255 106 150 255 106 150 255 106 150 255 106 150 255 106 150 255 106 150 255 106 150 255 106 150 255 106 150 255 106 150 255 106 150 255 106 150 255 106 150 255 106 150 255 106 150 255 106 150 255 106 150 255 106 150 255 106 150 255 106 150 255 106 150 255 106 150 255 106 150 255 106 150 255 106 150 255 
106 150 255 106 150 255 106 150 255 106 150 255 106 150 255 106 150 255 106 150 255 106 150 255 106 150 255 106 150 255 106 150 255 106 150 255 106 150 255 106 150 255 106 150 255 106 150 255 106 150 255 106 150 255 106 150 255 106 150 255 106 150 255 106 150 255 106 150 255 106 150 255 106 150 255 106 150 255 106 150 255 106 150 255 106 150 255 106 150 255 106 150 255 106 150 255 106 150 255 106 150 255 106 150 255 106 150 255 106 150 255 106 150 255 106 150 255 106 150 255 106 150 255 106 150 255 106 150 255 106 150 255 106 150 255 106 150 255 106 150 255 106 150 255 106 150 255 106 150 255 106 150 255 106 150 255 106 150 255 106 150 255 106 150 255 106 150 255 106 150 255 106 150 255 106 150 255 106 150 255 106 150 255 106 150 255 106 150 255 106 150 255 106 150 255 106 150 255 106 150 255 106 150 255 106 150 255 106 150 255 106 150 255 106 150 255 106 150 255 106 150 255 106 150 255 106 150 255 106 150 255 106 150 255 106 150 255 106 150 255 106 150 255 106 150 255 106 150 255 106 150 255 106 150 255 106 150 255 106 150 255 106 150 255 106 150 255 106 150 255 106 150 255 106 150 255 106 150 255 106 150 255 106 150 255 106 150 255 106 150 255 106 150 255 106 150 255 106 150 255 106 150 255 106 150 255 106 150 255 106 150 255 106 150 255 106 150 255 106 150 255 106 150 255 106 150 255 106 150 255 106 150 255 106 150 255 106 150 255 106 150 255 106 150 255 106 150 255 106 150 255 106 150 255 106 150 255 106 150 255 106 150 255 106 150 255 106 150 255 106 150 255 106 150 255 106 150 255 106 150 255 106 150 255 106 150 255 106 150 255 106 150 255 106 150 255 106 150 255 106 150 255 106 150 255 106 150 255 106 150 255 106 150 255 106 150 255 106 150 255 106 150 255 106 150 255 106 150 255 106 150 255 106 150 255 106 150 255 106 150 255 106 150 255 106 150 255 106 150 255 106 150 255 106 150 255 106 150 255 106 150 255 106 150 255 106 150 255 106 150 255 106 150 255 106 150 255 106 150 255 106 150 255 106 150 255 106 150 255 106 150 255 106 150 255 106 150 255 106 150 255 106 150 255 106 150 255 106 150 255 106 150 255 106 150 255 106 150 255 106 150 255 106 150 255 106 150 255 106 150 255 106 150 255 106 150 255 106 150 255 106 150 255 106 150 255 106 150 255 106 150 255 106 150 255 106 150 255 106 150 255 106 150 255 106 150 255 106 150 255 106 150 255 106 150 255 106 150 255 106 150 255 106 150 255 106 150 255 106 150 255 106 150 255 106 150 255 106 150 255 106 150 255 106 150 255 106 150 255 106 150 255 106 150 255 106 150 255 106 150 255 106 150 255 106 150 255 106 150 255 106 150 255 106 150 255 106 150 255 106 150 255 106 150 255 106 150 255 106 150 255 106 150 255 106 150 255 106 150 255 106 150 255 106 150 255 106 150 255 106 150 255 106 150 255 106 150 255 106 150 255 106 150 255 106 150 255 106 150 255 106 150 255 106 150 255 106 150 255 106 150 255 106 150 255 106 150 255 106 150 255 106 150 255 106 150 255 106 150 255 106 150 255 106 150 255 106 150 255 106 150 255 106 150 255 106 150 255 106 150 255 106 150 255 106 150 255 106 150 255 106 150 255 106 150 255 106 150 255 106 150 255 106 150 255 106 150 255 
106 150 255 106 150 255 106 150 255 106 150 255 106 150 255 106 150 255 106 150 255 106 150 255 106 150 255 106 150 255 106 150 255 106 150 255 106 150 255 106 150 255 106 150 255 106 150 255 106 150 255 106 150 255 106 150 255 106 150 255 106 150 255 106 150 255 106 150 255 106 150 255 106 150 255 106 150 255 106 150 255 106 150 255 106 150 255 106 150 255 106 150 255 106 150 255 106 150 255 106 150 255 106 150 255 106 150 255 106 150 255 106 150 255 106 150 255 106 150 255 106 150 255 106 150 255 106 150 255 106 150 255 106 150 255 106 150 255 106 150 255 106 150 255 106 150 255 106 150 255 106 150 255 106 150 255 106 150 255 106 150 255 106 150 255 106 150 255 106 150 255 106 150 255 106 150 255 106 150 255 106 150 255 106 150 255 106 150 255 106 150 255 106 150 255 106 150 255 106 150 255 106 150 255 106 150 255 106 150 255 106 150 255 106 150 255 106 150 255 106 150 255 106 150 255 106 150 255 106 150 255 106 150 255 106 150 255 106 150 255 106 150 255 106 150 255 106 150 255 106 150 255 106 150 255 106 150 255 106 150 255 106 150 255 106 150 255 106 150 255 106 150 255 106 150 255 106 150 255 106 150 255 106 150 255 106 150 255 106 150 255 106 150 255 106 150 255 106 150 255 106 150 255 106 150 255 106 150 255 106 150 255 106 150 255 106 150 255 106 150 255 106 150 255 106 150 255 106 150 255 106 150 255 106 150 255 106 150 255 106 150 255 106 150 255 106 150 255 106 150 255 106 150 255 106 150 255 106 150 255 106 150 255 106 150 255 106 150 255 106 150 255 106 150 255 106 150 255 106 150 255 106 150 255 106 150 255 106 150 255 106 150 255 106 150 255 106 150 255 106 150 255 106 150 255 106 150 255 106 150 255 106 150 255 106 150 255 106 150 255 106 150 255 106 150 255 106 150 255 106 150 255 106 150 255 106 150 255 106 150 255 106 150 255 106 150 255 106 150 255 106 150 255 106 150 255 106 150 255 106 150 255 106 150 255 106 150 255 106 150 255 106 150 255 106 150 255 106 150 255 106 150 255 106 150 255 106 150 255 106 150 255 106 150 255 106 150 255 106 150 255 106 150 255 106 150 255 106 150 255 106 150 255 106 150 255 106 150 255 106 150 255 106 150 255 106 150 255 106 150 255 106 150 255 106 150 255 106 150 255 106 150 255 106 150 255 106 150 255 106 150 255 106 150 255 106 150 255 106 150 255 106 150 255 106 150 255 106 150 255 106 150 255 106 150 255 106 150 255 106 150 255 106 150 255 106 150 255 106 150 255 106 150 255 106 150 255 106 150 255 106 150 255 106 150 255 106 150 255 106 150 255 106 150 255 106 150 255 106 150 255 106 150 255 106 150 255 106 150 255 106 150 255 106 150 255 106 150 255 106 150 255 106 150 255 106 150 255 106 150 255 106 150 255 106 150 255 106 150 255 106 150 255 106 150 255 106 150 255 106 150 255 106 150 255 106 150 255 106 150 255 106 150 255 106 150 255 106 150 255 106 150 255 106 150 255 106 150 255 106 150 255 106 150 255 106 150 255 106 150 255 106 150 255 106 150 255 106 150 255 106 150 255 106 150 255 106 150 255 106 150 255 106 150 255 106 150 255 106 150 255 106 150 255 106 150 255 106 150 255 106 150 255 106 150 255 106 150 255 106 150 255 106 150 255 106 150 255 
106 150 255 106 150 255 106 150 255 106 150 255 106 150 255 106 150 255 106 150 255 106 150 255 106 150 255 106 150 255 106 150 255 106 150 255 106 150 255 106 150 255 106 150 255 106 150 255 106 150 255 106 150 255 106 150 255 106 150 255 106 150 255 106 150 255 106 150 255 106 150 255 106 150 255 106 150 255 106 150 255 106 150 255 106 150 255 106 150 255 106 150 255 106 150 255 106 150 255 106 150 255 106 150 255 106 150 255 106 150 255 106 150 255 106 150 255 106 150 255 106 150 255 106 150 255 106 150 255 106 150 255 106 150 255 106 150 255 106 150 255 106 150 255 106 150 255 106 150 255 106 150 255 106 150 255 106 150 255 106 150 255 106 150 255 106 150 255 106 150 255 106 150 255 106 150 255 106 150 255 106 150 255 106 150 255 106 150 255 106 150 255 106 150 255 106 150 255 106 150 255 106 150 255 106 150 255 106 150 255 106 150 255 106 150 255 106 150 255 106 150 255 106 150 255 106 150 255 106 150 255 106 150 255 106 150 255 106 150 255 106 150 255 106 150 255 106 150 255 106 150 255 106 150 255 106 150 255 106 150 255 106 150 255 106 150 255 106 150 255 106 150 255 106 150 255 106 150 255 106 150 255 106 150 255 106 150 255 106 150 255 106 150 255 106 150 255 106 150 255 106 150 255 106 150 255 106 150 255 106 150 255 106 150 255 106 150 255 106 150 255 106 150 255 106 150 255 106 150 255 106 150 255 106 150 255 106 150 255 106 150 255 106 150 255 106 150 255 106 150 255 106 150 255 106 150 255 106 150 255 106 150 255 106 150 255 106 150 255 106 150 255 106 150 255 106 150 255 106 150 255 106 150 255 106 150 255 106 150 255 106 150 255 106 150 255 106 150 255 106 150 255 106 150 255 106 150 255 106 150 255 106 150 255 106 150 255 106 150 255 106 150 255 106 150 255 106 150 255 106 150 255 106 150 255 106 150 255 106 150 255 106 150 255 106 150 255 106 150 255 106 150 255 106 150 255 106 150 255 106 150 255 106 150 255 106 150 255 106 150 255 106 150 255 106 150 255 106 150 255 106 150 255 106 150 255 106 150 255 106 150 255 106 150 255 106 150 255 106 150 255 106 150 255 106 150 255 106 150 255 106 150 255 106 150 255 106 150 255 106 150 255 106 150 255 106 150 255 106 150 255 106 150 255 106 150 255 106 150 255 106 150 255 106 150 255 106 150 255 106 150 255 106 150 255 106 150 255 106 150 255 106 150 255 106 150 255 106 150 255 106 150 255 106 150 255 106 150 255 106 150 255 106 150 255 106 150 255 106 150 255 106 150 255 106 150 255 106 150 255 106 150 255 106 150 255 106 150 255 106 150 255 106 150 255 106 150 255 106 150 255 106 150 255 106 150 255 106 150 255 106 150 255 106 150 255 106 150 255 106 150 255 106 150 255 106 150 255 106 150 255 106 150 255 106 150 255 106 150 255 106 150 255 106 150 255 106 150 255 106 150 255 106 150 255 106 150 255 106 150 255 106 150 255 106 150 255 106 150 255 106 150 255 106 150 255 106 150 255 106 150 255 106 150 255 106 150 255 106 150 255 106 150 255 106 150 255 106 150 255 106 150 255 106 150 255 106 150 255 106 150 255 106 150 255 106 150 255 106 150 255 106 150 255 106 150 255 106 150 255 106 150 255 106 150 255 106 150 255 106 150 255 106 150 255 106 150 255 
106 150 255 106 150 255 106 150 255 106 150 255 106 150 255 106 150 255 106 150 255 106 150 255 106 150 255 106 150 255 106 150 255 106 150 255 106 150 255 106 150 255 106 150 255 106 150 255 106 150 255 106 150 255 106 150 255 106 150 255 106 150 255 106 150 255 106 150 255 106 150 255 106 150 255 106 150 255 106 150 255 106 150 255 106 150 255 106 150 255 106 150 255 106 150 255 106 150 255 106 150 255 106 150 255 106 150 255 106 150 255 106 150 255 106 150 255 106 150 255 106 150 255 106 150 255 106 150 255 106 150 255 106 150 255 106 150 255 106 150 255 106 150 255 106 150 255 106 150 255 106 150 255 106 150 255 106 150 255 106 150 255 106 150 255 106 150 255 106 150 255 106 150 255 106 150 255 106 150 255 106 150 255 106 150 255 106 150 255 106 150 255 106 150 255 106 150 255 106 150 255 106 150 255 106 150 255 106 150 255 106 150 255 106 150 255 106 150 255 106 150 255 106 150 255 106 150 255 106 150 255 106 150 255 106 150 255 106 150 255 106 150 255 106 150 255 106 150 255 106 150 255 106 150 255 106 150 255 106 150 255 106 150 255 106 150 255 106 150 255 106 150 255 106 150 255 106 150 255 106 150 255 106 150 255 106 150 255 106 150 255 106 150 255 106 150 255 106 150 255 106 150 255 106 150 255 106 150 255 106 150 255 106 150 255 106 150 255 106 150 255 106 150 255 106 150 255 106 150 255 106 150 255 106 150 255 106 150 255 106 150 255 106 150 255 106 150 255 106 150 255 106 150 255 106 150 255 106 150 255 106 150 255 106 150 255 106 150 255 106 150 255 106 150 255 106 150 255 106 150 255 106 150 255 106 150 255 106 150 255 106 150 255 106 150 255 106 150 255 106 150 255 106 150 255 106 150 255 106 150 255 106 150 255 106 150 255 106 150 255 106 150 255 106 150 255 106 150 255 106 150 255 106 150 255 106 150 255 106 150 255 106 150 255 106 150 255 106 150 255 106 150 255 106 150 255 106 150 255 106 150 255 106 150 255 106 150 255 106 150 255 106 150 255 106 150 255 106 150 255 106 150 255 106 150 255 106 150 255 106 150 255 106 150 255 106 150 255 106 150 255 106 150 255 106 150 255 106 150 255 106 150 255 106 150 255 106 150 255 106 150 255 106 150 255 106 150 255 106 150 255 106 150 255 106 150 255 106 150 255 106 150 255 106 150 255 106 150 255 106 150 255 106 150 255 106 150 255 106 150 255 106 150 255 106 150 255 106 150 255 106 150 255 106 150 255 106 150 255 106 150 255 106 150 255 106 150 255 106 150 255 106 150 255 106 150 255 106 150 255 106 150 255 106 150 255 106 150 255 106 150 255 106 150 255 106 150 255 106 150 255 106 150 255 106 150 255 106 150 255 106 150 255 106 150 255 106 150 255 106 150 255 106 150 255 106 150 255 106 150 255 106 150 255 106 150 255 106 150 255 106 150 255 106 150 255 106 150 255 106 150 255 106 150 255 106 150 255 106 150 255 106 150 255 106 150 255 106 150 255 106 150 255 106 150 255 106 150 255 106 150 255 106 150 255 106 150 255 106 150 255 106 150 255 106 150 255 106 150 255 106 150 255 106 150 255 106 150 255 106 150 255 106 150 255 106 150 255 106 150 255 106 150 255 106 150 255 106 150 255 106 150 255 106 150 255 106 150 255 106 150 255 106 150 255 106 150 255 
106 150 255 106 150 255 106 150 255 106 150 255 106 150 255 106 150 255 106 150 255 106 150 255 106 150 255 106 150 255 106 150 255 106 150 255 106 150 255 106 150 255 106 150 255 106 150 255 106 150 255 106 150 255 106 150 255 106 150 255 106 150 255 106 150 255 106 150 255 106 150 255 106 150 255 106 150 255 106 150 255 106 150 255 106 150 255 106 150 255 106 150 255 106 150 255 106 150 255 106 150 255 106 150 255 106 150 255 106 150 255 106 150 255 106 150 255 106 150 255 106 150 255 106 150 255 106 150 255 106 150 255 106 150 255 106 150 255 106 150 255 106 150 255 106 150 255 106 150 255 106 150 255 106 150 255 106 150 255 106 150 255 106 150 255 106 150 255 106 150 255 106 150 255 106 150 255 106 150 255 106 150 255 106 150 255 106 150 255 106 150 255 106 150 255 106 150 255 106 150 255 106 150 255 106 150 255 106 150 255 106 150 255 106 150 255 106 150 255 106 150 255 106 150 255 106 150 255 106 150 255 106 150 255 106 150 255 106 150 255 106 150 255 106 150 255 106 150 255 106 150 255 106 150 255 106 150 255 106 150 255 106 150 255 106 150 255 106 150 255 106 150 255 106 150 255 106 150 255 106 150 255 106 150 255 106 150 255 106 150 255 106 150 255 106 150 255 106 150 255 106 150 255 106 150 255 106 150 255 106 150 255 106 150 255 106 150 255 106 150 255 106 150 255 106 150 255 106 150 255 106 150 255 106 150 255 106 150 255 106 150 255 106 150 255 106 150 255 106 150 255 106 150 255 106 150 255 106 150 255 106 150 255 106 150 255 106 150 255 106 150 255 106 150 255 106 150 255 106 150 255 106 150 255 106 150 255 106 150 255 106 150 255 106 150 255 106 150 255 106 150 255 106 150 255 106 150 255 106 150 255 106 150 255 106 150 255 106 150 255 106 150 255 106 150 255 106 150 255 106 150 255 106 150 255 106 150 255 106 150 255 106 150 255 106 150 255 106 150 255 106 150 255 106 150 255 106 150 255 106 150 255 106 150 255 106 150 255 106 150 255 106 150 255 106 150 255 106 150 255 106 150 255 106 150 255 106 150 255 106 150 255 106 150 255 106 150 255 106 150 255 106 150 255 106 150 255 106 150 255 106 150 255 106 150 255 106 150 255 106 150 255 106 150 255 106 150 255 106 150 255 106 150 255 106 150 255 106 150 255 106 150 255 106 150 255 106 150 255 106 150 255 106 150 255 106 150 255 106 150 255 106 150 255 106 150 255 106 150 255 106 150 255 106 150 255 106 150 255 106 150 255 106 150 255 106 150 255 106 150 255 106 150 255 106 150 255 106 150 255 106 150 255 106 150 255 106 150 255 106 150 255 106 150 255 106 150 255 106 150 255 106 150 255 106 150 255 106 150 255 106 150 255 106 150 255 106 150 255 106 150 255 106 150 255 106 150 255 106 150 255 106 150 255 106 150 255 106 150 255 106 150 255 106 150 255 106 150 255 106 150 255 106 150 255 106 150 255 106 150 255 106 150 255 106 150 255 106 150 255 106 150 255 106 150 255 106 150 255 106 150 255 106 150 255 106 150 255 106 150 255 106 150 255 106 150 255 106 150 255 106 150 255 106 150 255 106 150 255 106 150 255 106 150 255 106 150 255 106 150 255 106 150 255 106 150 255 106 150 255 106 150 255 106 150 255 106 150 255 106 150 255 106 150 255 106 150 255 
106 150 255 106 150 255 106 150 255 106 150 255 106 150 255 106 150 255 106 150 255 106 150 255 106 150 255 106 150 255 106 150 255 106 150 255 106 150 255 106 150 255 106 150 255 106 150 255 106 150 255 106 150 255 106 150 255 106 150 255 106 150 255 106 150 255 106 150 255 106 150 255 106 150 255 106 150 255 106 150 255 106 150 255 106 150 255 106 150 255 106 150 255 106 150 255 106 150 255 106 150 255 106 150 255 106 150 255 106 150 255 106 150 255 106 150 255 106 150 255 106 150 255 106 150 255 106 150 255 106 150 255 106 150 255 106 150 255 106 150 255 106 150 255 106 150 255 106 150 255 106 150 255 106 150 255 106 150 255 106 150 255 106 150 255 106 150 255 106 150 255 106 150 255 106 150 255 106 150 255 106 150 255 106 150 255 106 150 255 106 150 255 106 150 255 106 150 255 106 150 255 106 150 255 106 150 255 106 150 255 106 150 255 106 150 255 106 150 255 106 150 255 106 150 255 106 150 255 106 150 255 106 150 255 106 150 255 106 150 255 106 150 255 106 150 255 106 150 255 106 150 255 106 150 255 106 150 255 106 150 255 106 150 255 106 150 255 106 150 255 106 150 255 106 150 255 106 150 255 106 150 255 106 150 255 106 150 255 106 150 255 106 150 255 106 150 255 106 150 255 106 150 255 106 150 255 106 150 255 106 150 255 106 150 255 106 150 255 106 150 255 106 150 255 106 150 255 106 150 255 106 150 255 106 150 255 106 150 255 106 150 255 106 150 255 106 150 255 106 150 255 106 150 255 106 150 255 106 150 255 106 150 255 106 150 255 106 150 255 106 150 255 106 150 255 106 150 255 106 150 255 106 150 255 106 150 255 106 150 255 106 150 255 106 150 255 106 150 255 106 150 255 106 150 255 106 150 255 106 150 255 106 150 255 106 150 255 106 150 255 106 150 255 106 150 255 106 150 255 106 150 255 106 150 255 106 150 255 106 150 255 106 150 255 106 150 255 106 150 255 106 150 255 106 150 255 106 150 255 106 150 255 106 150 255 106 150 255 106 150 255 106 150 255 106 150 255 106 150 255 106 150 255 106 150 255 106 150 255 106 150 255 106 150 255 106 150 255 106 150 255 106 150 255 106 150 255 106 150 255 106 150 255 106 150 255 106 150 255 106 150 255 106 150 255 106 150 255 106 150 255 106 150 255 106 150 255 106 150 255 106 150 255 106 150 255 106 150 255 106 150 255 106 150 255 106 150 255 106 150 255 106 150 255 106 150 255 106 150 255 106 150 255 106 150 255 106 150 255 106 150 255 106 150 255 106 150 255 106 150 255 106 150 255 106 150 255 106 150 255 106 150 255 106 150 255 106 150 255 106 150 255 106 150 255 106 150 255 106 150 255 106 150 255 106 150 255 106 150 255 106 150 255 106 150 255 106 150 255 106 150 255 106 150 255 106 150 255 106 150 255 106 150 255 106 150 255 106 150 255 106 150 255 106 150 255 106 150 255 106 150 255 106 150 255 106 150 255 106 150 255 106 150 255 106 150 255 106 150 255 106 150 255 106 150 255 106 150 255 106 150 255 106 150 255 106 150 255 106 150 255 106 150 255 106 150 255 106 150 255 106 150 255 106 150 255 106 150 255 106 150 255 106 150 255 106 150 255 106 150 255 106 150 255 106 150 255 106 150 255 106 150 255 106 150 255 106 150 255 106 150 255 106 150 255 106 150 255 
106 150 255 106 150 255 106 150 255 106 150 255 106 150 255 106 150 255 106 150 255 106 150 255 106 150 255 106 150 255 106 150 255 106 150 255 106 150 255 106 150 255 106 150 255 106 150 255 106 150 255 106 150 255 106 150 255 106 150 255 106 150 255 106 150 255 106 150 255 106 150 255 106 150 255 106 150 255 106 150 255 106 150 255 106 150 255 106 150 255 106 150 255 106 150 255 106 150 255 106 150 255 106 150 255 106 150 255 106 150 255 106 150 255 106 150 255 106 150 255 106 150 255 106 150 255 106 150 255 106 150 255 106 150 255 106 150 255 106 150 255 106 150 255 106 150 255 106 150 255 106 150 255 106 150 255 106 150 255 106 150 255 106 150 255 106 150 255 106 150 255 106 150 255 106 150 255 106 150 255 106 150 255 106 150 255 106 150 255 106 150 255 106 150 255 106 150 255 106 150 255 106 150 255 106 150 255 106 150 255 106 150 255 106 150 255 106 150 255 106 150 255 106 150 255 106 150 255 106 150 255 106 150 255 106 150 255 106 150 255 106 150 255 106 150 255 106 150 255 106 150 255 106 150 255 106 150 255 106 150 255 106 150 255 106 150 255 106 150 255 106 150 255 106 150 255 106 150 255 106 150 255 106 150 255 106 150 255 106 150 255 106 150 255 106 150 255 106 150 255 106 150 255 106 150 255 106 150 255 106 150 255 106 150 255 106 150 255 106 150 255 106 150 255 106 150 255 106 150 255 106 150 255 106 150 255 106 150 255 106 150 255 106 150 255 106 150 255 106 150 255 106 150 255 106 150 255 106 150 255 106 150 255 106 150 255 106 150 255 106 150 255 106 150 255 106 150 255 106 150 255 106 150 255 106 150 255 106 150 255 106 150 255 106 150 255 106 150 255 106 150 255 106 150 255 106 150 255 106 150 255 106 150 255 106 150 255 106 150 255 106 150 255 106 150 255 106 150 255 106 150 255 106 150 255 106 150 255 106 150 255 106 150 255 106 150 255 106 150 255 106 150 255 106 150 255 106 150 255 106 150 255 106 150 255 106 150 255 106 150 255 106 150 255 106 150 255 106 150 255 106 150 255 106 150 255 106 150 255 106 150 255 106 150 255 106 150 255 106 150 255 106 150 255 106 150 255 106 150 255 106 150 255 106 150 255 106 150 255 106 150 255 106 150 255 106 150 255 106 150 255 106 150 255 106 150 255 106 150 255 106 150 255 106 150 255 106 150 255 106 150 255 106 150 255 106 150 255 106 150 255 106 150 255 106 150 255 106 150 255 106 150 255 106 150 255 106 150 255 106 150 255 106 150 255 106 150 255 106 150 255 106 150 255 106 150 255 106 150 255 106 150 255 106 150 255 106 150 255 106 150 255 106 150 255 106 150 255 106 150 255 106 150 255 106 150 255 106 150 255 106 150 255 106 150 255 106 150 255 106 150 255 106 150 255 106 150 255 106 150 255 106 150 255 106 150 255 106 150 255 106 150 255 106 150 255 106 150 255 106 150 255 106 150 255 106 150 255 106 150 255 106 150 255 106 150 255 106 150 255 106 150 255 106 150 255 106 150 255 106 150 255 106 150 255 106 150 255 106 150 255 106 150 255 106 150 255 106 150 255 106 150 255 106 150 255 106 150 255 106 150 255 106 150 255 106 150 255 106 150 255 106 150 255 106 150 255 106 150 255 106 150 255 106 150 255 106 150 255 106 150 255 106 150 255 106 150 255 
106 150 255 106 150 255 106 150 255 106 150 255 106 150 255 106 150 255 106 150 255 106 150 255 106 150 255 106 150 255 106 150 255 106 150 255 106 150 255 106 150 255 106 150 255 106 150 255 106 150 255 106 150 255 106 150 255 106 150 255 106 150 255 106 150 255 106 150 255 106 150 255 106 150 255 106 150 255 106 150 255 106 150 255 106 150 255 106 150 255 106 150 255 106 150 255 106 150 255 106 150 255 106 150 255 106 150 255 106 150 255 106 150 255 106 150 255 106 150 255 106 150 255 106 150 255 106 150 255 106 150 255 106 150 255 106 150 255 106 150 255 106 150 255 106 150 255 106 150 255 106 150 255 106 150 255 106 150 255 106 150 255 106 150 255 106 150 255 106 150 255 106 150 255 106 150 255 106 150 255 106 150 255 106 150 255 106 150 255 106 150 255 106 150 255 106 150 255 106 150 255 106 150 255 106 150 255 106 150 255 106 150 255 106 150 255 106 150 255 106 150 255 106 150 255 106 150 255 106 150 255 106 150 255 106 150 255 106 150 255 106 150 255 106 150 255 106 150 255 106 150 255 106 150 255 106 150 255 106 150 255 106 150 255 106 150 255 106 150 255 106 150 255 106 150 255 106 150 255 106 150 255 106 150 255 106 150 255 106 150 255 106 150 255 106 150 255 106 150 255 106 150 255 106 150 255 106 150 255 106 150 255 106 150 255 106 150 255 106 150 255 106 150 255 106 150 255 106 150 255 106 150 255 106 150 255 106 150 255 106 150 255 106 150 255 106 150 255 106 150 255 106 150 255 106 150 255 106 150 255 106 150 255 106 150 255 106 150 255 106 150 255 106 150 255 106 150 255 106 150 255 106 150 255 106 150 255 106 150 255 106 150 255 106 150 255 106 150 255 106 150 255 106 150 255 106 150 255 106 150 255 106 150 255 106 150 255 106 150 255 106 150 255 106 150 255 106 150 255 106 150 255 106 150 255 106 150 255 106 150 255 106 150 255 106 150 255 106 150 255 106 150 255 106 150 255 106 150 255 106 150 255 106 150 255 106 150 255 106 150 255 106 150 255 106 150 255 106 150 255 106 150 255 106 150 255 106 150 255 106 150 255 106 150 255 106 150 255 106 150 255 106 150 255 106 150 255 106 150 255 106 150 255 106 150 255 106 150 255 106 150 255 106 150 255 106 150 255 106 150 255 106 150 255 106 150 255 106 150 255 106 150 255 106 150 255 106 150 255 106 150 255 106 150 255 106 150 255 106 150 255 106 150 255 106 150 255 106 150 255 106 150 255 106 150 255 106 150 255 106 150 255 106 150 255 106 150 255 106 150 255 106 150 255 106 150 255 106 150 255 106 150 255 106 150 255 106 150 255 106 150 255 106 150 255 106 150 255 106 150 255 106 150 255 106 150 255 106 150 255 106 150 255 106 150 255 106 150 255 106 150 255 106 150 255 106 150 255 106 150 255 106 150 255 106 150 255 106 150 255 106 150 255 106 150 255 106 150 255 106 150 255 106 150 255 106 150 255 106 150 255 106 150 255 106 150 255 106 150 255 106 150 255 106 150 255 106 150 255 106 150 255 106 150 255 106 150 255 106 150 255 106 150 255 106 150 255 106 150 255 106 150 255 106 150 255 106 150 255 106 150 255 106 150 255 106 150 255 106 150 255 106 150 255 106 150 255 106 150 255 106 150 255 106 150 255 106 150 255 106 150 255 106 150 255 106 150 255 
106 150 255 106 150 255 106 150 255 106 150 255 106 150 255 106 150 255 106 150 255 106 150 255 106 150 255 106 150 255 106 150 255 106 150 255 106 150 255 106 150 255 106 150 255 106 150 255 106 150 255 106 150 255 106 150 255 106 150 255 106 150 255 106 150 255 106 150 255 106 150 255 106 150 255 106 150 255 106 150 255 106 150 255 106 150 255 106 150 255 106 150 255 106 150 255 106 150 255 106 150 255 106 150 255 106 150 255 106 150 255 106 150 255 106 150 255 106 150 255 106 150 255 106 150 255 106 150 255 106 150 255 106 150 255 106 150 255 106 150 255 106 150 255 106 150 255 106 150 255 106 150 255 106 150 255 106 150 255 106 150 255 106 150 255 106 150 255 106 150 255 106 150 255 106 150 255 106 150 255 106 150 255 106 150 255 106 150 255 106 150 255 106 150 255 106 150 255 106 150 255 106 150 255 106 150 255 106 150 255 106 150 255 106 150 255 106 150 255 106 150 255 106 150 255 106 150 255 106 150 255 106 150 255 106 150 255 106 150 255 106 150 255 106 150 255 106 150 255 106 150 255 106 150 255 106 150 255 106 150 255 106 150 255 106 150 255 106 150 255 106 150 255 106 150 255 106 150 255 106 150 255 106 150 255 106 150 255 106 150 255 106 150 255 106 150 255 106 150 255 106 150 255 106 150 255 106 150 255 106 150 255 106 150 255 106 150 255 106 150 255 106 150 255 106 150 255 106 150 255 106 150 255 106 150 255 106 150 255 106 150 255 106 150 255 106 150 255 106 150 255 106 150 255 106 150 255 106 150 255 106 150 255 106 150 255 106 150 255 106 150 255 106 150 255 106 150 255 106 150 255 106 150 255 106 150 255 106 150 255 106 150 255 106 150 255 106 150 255 106 150 255 106 150 255 106 150 255 106 150 255 106 150 255 106 150 255 106 150 255 106 150 255 106 150 255 106 150 255 106 150 255 106 150 255 106 150 255 106 150 255 106 150 255 106 150 255 106 150 255 106 150 255 106 150 255 106 150 255 106 150 255 106 150 255 106 150 255 106 150 255 106 150 255 106 150 255 106 150 255 106 150 255 106 150 255 106 150 255 106 150 255 106 150 255 106 150 255 106 150 255 106 150 255 106 150 255 106 150 255 106 150 255 106 150 255 106 150 255 106 150 255 106 150 255 106 150 255 106 150 255 106 150 255 106 150 255 106 150 255 106 150 255 106 150 255 106 150 255 106 150 255 106 150 255 106 150 255 106 150 255 106 150 255 106 150 255 106 150 255 106 150 255 106 150 255 106 150 255 106 150 255 106 150 255 106 150 255 106 150 255 106 150 255 106 150 255 106 150 255 106 150 255 106 150 255 106 150 255 106 150 255 106 150 255 106 150 255 106 150 255 106 150 255 106 150 255 106 150 255 106 150 255 106 150 255 106 150 255 106 150 255 106 150 255 106 150 255 106 150 255 106 150 255 106 150 255 106 150 255 106 150 255 106 150 255 106 150 255 106 150 255 106 150 255 106 150 255 106 150 255 106 150 255 106 150 255 106 150 255 106 150 255 106 150 255 106 150 255 106 150 255 106 150 255 106 150 255 106 150 255 106 150 255 106 150 255 106 150 255 106 150 255 106 150 255 106 150 255 106 150 255 106 150 255 106 150 255 106 150 255 106 150 255 106 150 255 106 150 255 106 150 255 106 150 255 106 150 255 106 150 255 106 150 255 106 150 255 
106 150 255 106 150 255 106 150 255 106 150 255 106 150 255 106 150 255 106 150 255 106 150 255 106 150 255 106 150 255 106 150 255 106 150 255 106 150 255 106 150 255 106 150 255 106 150 255 106 150 255 106 150 255 106 150 255 106 150 255 106 150 255 106 150 255 106 150 255 106 150 255 106 150 255 106 150 255 106 150 255 106 150 255 106 150 255 106 150 255 106 150 255 106 150 255 106 150 255 106 150 255 106 150 255 106 150 255 106 150 255 106 150 255 106 150 255 106 150 255 106 150 255 106 150 255 106 150 255 106 150 255 106 150 255 106 150 255 106 150 255 106 150 255 106 150 255 106 150 255 106 150 255 106 150 255 106 150 255 106 150 255 106 150 255 106 150 255 106 150 255 106 150 255 106 150 255 106 150 255 106 150 255 106 150 255 106 150 255 106 150 255 106 150 255 106 150 255 106 150 255 106 150 255 106 150 255 106 150 255 106 150 255 106 150 255 106 150 255 106 150 255 106 150 255 106 150 255 106 150 255 106 150 255 106 150 255 106 150 255 106 150 255 106 150 255 106 150 255 106 150 255 106 150 255 106 150 255 106 150 255 106 150 255 106 150 255 106 150 255 106 150 255 106 150 255 106 150 255 106 150 255 106 150 255 106 150 255 106 150 255 106 150 255 106 150 255 106 150 255 106 150 255 106 150 255 106 150 255 106 150 255 106 150 255 106 150 255 106 150 255 106 150 255 106 150 255 106 150 255 106 150 255 106 150 255 106 150 255 106 150 255 106 150 255 106 150 255 106 150 255 106 150 255 106 150 255 106 150 255 106 150 255 106 150 255 106 150 255 106 150 255 106 150 255 106 150 255 106 150 255 106 150 255 106 150 255 106 150 255 106 150 255 106 150 255 106 150 255 106 150 255 106 150 255 106 150 255 106 150 255 106 150 255 106 150 255 106 150 255 106 150 255 106 150 255 106 150 255 106 150 255 106 150 255 106 150 255 106 150 255 106 150 255 106 150 255 106 150 255 106 150 255 106 150 255 106 150 255 106 150 255 106 150 255 106 150 255 106 150 255 106 150 255 106 150 255 106 150 255 106 150 255 106 150 255 106 150 255 106 150 255 106 150 255 106 150 255 106 150 255 106 150 255 106 150 255 106 150 255 106 150 255 106 150 255 106 150 255 106 150 255 106 150 255 106 150 255 106 150 255 106 150 255 106 150 255 106 150 255 106 150 255 106 150 255 106 150 255 106 150 255 106 150 255 106 150 255 106 150 255 106 150 255 106 150 255 106 150 255 106 150 255 106 150 255 106 150 255 106 150 255 106 150 255 106 150 255 106 150 255 106 150 255 106 150 255 106 150 255 106 150 255 106 150 255 106 150 255 106 150 255 106 150 255 106 150 255 106 150 255 106 150 255 106 150 255 106 150 255 106 150 255 106 150 255 106 150 255 106 150 255 106 150 255 106 150 255 106 150 255 106 150 255 106 150 255 106 150 255 106 150 255 106 150 255 106 150 255 106 150 255 106 150 255 106 150 255 106 150 255 106 150 255 106 150 255 106 150 255 106 150 255 106 150 255 106 150 255 106 150 255 106 150 255 106 150 255 106 150 255 106 150 255 106 150 255 106 150 255 106 150 255 106 150 255 106 150 255 106 150 255 106 150 255 106 150 255 106 150 255 106 150 255 106 150 255 106 150 255 106 150 255 106 150 255 106 150 255 106 150 255 106 150 255 106 150 255 
106 150 255 106 150 255 106 150 255 106 150 255 106 150 255 106 150 255 106 150 255 106 150 255 106 150 255 106 150 255 106 150 255 106 150 255 106 150 255 106 150 255 106 150 255 106 150 255 106 150 255 106 150 255 106 150 255 106 150 255 106 150 255 106 150 255 106 150 255 106 150 255 106 150 255 106 150 255 106 150 255 106 150 255 106 150 255 106 150 255 106 150 255 106 150 255 106 150 255 106 150 255 106 150 255 106 150 255 106 150 255 106 150 255 106 150 255 106 150 255 106 150 255 106 150 255 106 150 255 106 150 255 106 150 255 106 150 255 106 150 255 106 150 255 106 150 255 106 150 255 106 150 255 106 150 255 106 150 255 106 150 255 106 150 255 106 150 255 106 150 255 106 150 255 106 150 255 106 150 255 106 150 255 106 150 255 106 150 255 106 150 255 106 150 255 106 150 255 106 150 255 106 150 255 106 150 255 106 150 255 106 150 255 106 150 255 106 150 255 106 150 255 106 150 255 106 150 255 106 150 255 106 150 255 106 150 255 106 150 255 106 150 255 106 150 255 106 150 255 106 150 255 106 150 255 106 150 255 106 150 255 106 150 255 106 150 255 106 150 255 106 150 255 106 150 255 106 150 255 106 150 255 106 150 255 106 150 255 106 150 255 106 150 255 106 150 255 106 150 255 106 150 255 106 150 255 106 150 255 106 150 255 106 150 255 106 150 255 106 150 255 106 150 255 106 150 255 106 150 255 106 150 255 106 150 255 106 150 255 106 150 255 106 150 255 106 150 255 106 150 255 106 150 255 106 150 255 106 150 255 106 150 255 106 150 255 106 150 255 106 150 255 106 150 255 106 150 255 106 150 255 106 150 255 106 150 255 106 150 255 106 150 255 106 150 255 106 150 255 106 150 255 106 150 255 106 150 255 106 150 255 106 150 255 106 150 255 106 150 255 106 150 255 106 150 255 106 150 255 106 150 255 106 150 255 106 150 255 106 150 255 106 150 255 106 150 255 106 150 255 106 150 255 106 150 255 106 150 255 106 150 255 106 150 255 106 150 255 106 150 255 106 150 255 106 150 255 106 150 255 106 150 255 106 150 255 106 150 255 106 150 255 106 150 255 106 150 255 106 150 255 106 150 255 106 150 255 106 150 255 106 150 255 106 150 255 106 150 255 106 150 255 106 150 255 106 150 255 106 150 255 106 150 255 106 150 255 106 150 255 106 150 255 106 150 255 106 150 255 106 150 255 106 150 255 106 150 255 106 150 255 106 150 255 106 150 255 106 150 255 106 150 255 106 150 255 106 150 255 106 150 255 106 150 255 106 150 255 106 150 255 106 150 255 106 150 255 106 150 255 106 150 255 106 150 255 106 150 255 106 150 255 106 150 255 106 150 255 106 150 255 106 150 255 106 150 255 106 150 255 106 150 255 106 150 255 106 150 255 106 150 255 106 150 255 106 150 255 106 150 255 106 150 255 106 150 255 106 150 255 106 150 255 106 150 255 106 150 255 106 150 255 106 150 255 106 150 255 106 150 255 106 150 255 106 150 255 106 150 255 106 150 255 106 150 255 106 150 255 106 150 255 106 150 255 106 150 255 106 150 255 106 150 255 106 150 255 106 150 255 106 150 255 106 150 255 106 150 255 106 150 255 106 150 255 106 150 255 106 150 255 106 150 255 106 150 255 106 150 255 106 150 255 106 150 255 106 150 255 106 150 255 106 150 255 106 150 255 
106 150 255 106 150 255 106 150 255 106 150 255 106 150 255 106 150 255 106 150 255 106 150 255 106 150 255 106 150 255 106 150 255 106 150 255 106 150 255 106 150 255 106 150 255 106 150 255 106 150 255 106 150 255 106 150 255 106 150 255 106 150 255 106 150 255 106 150 255 106 150 255 106 150 255 106 150 255 106 150 255 106 150 255 106 150 255 106 150 255 106 150 255 106 150 255 106 150 255 106 150 255 106 150 255 106 150 255 106 150 255 106 150 255 106 150 255 106 150 255 106 150 255 106 150 255 106 150 255 106 150 255 106 150 255 106 150 255 106 150 255 106 150 255 106 150 255 106 150 255 106 150 255 106 150 255 106 150 255 106 150 255 106 150 255 106 150 255 106 150 255 106 150 255 106 150 255 106 150 255 106 150 255 106 150 255 106 150 255 106 150 255 106 150 255 106 150 255 106 150 255 106 150 255 106 150 255 106 150 255 106 150 255 106 150 255 106 150 255 106 150 255 106 150 255 106 150 255 106 150 255 106 150 255 106 150 255 106 150 255 106 150 255 106 150 255 106 150 255 106 150 255 106 150 255 106 150 255 106 150 255 106 150 255 106 150 255 106 150 255 106 150 255 106 150 255 106 150 255 106 150 255 106 150 255 106 150 255 106 150 255 106 150 255 106 150 255 106 150 255 106 150 255 106 150 255 106 150 255 106 150 255 106 150 255 106 150 255 106 150 255 106 150 255 106 150 255 106 150 255 106 150 255 106 150 255 106 150 255 106 150 255 106 150 255 106 150 255 106 150 255 106 150 255 106 150 255 106 150 255 106 150 255 106 150 255 106 150 255 106 150 255 106 150 255 106 150 255 106 150 255 106 150 255 106 150 255 106 150 255 106 150 255 106 150 255 106 150 255 106 150 255 106 150 255 106 150 255 106 150 255 106 150 255 106 150 255 106 150 255 106 150 255 106 150 255 106 150 255 106 150 255 106 150 255 106 150 255 106 150 255 106 150 255 106 150 255 106 150 255 106 150 255 106 150 255 106 150 255 106 150 255 106 150 255 106 150 255 106 150 255 106 150 255 106 150 255 106 150 255 106 150 255 106 150 255 106 150 255 106 150 255 106 150 255 106 150 255 106 150 255 106 150 255 106 150 255 106 150 255 106 150 255 106 150 255 106 150 255 106 150 255 106 150 255 106 150 255 106 150 255 106 150 255 106 150 255 106 150 255 106 150 255 106 150 255 106 150 255 106 150 255 106 150 255 106 150 255 106 150 255 106 150 255 106 150 255 106 150 255 106 150 255 106 150 255 106 150 255 106 150 255 106 150 255 106 150 255 106 150 255 106 150 255 106 150 255 106 150 255 106 150 255 106 150 255 106 150 255 106 150 255 106 150 255 106 150 255 106 150 255 106 150 255 106 150 255 106 150 255 106 150 255 106 150 255 106 150 255 106 150 255 106 150 255 106 150 255 106 150 255 106 150 255 106 150 255 106 150 255 106 150 255 106 150 255 106 150 255 106 150 255 106 150 255 106 150 255 106 150 255 106 150 255 106 150 255 106 150 255 106 150 255 106 150 255 106 150 255 106 150 255 106 150 255 106 150 255 106 150 255 106 150 255 106 150 255 106 150 255 106 150 255 106 150 255 106 150 255 106 150 255 106 150 255 106 150 255 106 150 255 106 150 255 106 150 255 106 150 255 106 150 255 106 150 255 106 150 255 106 150 255 106 150 255 106 150 255 
106 150 255 106 150 255 106 150 255 106 150 255 106 150 255 106 150 255 106 150 255 106 150 255 106 150 255 106 150 255 106 150 255 106 150 255 106 150 255 106 150 255 106 150 255 106 150 255 106 150 255 106 150 255 106 150 255 106 150 255 106 150 255 106 150 255 106 150 255 106 150 255 106 150 255 106 150 255 106 150 255 106 150 255 106 150 255 106 150 255 106 150 255 106 150 255 106 150 255 106 150 255 106 150 255 106 150 255 106 150 255 106 150 255 106 150 255 106 150 255 106 150 255 106 150 255 106 150 255 106 150 255 106 150 255 106 150 255 106 150 255 106 150 255 106 150 255 106 150 255 106 150 255 106 150 255 106 150 255 106 150 255 106 150 255 106 150 255 106 150 255 106 150 255 106 150 255 106 150 255 106 150 255 106 150 255 106 150 255 106 150 255 106 150 255 106 150 255 106 150 255 106 150 255 106 150 255 106 150 255 106 150 255 106 150 255 106 150 255 106 150 255 106 150 255 106 150 255 106 150 255 106 150 255 106 150 255 106 150 255 106 150 255 106 150 255 106 150 255 106 150 255 106 150 255 106 150 255 106 150 255 106 150 255 106 150 255 106 150 255 106 150 255 106 150 255 106 150 255 106 150 255 106 150 255 106 150 255 106 150 255 106 150 255 106 150 255 106 150 255 106 150 255 106 150 255 106 150 255 106 150 255 106 150 255 106 150 255 106 150 255 106 150 255 106 150 255 106 150 255 106 150 255 106 150 255 106 150 255 106 150 255 106 150 255 106 150 255 106 150 255 106 150 255 106 150 255 106 150 255 106 150 255 106 150 255 106 150 255 106 150 255 106 150 255 106 150 255 106 150 255 106 150 255 106 150 255 106 150 255 106 150 255 106 150 255 106 150 255 106 150 255 106 150 255 106 150 255 106 150 255 106 150 255 106 150 255 106 150 255 106 150 255 106 150 255 106 150 255 106 150 255 106 150 255 106 150 255 106 150 255 106 150 255 106 150 255 106 150 255 106 150 255 106 150 255 106 150 255 106 150 255 106 150 255 106 150 255 106 150 255 106 150 255 106 150 255 106 150 255 106 150 255 106 150 255 106 150 255 106 150 255 106 150 255 106 150 255 106 150 255 106 150 255 106 150 255 106 150 255 106 150 255 106 150 255 106 150 255 106 150 255 106 150 255 106 150 255 106 150 255 106 150 255 106 150 255 106 150 255 106 150 255 106 150 255 106 150 255 106 150 255 106 150 255 106 150 255 106 150 255 106 150 255 106 150 255 106 150 255 106 150 255 106 150 255 106 150 255 106 150 255 106 150 255 106 150 255 106 150 255 106 150 255 106 150 255 106 150 255 106 150 255 106 150 255 106 150 255 106 150 255 106 150 255 106 150 255 106 150 255 106 150 255 106 150 255 106 150 255 106 150 255 106 150 255 106 150 255 106 150 255 106 150 255 106 150 255 106 150 255 106 150 255 106 150 255 106 150 255 106 150 255 106 150 255 106 150 255 106 150 255 106 150 255 106 150 255 106 150 255 106 150 255 106 150 255 106 150 255 106 150 255 106 150 255 106 150 255 106 150 255 106 150 255 106 150 255 106 150 255 106 150 255 106 150 255 106 150 255 106 150 255 106 150 255 106 150 255 106 150 255 106 150 255 106 150 255 106 150 255 106 150 255 106 150 255 106 150 255 106 150 255 106 150 255 106 150 255 106 150 255 106 150 255 106 150 255 
106 150 255 106 150 255 106 150 255 106 150 255 106 150 255 106 150 255 106 150 255 106 150 255 106 150 255 106 150 255 106 150 255 106 150 255 106 150 255 106 150 255 106 150 255 106 150 255 106 150 255 106 150 255 106 150 255 106 150 255 106 150 255 106 150 255 106 150 255 106 150 255 106 150 255 106 150 255 106 150 255 106 150 255 106 150 255 106 150 255 106 150 255 106 150 255 106 150 255 106 150 255 106 150 255 106 150 255 106 150 255 106 150 255 106 150 255 106 150 255 106 150 255 106 150 255 106 150 255 106 150 255 106 150 255 106 150 255 106 150 255 106 150 255 106 150 255 106 150 255 106 150 255 106 150 255 106 150 255 106 150 255 106 150 255 106 150 255 106 150 255 106 150 255 106 150 255 106 150 255 106 150 255 106 150 255 106 150 255 106 150 255 106 150 255 106 150 255 106 150 255 106 150 255 106 150 255 106 150 255 106 150 255 106 150 255 106 150 255 106 150 255 106 150 255 106 150 255 106 150 255 106 150 255 106 150 255 106 150 255 106 150 255 106 150 255 106 150 255 106 150 255 106 150 255 106 150 255 106 150 255 106 150 255 106 150 255 106 150 255 106 150 255 106 150 255 106 150 255 106 150 255 106 150 255 106 150 255 106 150 255 106 150 255 106 150 255 106 150 255 106 150 255 106 150 255 106 150 255 106 150 255 106 150 255 106 150 255 106 150 255 106 150 255 106 150 255 106 150 255 106 150 255 106 150 255 106 150 255 106 150 255 106 150 255 106 150 255 106 150 255 106 150 255 106 150 255 106 150 255 106 150 255 106 150 255 106 150 255 106 150 255 106 150 255 106 150 255 106 150 255 106 150 255 106 150 255 106 150 255 106 150 255 106 150 255 106 150 255 106 150 255 106 150 255 106 150 255 106 150 255 106 150 255 106 150 255 106 150 255 106 150 255 106 150 255 106 150 255 106 150 255 106 150 255 106 150 255 106 150 255 106 150 255 106 150 255 106 150 255 106 150 255 106 150 255 106 150 255 106 150 255 106 150 255 106 150 255 106 150 255 106 150 255 106 150 255 106 150 255 106 150 255 106 150 255 106 150 255 106 150 255 106 150 255 106 150 255 106 150 255 106 150 255 106 150 255 106 150 255 106 150 255 106 150 255 106 150 255 106 150 255 106 150 255 106 150 255 106 150 255 106 150 255 106 150 255 106 150 255 106 150 255 106 150 255 106 150 255 106 150 255 106 150 255 106 150 255 106 150 255 106 150 255 106 150 255 106 150 255 106 150 255 106 150 255 106 150 255 106 150 255 106 150 255 106 150 255 106 150 255 106 150 255 106 150 255 106 150 255 106 150 255 106 150 255 106 150 255 106 150 255 106 150 255 106 150 255 106 150 255 106 150 255 106 150 255 106 150 255 106 150 255 106 150 255 106 150 255 106 150 255 106 150 255 106 150 255 106 150 255 106 150 255 106 150 255 106 150 255 106 150 255 106 150 255 106 150 255 106 150 255 106 150 255 106 150 255 106 150 255 106 150 255 106 150 255 106 150 255 106 150 255 106 150 255 106 150 255 106 150 255 106 150 255 106 150 255 106 150 255 106 150 255 106 150 255 106 150 255 106 150 255 106 150 255 106 150 255 106 150 255 106 150 255 106 150 255 106 150 255 106 150 255 106 150 255 106 150 255 106 150 255 106 150 255 106 150 255 106 150 255 106 150 255 106 150 255 
106 150 255 106 150 255 106 150 255 106 150 255 106 150 255 106 150 255 106 150 255 106 150 255 106 150 255 106 150 255 106 150 255 106 150 255 106 150 255 106 150 255 106 150 255 106 150 255 106 150 255 106 150 255 106 150 255 106 150 255 106 150 255 106 150 255 106 150 255 106 150 255 106 150 255 106 150 255 106 150 255 106 150 255 106 150 255 106 150 255 106 150 255 106 150 255 106 150 255 106 150 255 106 150 255 106 150 255 106 150 255 106 150 255 106 150 255 106 150 255 106 150 255 106 150 255 106 150 255 106 150 255 106 150 255 106 150 255 106 150 255 106 150 255 106 150 255 106 150 255 106 150 255 106 150 255 106 150 255 106 150 255 106 150 255 106 150 255 106 150 255 106 150 255 106 150 255 106 150 255 106 150 255 106 150 255 106 150 255 106 150 255 106 150 255 106 150 255 106 150 255 106 150 255 106 150 255 106 150 255 106 150 255 106 150 255 106 150 255 106 150 255 106 150 255 106 150 255 106 150 255 106 150 255 106 150 255 106 150 255 106 150 255 106 150 255 106 150 255 106 150 255 106 150 255 106 150 255 106 150 255 106 150 255 106 150 255 106 150 255 106 150 255 106 150 255 106 150 255 106 150 255 106 150 255 106 150 255 106 150 255 106 150 255 106 150 255 106 150 255 106 150 255 106 150 255 106 150 255 106 150 255 106 150 255 106 150 255 106 150 255 106 150 255 106 150 255 106 150 255 106 150 255 106 150 255 106 150 255 106 150 255 106 150 255 106 150 255 106 150 255 106 150 255 106 150 255 106 150 255 106 150 255 106 150 255 106 150 255 106 150 255 106 150 255 106 150 255 106 150 255 106 150 255 106 150 255 106 150 255 106 150 255 106 150 255 106 150 255 106 150 255 106 150 255 106 150 255 106 150 255 106 150 255 106 150 255 106 150 255 106 150 255 106 150 255 106 150 255 106 150 255 106 150 255 106 150 255 106 150 255 106 150 255 106 150 255 106 150 255 106 150 255 106 150 255 106 150 255 106 150 255 106 150 255 106 150 255 106 150 255 106 150 255 106 150 255 106 150 255 106 150 255 106 150 255 106 150 255 106 150 255 106 150 255 106 150 255 106 150 255 106 150 255 106 150 255 106 150 255 106 150 255 106 150 255 106 150 255 106 150 255 106 150 255 106 150 255 106 150 255 106 150 255 106 150 255 106 150 255 106 150 255 106 150 255 106 150 255 106 150 255 106 150 255 106 150 255 106 150 255 106 150 255 106 150 255 106 150 255 106 150 255 106 150 255 106 150 255 106 150 255 106 150 255 106 150 255 106 150 255 106 150 255 106 150 255 106 150 255 106 150 255 106 150 255 106 150 255 106 150 255 106 150 255 106 150 255 106 150 255 106 150 255 106 150 255 106 150 255 106 150 255 106 150 255 106 150 255 106 150 255 106 150 255 106 150 255 106 150 255 106 150 255 106 150 255 106 150 255 106 150 255 106 150 255 106 150 255 106 150 255 106 150 255 106 150 255 106 150 255 106 150 255 106 150 255 106 150 255 106 150 255 106 150 255 106 150 255 106 150 255 106 150 255 106 150 255 106 150 255 106 150 255 106 150 255 106 150 255 106 150 255 106 150 255 106 150 255 106 150 255 106 150 255 106 150 255 106 150 255 106 150 255 106 150 255 106 150 255 106 150 255 106 150 255 106 150 255 106 150 255 106 150 255 106 150 255 
106 150 255 106 150 255 106 150 255 106 150 255 106 150 255 106 150 255 106 150 255 106 150 255 106 150 255 106 150 255 106 150 255 106 150 255 106 150 255 106 150 255 106 150 255 106 150 255 106 150 255 106 150 255 106 150 255 106 150 255 106 150 255 106 150 255 106 150 255 106 150 255 106 150 255 106 150 255 106 150 255 106 150 255 106 150 255 106 150 255 106 150 255 106 150 255 106 150 255 106 150 255 106 150 255 106 150 255 106 150 255 106 150 255 106 150 255 106 150 255 106 150 255 106 150 255 106 150 255 106 150 255 106 150 255 106 150 255 106 150 255 106 150 255 106 150 255 106 150 255 106 150 255 106 150 255 106 150 255 106 150 255 106 150 255 106 150 255 106 150 255 106 150 255 106 150 255 106 150 255 106 150 255 106 150 255 106 150 255 106 150 255 106 150 255 106 150 255 106 150 255 106 150 255 106 150 255 106 150 255 106 150 255 106 150 255 106 150 255 106 150 255 106 150 255 106 150 255 106 150 255 106 150 255 106 150 255 106 150 255 106 150 255 106 150 255 106 150 255 106 150 255 106 150 255 106 150 255 106 150 255 106 150 255 106 150 255 106 150 255 106 150 255 106 150 255 106 150 255 106 150 255 106 150 255 106 150 255 106 150 255 106 150 255 106 150 255 106 150 255 106 150 255 106 150 255 106 150 255 106 150 255 106 150 255 106 150 255 106 150 255 106 150 255 106 150 255 106 150 255 106 150 255 106 150 255 106 150 255 106 150 255 106 150 255 106 150 255 106 150 255 106 150 255 106 150 255 106 150 255 106 150 255 106 150 255 106 150 255 106 150 255 106 150 255 106 150 255 106 150 255 106 150 255 106 150 255 106 150 255 106 150 255 106 150 255 106 150 255 106 150 255 106 150 255 106 150 255 106 150 255 106 150 255 106 150 255 106 150 255 106 150 255 106 150 255 106 150 255 106 150 255 106 150 255 106 150 255 106 150 255 106 150 255 106 150 255 106 150 255 106 150 255 106 150 255 106 150 255 106 150 255 106 150 255 106 150 255 106 150 255 106 150 255 106 150 255 106 150 255 106 150 255 106 150 255 106 150 255 106 150 255 106 150 255 106 150 255 106 150 255 106 150 255 106 150 255 106 150 255 106 150 255 106 150 255 106 150 255 106 150 255 106 150 255 106 150 255 106 150 255 106 150 255 106 150 255 106 150 255 106 150 255 106 150 255 106 150 255 106 150 255 106 150 255 106 150 255 106 150 255 106 150 255 106 150 255 106 150 255 106 150 255 106 150 255 106 150 255 106 150 255 106 150 255 106 150 255 106 150 255 106 150 255 106 150 255 106 150 255 106 150 255 106 150 255 106 150 255 106 150 255 106 150 255 106 150 255 106 150 255 106 150 255 106 150 255 106 150 255 106 150 255 106 150 255 106 150 255 106 150 255 106 150 255 106 150 255 106 150 255 106 150 255 106 150 255 106 150 255 106 150 255 106 150 255 106 150 255 106 150 255 106 150 255 106 150 255 106 150 255 106 150 255 106 150 255 106 150 255 106 150 255 106 150 255 106 150 255 106 150 255 106 150 255 106 150 255 106 150 255 106 150 255 106 150 255 106 150 255 106 150 255 106 150 255 106 150 255 106 150 255 106 150 255 106 150 255 106 150 255 106 150 255 106 150 255 106 150 255 106 150 255 106 150 255 106 150 255 106 150 255 106 150 255 106 150 255 
106 150 255 106 150 255 106 150 255 106 150 255 106 150 255 106 150 255 106 150 255 106 150 255 106 150 255 106 150 255 106 150 255 106 150 255 106 150 255 106 150 255 106 150 255 106 150 255 106 150 255 106 150 255 106 150 255 106 150 255 106 150 255 106 150 255 106 150 255 106 150 255 106 150 255 106 150 255 106 150 255 106 150 255 106 150 255 106 150 255 106 150 255 106 150 255 106 150 255 106 150 255 106 150 255 106 150 255 106 150 255 106 150 255 106 150 255 106 150 255 106 150 255 106 150 255 106 150 255 106 150 255 106 150 255 106 150 255 106 150 255 106 150 255 106 150 255 106 150 255 106 150 255 106 150 255 106 150 255 106 150 255 106 150 255 106 150 255 106 150 255 106 150 255 106 150 255 106 150 255 106 150 255 106 150 255 106 150 255 106 150 255 106 150 255 106 150 255 106 150 255 106 150 255 106 150 255 106 150 255 106 150 255 106 150 255 106 150 255 106 150 255 106 150 255 106 150 255 106 150 255 106 150 255 106 150 255 106 150 255 106 150 255 106 150 255 106 150 255 106 150 255 106 150 255 106 150 255 106 150 255 106 150 255 106 150 255 106 150 255 106 150 255 106 150 255 106 150 255 106 150 255 106 150 255 106 150 255 106 150 255 106 150 255 106 150 255 106 150 255 106 150 255 106 150 255 106 150 255 106 150 255 106 150 255 106 150 255 106 150 255 106 150 255 106 150 255 106 150 255 106 150 255 106 150 255 106 150 255 106 150 255 106 150 255 106 150 255 106 150 255 106 150 255 106 150 255 106 150 255 106 150 255 106 150 255 106 150 255 106 150 255 106 150 255 106 150 255 106 150 255 106 150 255 106 150 255 106 150 255 106 150 255 106 150 255 106 150 255 106 150 255 106 150 255 106 150 255 106 150 255 106 150 255 106 150 255 106 150 255 106 150 255 106 150 255 106 150 255 106 150 255 106 150 255 106 150 255 106 150 255 106 150 255 106 150 255 106 150 255 106 150 255 106 150 255 106 150 255 106 150 255 106 150 255 106 150 255 106 150 255 106 150 255 106 150 255 106 150 255 106 150 255 106 150 255 106 150 255 106 150 255 106 150 255 106 150 255 106 150 255 106 150 255 106 150 255 106 150 255 106 150 255 106 150 255 106 150 255 106 150 255 106 150 255 106 150 255 106 150 255 106 150 255 106 150 255 106 150 255 106 150 255 106 150 255 106 150 255 106 150 255 106 150 255 106 150 255 106 150 255 106 150 255 106 150 255 106 150 255 106 150 255 106 150 255 106 150 255 106 150 255 106 150 255 106 150 255 106 150 255 106 150 255 106 150 255 106 150 255 106 150 255 106 150 255 106 150 255 106 150 255 106 150 255 106 150 255 106 150 255 106 150 255 106 150 255 106 150 255 106 150 255 106 150 255 106 150 255 106 150 255 106 150 255 106 150 255 106 150 255 106 150 255 106 150 255 106 150 255 106 150 255 106 150 255 106 150 255 106 150 255 106 150 255 106 150 255 106 150 255 106 150 255 106 150 255 106 150 255 106 150 255 106 150 255 106 150 255 106 150 255 106 150 255 106 150 255 106 150 255 106 150 255 106 150 255 106 150 255 106 150 255 106 150 255 106 150 255 106 150 255 106 150 255 106 150 255 106 150 255 106 150 255 106 150 255 106 150 255 106 150 255 106 150 255 106 150 255 106 150 255 106 150 255 106 150 255 
106 150 255 106 150 255 106 150 255 106 150 255 106 150 255 106 150 255 106 150 255 106 150 255 106 150 255 106 150 255 106 150 255 106 150 255 106 150 255 106 150 255 106 150 255 106 150 255 106 150 255 106 150 255 106 150 255 106 150 255 106 150 255 106 150 255 106 150 255 106 150 255 106 150 255 106 150 255 106 150 255 106 150 255 106 150 255 106 150 255 106 150 255 106 150 255 106 150 255 106 150 255 106 150 255 106 150 255 106 150 255 106 150 255 106 150 255 106 150 255 106 150 255 106 150 255 106 150 255 106 150 255 106 150 255 106 150 255 106 150 255 106 150 255 106 150 255 106 150 255 106 150 255 106 150 255 106 150 255 106 150 255 106 150 255 106 150 255 106 150 255 106 150 255 106 150 255 106 150 255 106 150 255 106 150 255 106 150 255 106 150 255 106 150 255 106 150 255 106 150 255 106 150 255 106 150 255 106 150 255 106 150 255 106 150 255 106 150 255 106 150 255 106 150 255 106 150 255 106 150 255 106 150 255 106 150 255 106 150 255 106 150 255 106 150 255 106 150 255 106 150 255 106 150 255 106 150 255 106 150 255 106 150 255 106 150 255 106 150 255 106 150 255 106 150 255 106 150 255 106 150 255 106 150 255 106 150 255 106 150 255 106 150 255 106 150 255 106 150 255 106 150 255 106 150 255 106 150 255 106 150 255 106 150 255 106 150 255 106 150 255 106 150 255 106 150 255 106 150 255 106 150 255 106 150 255 106 150 255 106 150 255 106 150 255 106 150 255 106 150 255 106 150 255 106 150 255 106 150 255 106 150 255 106 150 255 106 150 255 106 150 255 106 150 255 106 150 255 106 150 255 106 150 255 106 150 255 106 150 255 106 150 255 106 150 255 106 150 255 106 150 255 106 150 255 106 150 255 106 150 255 106 150 255 106 150 255 106 150 255 106 150 255 106 150 255 106 150 255 106 150 255 106 150 255 106 150 255 106 150 255 106 150 255 106 150 255 106 150 255 106 150 255 106 150 255 106 150 255 106 150 255 106 150 255 106 150 255 106 150 255 106 150 255 106 150 255 106 150 255 106 150 255 106 150 255 106 150 255 106 150 255 106 150 255 106 150 255 106 150 255 106 150 255 106 150 255 106 150 255 106 150 255 106 150 255 106 150 255 106 150 255 106 150 255 106 150 255 106 150 255 106 150 255 106 150 255 106 150 255 106 150 255 106 150 255 106 150 255 106 150 255 106 150 255 106 150 255 106 150 255 106 150 255 106 150 255 106 150 255 106 150 255 106 150 255 106 150 255 106 150 255 106 150 255 106 150 255 106 150 255 106 150 255 106 150 255 106 150 255 106 150 255 106 150 255 106 150 255 106 150 255 106 150 255 106 150 255 106 150 255 106 150 255 106 150 255 106 150 255 106 150 255 106 150 255 106 150 255 106 150 255 106 150 255 106 150 255 106 150 255 106 150 255 106 150 255 106 150 255 106 150 255 106 150 255 106 150 255 106 150 255 106 150 255 106 150 255 106 150 255 106 150 255 106 150 255 106 150 255 106 150 255 106 150 255 106 150 255 106 150 255 106 150 255 106 150 255 106 150 255 106 150 255 106 150 255 106 150 255 106 150 255 106 150 255 106 150 255 106 150 255 106 150 255 106 150 255 106 150 255 106 150 255 106 150 255 106 150 255 106 150 255 106 150 255 106 150 255 106 150 255 106 150 255 106 150 255 
106 150 255 106 150 255 106 150 255 106 150 255 106 150 255 106 150 255 106 150 255 106 150 255 106 150 255 106 150 255 106 150 255 106 150 255 106 150 255 106 150 255 106 150 255 106 150 255 106 150 255 106 150 255 106 150 255 106 150 255 106 150 255 106 150 255 106 150 255 106 150 255 106 150 255 106 150 255 106 150 255 106 150 255 106 150 255 106 150 255 106 150 255 106 150 255 106 150 255 106 150 255 106 150 255 106 150 255 106 150 255 106 150 255 106 150 255 106 150 255 106 150 255 106 150 255 106 150 255 106 150 255 106 150 255 106 150 255 106 150 255 106 150 255 106 150 255 106 150 255 106 150 255 106 150 255 106 150 255 106 150 255 106 150 255 106 150 255 106 150 255 106 150 255 106 150 255 106 150 255 106 150 255 106 150 255 106 150 255 106 150 255 106 150 255 106 150 255 106 150 255 106 150 255 106 150 255 106 150 255 106 150 255 106 150 255 106 150 255 106 150 255 106 150 255 106 150 255 106 150 255 106 150 255 106 150 255 106 150 255 106 150 255 106 150 255 106 150 255 106 150 255 106 150 255 106 150 255 106 150 255 106 150 255 106 150 255 106 150 255 106 150 255 106 150 255 106 150 255 106 150 255 106 150 255 106 150 255 106 150 255 106 150 255 106 150 255 106 150 255 106 150 255 106 150 255 106 150 255 106 150 255 106 150 255 106 150 255 106 150 255 106 150 255 106 150 255 106 150 255 106 150 255 106 150 255 106 150 255 106 150 255 106 150 255 106 150 255 106 150 255 106 150 255 106 150 255 106 150 255 106 150 255 106 150 255 106 150 255 106 150 255 106 150 255 106 150 255 106 150 255 106 150 255 106 150 255 106 150 255 106 150 255 106 150 255 106 150 255 106 150 255 106 150 255 106 150 255 106 150 255 106 150 255 106 150 255 106 150 255 106 150 255 106 150 255 106 150 255 106 150 255 106 150 255 106 150 255 106 150 255 106 150 255 106 150 255 106 150 255 106 150 255 106 150 255 106 150 255 106 150 255 106 150 255 106 150 255 106 150 255 106 150 255 106 150 255 106 150 255 106 150 255 106 150 255 106 150 255 106 150 255 106 150 255 106 150 255 106 150 255 106 150 255 106 150 255 106 150 255 106 150 255 106 150 255 106 150 255 106 150 255 106 150 255 106 150 255 106 150 255 106 150 255 106 150 255 106 150 255 106 150 255 106 150 255 106 150 255 106 150 255 106 150 255 106 150 255 106 150 255 106 150 255 106 150 255 106 150 255 106 150 255 106 150 255 106 150 255 106 150 255 106 150 255 106 150 255 106 150 255 106 150 255 106 150 255 106 150 255 106 150 255 106 150 255 106 150 255 106 150 255 106 150 255 106 150 255 106 150 255 106 150 255 106 150 255 106 150 255 106 150 255 106 150 255 106 150 255 106 150 255 106 150 255 106 150 255 106 150 255 106 150 255 106 150 255 106 150 255 106 150 255 106 150 255 106 150 255 106 150 255 106 150 255 106 150 255 106 150 255 106 150 255 106 150 255 106 150 255 106 150 255 106 150 255 106 150 255 106 150 255 106 150 255 106 150 255 106 150 255 106 150 255 106 150 255 106 150 255 106 150 255 106 150 255 106 150 255 106 150 255 106 150 255 106 150 255 106 150 255 106 150 255 106 150 255 106 150 255 106 150 255 106 150 255 106 150 255 106 150 255 106 150 255 106 150 255 
106 150 255 106 150 255 106 150 255 106 150 255 106 150 255 106 150 255 106 150 255 106 150 255 106 150 255 106 150 255 106 150 255 106 150 255 106 150 255 106 150 255 106 150 255 106 150 255 106 150 255 106 150 255 106 150 255 106 150 255 106 150 255 106 150 255 106 150 255 106 150 255 106 150 255 106 150 255 106 150 255 106 150 255 106 150 255 106 150 255 106 150 255 106 150 255 106 150 255 106 150 255 106 150 255 106 150 255 106 150 255 106 150 255 106 150 255 106 150 255 106 150 255 106 150 255 106 150 255 106 150 255 106 150 255 106 150 255 106 150 255 106 150 255 106 150 255 106 150 255 106 150 255 106 150 255 106 150 255 106 150 255 106 150 255 106 150 255 106 150 255 106 150 255 106 150 255 106 150 255 106 150 255 106 150 255 106 150 255 106 150 255 106 150 255 106 150 255 106 150 255 106 150 255 106 150 255 106 150 255 106 150 255 106 150 255 106 150 255 106 150 255 106 150 255 106 150 255 106 150 255 106 150 255 106 150 255 106 150 255 106 150 255 106 150 255 106 150 255 106 150 255 106 150 255 106 150 255 106 150 255 106 150 255 106 150 255 106 150 255 106 150 255 106 150 255 106 150 255 106 150 255 106 150 255 106 150 255 106 150 255 106 150 255 106 150 255 106 150 255 106 150 255 106 150 255 106 150 255 106 150 255 106 150 255 106 150 255 106 150 255 106 150 255 106 150 255 106 150 255 106 150 255 106 150 255 106 150 255 106 150 255 106 150 255 106 150 255 106 150 255 106 150 255 106 150 255 106 150 255 106 150 255 106 150 255 106 150 255 106 150 255 106 150 255 106 150 255 106 150 255 106 150 255 106 150 255 106 150 255 106 150 255 106 150 255 106 150 255 106 150 255 106 150 255 106 150 255 106 150 255 106 150 255 106 150 255 106 150 255 106 150 255 106 150 255 106 150 255 106 150 255 106 150 255 106 150 255 106 150 255 106 150 255 106 150 255 106 150 255 106 150 255 106 150 255 106 150 255 106 150 255 106 150 255 106 150 255 106 150 255 106 150 255 106 150 255 106 150 255 106 150 255 106 150 255 106 150 255 106 150 255 106 150 255 106 150 255 106 150 255 106 150 255 106 150 255 106 150 255 106 150 255 106 150 255 106 150 255 106 150 255 106 150 255 106 150 255 106 150 255 106 150 255 106 150 255 106 150 255 106 150 255 106 150 255 106 150 255 106 150 255 106 150 255 106 150 255 106 150 255 106 150 255 106 150 255 106 150 255 106 150 255 106 150 255 106 150 255 106 150 255 106 150 255 106 150 255 106 150 255 106 150 255 106 150 255 106 150 255 106 150 255 106 150 255 106 150 255 106 150 255 106 150 255 106 150 255 106 150 255 106 150 255 106 150 255 106 150 255 106 150 255 106 150 255 106 150 255 106 150 255 106 150 255 106 150 255 106 150 255 106 150 255 106 150 255 106 150 255 106 150 255 106 150 255 106 150 255 106 150 255 106 150 255 106 150 255 106 150 255 106 150 255 106 150 255 106 150 255 106 150 255 106 150 255 106 150 255 106 150 255 106 150 255 106 150 255 106 150 255 106 150 255 106 150 255 106 150 255 106 150 255 106 150 255 106 150 255 106 150 255 106 150 255 106 150 255 106 150 255 106 150 255 106 150 255 106 150 255 106 150 255 106 150 255 106 150 255 106 150 255 106 150 255 106 150 255 
106 150 255 106 150 255 106 150 255 106 150 255 106 150 255 106 150 255 106 150 255 106 150 255 106 150 255 106 150 255 106 150 255 106 150 255 106 150 255 106 150 255 106 150 255 106 150 255 106 150 255 106 150 255 106 150 255 106 150 255 106 150 255 106 150 255 106 150 255 106 150 255 106 150 255 106 150 255 106 150 255 106 150 255 106 150 255 106 150 255 106 150 255 106 150 255 106 150 255 106 150 255 106 150 255 106 150 255 106 150 255 106 150 255 106 150 255 106 150 255 106 150 255 106 150 255 106 150 255 106 150 255 106 150 255 106 150 255 106 150 255 106 150 255 106 150 255 106 150 255 106 150 255 106 150 255 106 150 255 106 150 255 106 150 255 106 150 255 106 150 255 106 150 255 106 150 255 106 150 255 106 150 255 106 150 255 106 150 255 106 150 255 106 150 255 106 150 255 106 150 255 106 150 255 106 150 255 106 150 255 106 150 255 106 150 255 106 150 255 106 150 255 106 150 255 106 150 255 106 150 255 106 150 255 106 150 255 106 150 255 106 150 255 106 150 255 106 150 255 106 150 255 106 150 255 106 150 255 106 150 255 106 150 255 106 150 255 106 150 255 106 150 255 106 150 255 106 150 255 106 150 255 106 150 255 106 150 255 106 150 255 106 150 255 106 150 255 106 150 255 106 150 255 106 150 255 106 150 255 106 150 255 106 150 255 106 150 255 106 150 255 106 150 255 106 150 255 106 150 255 106 150 255 106 150 255 106 150 255 106 150 255 106 150 255 106 150 255 106 150 255 106 150 255 106 150 255 106 150 255 106 150 255 106 150 255 106 150 255 106 150 255 106 150 255 106 150 255 106 150 255 106 150 255 106 150 255 106 150 255 106 150 255 106 150 255 106 150 255 106 150 255 106 150 255 106 150 255 106 150 255 106 150 255 106 150 255 106 150 255 106 150 255 106 150 255 106 150 255 106 150 255 106 150 255 106 150 255 106 150 255 106 150 255 106 150 255 106 150 255 106 150 255 106 150 255 106 150 255 106 150 255 106 150 255 106 150 255 106 150 255 106 150 255 106 150 255 106 150 255 106 150 255 106 150 255 106 150 255 106 150 255 106 150 255 106 150 255 106 150 255 106 150 255 106 150 255 106 150 255 106 150 255 106 150 255 106 150 255 106 150 255 106 150 255 106 150 255 106 150 255 106 150 255 106 150 255 106 150 255 106 150 255 106 150 255 106 150 255 106 150 255 106 150 255 106 150 255 106 150 255 106 150 255 106 150 255 106 150 255 106 150 255 106 150 255 106 150 255 106 150 255 106 150 255 106 150 255 106 150 255 106 150 255 106 150 255 106 150 255 106 150 255 106 150 255 106 150 255 106 150 255 106 150 255 106 150 255 106 150 255 106 150 255 106 150 255 106 150 255 106 150 255 106 150 255 106 150 255 106 150 255 106 150 255 106 150 255 106 150 255 106 150 255 106 150 255 106 150 255 106 150 255 106 150 255 106 150 255 106 150 255 106 150 255 106 150 255 106 150 255 106 150 255 106 150 255 106 150 255 106 150 255 106 150 255 106 150 255 106 150 255 106 150 255 106 150 255 106 150 255 106 150 255 106 150 255 106 150 255 106 150 255 106 150 255 106 150 255 106 150 255 106 150 255 106 150 255 106 150 255 106 150 255 106 150 255 106 150 255 106 150 255 106 150 255 106 150 255 106 150 255 106 150 255 106 150 255 
106 150 255 106 150 255 106 150 255 106 150 255 106 150 255 106 150 255 106 150 255 106 150 255 106 150 255 106 150 255 106 150 255 106 150 255 106 150 255 106 150 255 106 150 255 106 150 255 106 150 255 106 150 255 106 150 255 106 150 255 106 150 255 106 150 255 106 150 255 106 150 255 106 150 255 106 150 255 106 150 255 106 150 255 106 150 255 106 150 255 106 150 255 106 150 255 106 150 255 106 150 255 106 150 255 106 150 255 106 150 255 106 150 255 106 150 255 106 150 255 106 150 255 106 150 255 106 150 255 106 150 255 106 150 255 106 150 255 106 150 255 106 150 255 106 150 255 106 150 255 106 150 255 106 150 255 106 150 255 106 150 255 106 150 255 106 150 255 106 150 255 106 150 255 106 150 255 106 150 255 106 150 255 106 150 255 106 150 255 106 150 255 106 150 255 106 150 255 106 150 255 106 150 255 106 150 255 106 150 255 106 150 255 106 150 255 106 150 255 106 150 255 106 150 255 106 150 255 106 150 255 106 150 255 106 150 255 106 150 255 106 150 255 106 150 255 106 150 255 106 150 255 106 150 255 106 150 255 106 150 255 106 150 255 106 150 255 106 150 255 106 150 255 106 150 255 106 150 255 106 150 255 106 150 255 106 150 255 106 150 255 106 150 255 106 150 255 106 150 255 106 150 255 106 150 255 106 150 255 106 150 255 106 150 255 106 150 255 106 150 255 106 150 255 106 150 255 106 150 255 106 150 255 106 150 255 106 150 255 106 150 255 106 150 255 106 150 255 106 150 255 106 150 255 106 150 255 106 150 255 106 150 255 106 150 255 106 150 255 106 150 255 106 150 255 106 150 255 106 150 255 106 150 255 106 150 255 106 150 255 106 150 255 106 150 255 106 150 255 106 150 255 106 150 255 106 150 255 106 150 255 106 150 255 106 150 255 106 150 255 106 150 255 106 150 255 106 150 255 106 150 255 106 150 255 106 150 255 106 150 255 106 150 255 106 150 255 106 150 255 106 150 255 106 150 255 106 150 255 106 150 255 106 150 255 106 150 255 106 150 255 106 150 255 106 150 255 106 150 255 106 150 255 106 150 255 106 150 255 106 150 255 106 150 255 106 150 255 106 150 255 106 150 255 106 150 255 106 150 255 106 150 255 106 150 255 106 150 255 106 150 255 106 150 255 106 150 255 106 150 255 106 150 255 106 150 255 106 150 255 106 150 255 106 150 255 106 150 255 106 150 255 106 150 255 106 150 255 106 150 255 106 150 255 106 150 255 106 150 255 106 150 255 106 150 255 106 150 255 106 150 255 106 150 255 106 150 255 106 150 255 106 150 255 106 150 255 106 150 255 106 150 255 106 150 255 106 150 255 106 150 255 106 150 255 106 150 255 106 150 255 106 150 255 106 150 255 106 150 255 106 150 255 106 150 255 106 150 255 106 150 255 106 150 255 106 150 255 106 150 255 106 150 255 106 150 255 106 150 255 106 150 255 106 150 255 106 150 255 106 150 255 106 150 255 106 150 255 106 150 255 106 150 255 106 150 255 106 150 255 106 150 255 106 150 255 106 150 255 106 150 255 106 150 255 106 150 255 106 150 255 106 150 255 106 150 255 106 150 255 106 150 255 106 150 255 106 150 255 106 150 255 106 150 255 106 150 255 106 150 255 106 150 255 106 150 255 106 150 255 106 150 255 106 150 255 106 150 255 106 150 255 106 150 255 106 150 255 
106 150 255 106 150 255 106 150 255 106 150 255 106 150 255 106 150 255 106 150 255 106 150 255 106 150 255 106 150 255 106 150 255 106 150 255 106 150 255 106 150 255 106 150 255 106 150 255 106 150 255 106 150 255 106 150 255 106 150 255 106 150 255 106 150 255 106 150 255 106 150 255 106 150 255 106 150 255 106 150 255 106 150 255 106 150 255 106 150 255 106 150 255 106 150 255 106 150 255 106 150 255 106 150 255 106 150 255 106 150 255 106 150 255 106 150 255 106 150 255 106 150 255 106 150 255 106 150 255 106 150 255 106 150 255 106 150 255 106 150 255 106 150 255 106 150 255 106 150 255 106 150 255 106 150 255 106 150 255 106 150 255 106 150 255 106 150 255 106 150 255 106 150 255 106 150 255 106 150 255 106 150 255 106 150 255 106 150 255 106 150 255 106 150 255 106 150 255 106 150 255 106 150 255 106 150 255 106 150 255 106 150 255 106 150 255 106 150 255 106 150 255 106 150 255 106 150 255 106 150 255 106 150 255 106 150 255 106 150 255 106 150 255 106 150 255 106 150 255 106 150 255 106 150 255 106 150 255 106 150 255 106 150 255 106 150 255 106 150 255 106 150 255 106 150 255 106 150 255 106 150 255 106 150 255 106 150 255 106 150 255 106 150 255 106 150 255 106 150 255 106 150 255 106 150 255 106 150 255 106 150 255 106 150 255 106 150 255 106 150 255 106 150 255 106 150 255 106 150 255 106 150 255 106 150 255 106 150 255 106 150 255 106 150 255 106 150 255 106 150 255 106 150 255 106 150 255 106 150 255 106 150 255 106 150 255 106 150 255 106 150 255 106 150 255 106 150 255 106 150 255 106 150 255 106 150 255 106 150 255 106 150 255 106 150 255 106 150 255 106 150 255 106 150 255 106 150 255 106 150 255 106 150 255 106 150 255 106 150 255 106 150 255 106 150 255 106 150 255 106 150 255 106 150 255 106 150 255 106 150 255 106 150 255 106 150 255 106 150 255 106 150 255 106 150 255 106 150 255 106 150 255 106 150 255 106 150 255 106 150 255 106 150 255 106 150 255 106 150 255 106 150 255 106 150 255 106 150 255 106 150 255 106 150 255 106 150 255 106 150 255 106 150 255 106 150 255 106 150 255 106 150 255 106 150 255 106 150 255 106 150 255 106 150 255 106 150 255 106 150 255 106 150 255 106 150 255 106 150 255 106 150 255 106 150 255 106 150 255 106 150 255 106 150 255 106 150 255 106 150 255 106 150 255 106 150 255 106 150 255 106 150 255 106 150 255 106 150 255 106 150 255 106 150 255 106 150 255 106 150 255 106 150 255 106 150 255 106 150 255 106 150 255 106 150 255 106 150 255 106 150 255 106 150 255 106 150 255 106 150 255 106 150 255 106 150 255 106 150 255 106 150 255 106 150 255 106 150 255 106 150 255 106 150 255 106 150 255 106 150 255 106 150 255 106 150 255 106 150 255 106 150 255 106 150 255 106 150 255 106 150 255 106 150 255 106 150 255 106 150 255 106 150 255 106 150 255 106 150 255 106 150 255 106 150 255 106 150 255 106 150 255 106 150 255 106 150 255 106 150 255 106 150 255 106 150 255 106 150 255 106 150 255 106 150 255 106 150 255 106 150 255 106 150 255 106 150 255 106 150 255 106 150 255 106 150 255 106 150 255 106 150 255 106 150 255 106 150 255 106 150 255 106 150 255 106 150 255 
106 150 255 106 150 255 106 150 255 106 150 255 106 150 255 106 150 255 106 150 255 106 150 255 106 150 255 106 150 255 106 150 255 106 150 255 106 150 255 106 150 255 106 150 255 106 150 255 106 150 255 106 150 255 106 150 255 106 150 255 106 150 255 106 150 255 106 150 255 106 150 255 106 150 255 106 150 255 106 150 255 106 150 255 106 150 255 106 150 255 106 150 255 106 150 255 106 150 255 106 150 255 106 150 255 106 150 255 106 150 255 106 150 255 106 150 255 106 150 255 106 150 255 106 150 255 106 150 255 106 150 255 106 150 255 106 150 255 106 150 255 106 150 255 106 150 255 106 150 255 106 150 255 106 150 255 106 150 255 106 150 255 106 150 255 106 150 255 106 150 255 106 150 255 106 150 255 106 150 255 106 150 255 106 150 255 106 150 255 106 150 255 106 150 255 106 150 255 106 150 255 106 150 255 106 150 255 106 150 255 106 150 255 106 150 255 106 150 255 106 150 255 106 150 255 106 150 255 106 150 255 106 150 255 106 150 255 106 150 255 106 150 255 106 150 255 106 150 255 106 150 255 106 150 255 106 150 255 106 150 255 106 150 255 106 150 255 106 150 255 106 150 255 106 150 255 106 150 255 106 150 255 106 150 255 106 150 255 106 150 255 106 150 255 106 150 255 106 150 255 106 150 255 106 150 255 106 150 255 106 150 255 106 150 255 106 150 255 106 150 255 106 150 255 106 150 255 106 150 255 106 150 255 106 150 255 106 150 255 106 150 255 106 150 255 106 150 255 106 150 255 106 150 255 106 150 255 106 150 255 106 150 255 106 150 255 106 150 255 106 150 255 106 150 255 106 150 255 106 150 255 106 150 255 106 150 255 106 150 255 106 150 255 106 150 255 106 150 255 106 150 255 106 150 255 106 150 255 106 150 255 106 150 255 106 150 255 106 150 255 106 150 255 106 150 255 106 150 255 106 150 255 106 150 255 106 150 255 106 150 255 106 150 255 106 150 255 106 150 255 106 150 255 106 150 255 106 150 255 106 150 255 106 150 255 106 150 255 106 150 255 106 150 255 106 150 255 106 150 255 106 150 255 106 150 255 106 150 255 106 150 255 106 150 255 106 150 255 106 150 255 106 150 255 106 150 255 106 150 255 106 150 255 106 150 255 106 150 255 106 150 255 106 150 255 106 150 255 106 150 255 106 150 255 106 150 255 106 150 255 106 150 255 106 150 255 106 150 255 106 150 255 106 150 255 106 150 255 106 150 255 106 150 255 106 150 255 106 150 255 106 150 255 106 150 255 106 150 255 106 150 255 106 150 255 106 150 255 106 150 255 106 150 255 106 150 255 106 150 255 106 150 255 106 150 255 106 150 255 106 150 255 106 150 255 106 150 255 106 150 255 106 150 255 106 150 255 106 150 255 106 150 255 106 150 255 106 150 255 106 150 255 106 150 255 106 150 255 106 150 255 106 150 255 106 150 255 106 150 255 106 150 255 106 150 255 106 150 255 106 150 255 106 150 255 106 150 255 106 150 255 106 150 255 106 150 255 106 150 255 106 150 255 106 150 255 106 150 255 106 150 255 106 150 255 106 150 255 106 150 255 106 150 255 106 150 255 106 150 255 106 150 255 106 150 255 106 150 255 106 150 255 106 150 255 106 150 255 106 150 255 106 150 255 106 150 255 106 150 255 106 150 255 106 150 255 106 150 255 106 150 255 106 150 255 106 150 255 
106 150 255 106 150 255 106 150 255 106 150 255 106 150 255 106 150 255 106 150 255 106 150 255 106 150 255 106 150 255 106 150 255 106 150 255 106 150 255 106 150 255 106 150 255 106 150 255 106 150 255 106 150 255 106 150 255 106 150 255 106 150 255 106 150 255 106 150 255 106 150 255 106 150 255 106 150 255 106 150 255 106 150 255 106 150 255 106 150 255 106 150 255 106 150 255 106 150 255 106 150 255 106 150 255 106 150 255 106 150 255 106 150 255 106 150 255 106 150 255 106 150 255 106 150 255 106 150 255 106 150 255 106 150 255 106 150 255 106 150 255 106 150 255 106 150 255 106 150 255 106 150 255 106 150 255 106 150 255 106 150 255 106 150 255 106 150 255 106 150 255 106 150 255 106 150 255 106 150 255 106 150 255 106 150 255 106 150 255 106 150 255 106 150 255 106 150 255 106 150 255 106 150 255 106 150 255 106 150 255 106 150 255 106 150 255 106 150 255 106 150 255 106 150 255 106 150 255 106 150 255 106 150 255 106 150 255 106 150 255 106 150 255 106 150 255 106 150 255 106 150 255 106 150 255 106 150 255 106 150 255 106 150 255 106 150 255 106 150 255 106 150 255 106 150 255 106 150 255 106 150 255 106 150 255 106 150 255 106 150 255 106 150 255 106 150 255 106 150 255 106 150 255 106 150 255 106 150 255 106 150 255 106 150 255 106 150 255 106 150 255 106 150 255 106 150 255 106 150 255 106 150 255 106 150 255 106 150 255 106 150 255 106 150 255 106 150 255 106 150 255 106 150 255 106 150 255 106 150 255 106 150 255 106 150 255 106 150 255 106 150 255 106 150 255 106 150 255 106 150 255 106 150 255 106 150 255 106 150 255 106 150 255 106 150 255 106 150 255 106 150 255 106 150 255 106 150 255 106 150 255 106 150 255 106 150 255 106 150 255 106 150 255 106 150 255 106 150 255 106 150 255 106 150 255 106 150 255 106 150 255 106 150 255 106 150 255 106 150 255 106 150 255 106 150 255 106 150 255 106 150 255 106 150 255 106 150 255 106 150 255 106 150 255 106 150 255 106 150 255 106 150 255 106 150 255 106 150 255 106 150 255 106 150 255 106 150 255 106 150 255 106 150 255 106 150 255 106 150 255 106 150 255 106 150 255 106 150 255 106 150 255 106 150 255 106 150 255 106 150 255 106 150 255 106 150 255 106 150 255 106 150 255 106 150 255 106 150 255 106 150 255 106 150 255 106 150 255 106 150 255 106 150 255 106 150 255 106 150 255 106 150 255 106 150 255 106 150 255 106 150 255 106 150 255 106 150 255 106 150 255 106 150 255 106 150 255 106 150 255 106 150 255 106 150 255 106 150 255 106 150 255 106 150 255 106 150 255 106 150 255 106 150 255 106 150 255 106 150 255 106 150 255 106 150 255 106 150 255 106 150 255 106 150 255 106 150 255 106 150 255 106 150 255 106 150 255 106 150 255 106 150 255 106 150 255 106 150 255 106 150 255 106 150 255 106 150 255 106 150 255 106 150 255 106 150 255 106 150 255 106 150 255 106 150 255 106 150 255 106 150 255 106 150 255 106 150 255 106 150 255 106 150 255 106 150 255 106 150 255 106 150 255 106 150 255 106 150 255 106 150 255 106 150 255 106 150 255 106 150 255 106 150 255 106 150 255 106 150 255 106 150 255 106 150 255 106 150 255 106 150 255 106 150 255 106 150 255 
106 150 255 106 150 255 106 150 255 106 150 255 106 150 255 106 150 255 106 150 255 106 150 255 106 150 255 106 150 255 106 150 255 106 150 255 106 150 255 106 150 255 106 150 255 106 150 255 106 150 255 106 150 255 106 150 255 106 150 255 106 150 255 106 150 255 106 150 255 106 150 255 106 150 255 106 150 255 106 150 255 106 150 255 106 150 255 106 150 255 106 150 255 106 150 255 106 150 255 106 150 255 106 150 255 106 150 255 106 150 255 106 150 255 106 150 255 106 150 255 106 150 255 106 150 255 106 150 255 106 150 255 106 150 255 106 150 255 106 150 255 106 150 255 106 150 255 106 150 255 106 150 255 106 150 255 106 150 255 106 150 255 106 150 255 106 150 255 106 150 255 106 150 255 106 150 255 106 150 255 106 150 255 106 150 255 106 150 255 106 150 255 106 150 255 106 150 255 106 150 255 106 150 255 106 150 255 106 150 255 106 150 255 106 150 255 106 150 255 106 150 255 106 150 255 106 150 255 106 150 255 106 150 255 106 150 255 106 150 255 106 150 255 106 150 255 106 150 255 106 150 255 106 150 255 106 150 255 106 150 255 106 150 255 106 150 255 106 150 255 106 150 255 106 150 255 106 150 255 106 150 255 106 150 255 106 150 255 106 150 255 106 150 255 106 150 255 106 150 255 106 150 255 106 150 255 106 150 255 106 150 255 106 150 255 106 150 255 106 150 255 106 150 255 106 150 255 106 150 255 106 150 255 106 150 255 106 150 255 106 150 255 106 150 255 106 150 255 106 150 255 106 150 255 106 150 255 106 150 255 106 150 255 106 150 255 106 150 255 106 150 255 106 150 255 106 150 255 106 150 255 106 150 255 106 150 255 106 150 255 106 150 255 106 150 255 106 150 255 106 150 255 106 150 255 106 150 255 106 150 255 106 150 255 106 150 255 106 150 255 106 150 255 106 150 255 106 150 255 106 150 255 106 150 255 106 150 255 106 150 255 106 150 255 106 150 255 106 150 255 106 150 255 106 150 255 106 150 255 106 150 255 106 150 255 106 150 255 106 150 255 106 150 255 106 150 255 106 150 255 106 150 255 106 150 255 106 150 255 106 150 255 106 150 255 106 150 255 106 150 255 106 150 255 106 150 255 106 150 255 106 150 255 106 150 255 106 150 255 106 150 255 106 150 255 106 150 255 106 150 255 106 150 255 106 150 255 106 150 255 106 150 255 106 150 255 106 150 255 106 150 255 106 150 255 106 150 255 106 150 255 106 150 255 106 150 255 106 150 255 106 150 255 106 150 255 106 150 255 106 150 255 106 150 255 106 150 255 106 150 255 106 150 255 106 150 255 106 150 255 106 150 255 106 150 255 106 150 255 106 150 255 106 150 255 106 150 255 106 150 255 106 150 255 106 150 255 106 150 255 106 150 255 106 150 255 106 150 255 106 150 255 106 150 255 106 150 255 106 150 255 106 150 255 106 150 255 106 150 255 106 150 255 106 150 255 106 150 255 106 150 255 106 150 255 106 150 255 106 150 255 106 150 255 106 150 255 106 150 255 106 150 255 106 150 255 106 150 255 106 150 255 106 150 255 106 150 255 106 150 255 106 150 255 106 150 255 106 150 255 106 150 255 106 150 255 106 150 255 106 150 255 106 150 255 106 150 255 106 150 255 106 150 255 106 150 255 106 150 255 106 150 255 106 150 255 106 150 255 106 150 255 106 150 255 106 150 255 
106 150 255 106 150 255 106 150 255 106 150 255 106 150 255 106 150 255 106 150 255 106 150 255 106 150 255 106 150 255 106 150 255 106 150 255 106 150 255 106 150 255 106 150 255 106 150 255 106 150 255 106 150 255 106 150 255 106 150 255 106 150 255 106 150 255 106 150 255 106 150 255 106 150 255 106 150 255 106 150 255 106 150 255 106 150 255 106 150 255 106 150 255 106 150 255 106 150 255 106 150 255 106 150 255 106 150 255 106 150 255 106 150 255 106 150 255 106 150 255 106 150 255 106 150 255 106 150 255 106 150 255 106 150 255 106 150 255 106 150 255 106 150 255 106 150 255 106 150 255 106 150 255 106 150 255 106 150 255 106 150 255 106 150 255 106 150 255 106 150 255 106 150 255 106 150 255 106 150 255 106 150 255 106 150 255 106 150 255 106 150 255 106 150 255 106 150 255 106 150 255 106 150 255 106 150 255 106 150 255 106 150 255 106 150 255 106 150 255 106 150 255 106 150 255 106 150 255 106 150 255 106 150 255 106 150 255 106 150 255 106 150 255 106 150 255 106 150 255 106 150 255 106 150 255 106 150 255 106 150 255 106 150 255 106 150 255 106 150 255 106 150 255 106 150 255 106 150 255 106 150 255 106 150 255 106 150 255 106 150 255 106 150 255 106 150 255 106 150 255 106 150 255 106 150 255 106 150 255 106 150 255 106 150 255 106 150 255 106 150 255 106 150 255 106 150 255 106 150 255 106 150 255 106 150 255 106 150 255 106 150 255 106 150 255 106 150 255 106 150 255 106 150 255 106 150 255 106 150 255 106 150 255 106 150 255 106 150 255 106 150 255 106 150 255 106 150 255 106 150 255 106 150 255 106 150 255 106 150 255 106 150 255 106 150 255 106 150 255 106 150 255 106 150 255 106 150 255 106 150 255 106 150 255 106 150 255 106 150 255 106 150 255 106 150 255 106 150 255 106 150 255 106 150 255 106 150 255 106 150 255 106 150 255 106 150 255 106 150 255 106 150 255 106 150 255 106 150 255 106 150 255 106 150 255 106 150 255 106 150 255 106 150 255 106 150 255 106 150 255 106 150 255 106 150 255 106 150 255 106 150 255 106 150 255 106 150 255 106 150 255 106 150 255 106 150 255 106 150 255 106 150 255 106 150 255 106 150 255 106 150 255 106 150 255 106 150 255 106 150 255 106 150 255 106 150 255 106 150 255 106 150 255 106 150 255 106 150 255 106 150 255 106 150 255 106 150 255 106 150 255 106 150 255 106 150 255 106 150 255 106 150 255 106 150 255 106 150 255 106 150 255 106 150 255 106 150 255 106 150 255 106 150 255 106 150 255 106 150 255 106 150 255 106 150 255 106 150 255 106 150 255 106 150 255 106 150 255 106 150 255 106 150 255 106 150 255 106 150 255 106 150 255 106 150 255 106 150 255 106 150 255 106 150 255 106 150 255 106 150 255 106 150 255 106 150 255 106 150 255 106 150 255 106 150 255 106 150 255 106 150 255 106 150 255 106 150 255 106 150 255 106 150 255 106 150 255 106 150 255 106 150 255 106 150 255 106 150 255 106 150 255 106 150 255 106 150 255 106 150 255 106 150 255 106 150 255 106 150 255 106 150 255 106 150 255 106 150 255 106 150 255 106 150 255 106 150 255 106 150 255 106 150 255 106 150 255 106 150 255 106 150 255 106 150 255 106 150 255 106 150 255 106 150 255 106 150 255 
106 150 255 106 150 255 106 150 255 106 150 255 106 150 255 106 150 255 106 150 255 106 150 255 106 150 255 106 150 255 106 150 255 106 150 255 106 150 255 106 150 255 106 150 255 106 150 255 106 150 255 106 150 255 106 150 255 106 150 255 106 150 255 106 150 255 106 150 255 106 150 255 106 150 255 106 150 255 106 150 255 106 150 255 106 150 255 106 150 255 106 150 255 106 150 255 106 150 255 106 150 255 106 150 255 106 150 255 106 150 255 106 150 255 106 150 255 106 150 255 106 150 255 106 150 255 106 150 255 106 150 255 106 150 255 106 150 255 106 150 255 106 150 255 106 150 255 106 150 255 106 150 255 106 150 255 106 150 255 106 150 255 106 150 255 106 150 255 106 150 255 106 150 255 106 150 255 106 150 255 106 150 255 106 150 255 106 150 255 106 150 255 106 150 255 106 150 255 106 150 255 106 150 255 106 150 255 106 150 255 106 150 255 106 150 255 106 150 255 106 150 255 106 150 255 106 150 255 106 150 255 106 150 255 106 150 255 106 150 255 106 150 255 106 150 255 106 150 255 106 150 255 106 150 255 106 150 255 106 150 255 106 150 255 106 150 255 106 150 255 106 150 255 106 150 255 106 150 255 106 150 255 106 150 255 106 150 255 106 150 255 106 150 255 106 150 255 106 150 255 106 150 255 106 150 255 106 150 255 106 150 255 106 150 255 106 150 255 106 150 255 106 150 255 106 150 255 106 150 255 106 150 255 106 150 255 106 150 255 106 150 255 106 150 255 106 150 255 106 150 255 106 150 255 106 150 255 106 150 255 106 150 255 106 150 255 106 150 255 106 150 255 106 150 255 106 150 255 106 150 255 106 150 255 106 150 255 106 150 255 106 150 255 106 150 255 106 150 255 106 150 255 106 150 255 106 150 255 106 150 255 106 150 255 106 150 255 106 150 255 106 150 255 106 150 255 106 150 255 106 150 255 106 150 255 106 150 255 106 150 255 106 150 255 106 150 255 106 150 255 106 150 255 106 150 255 106 150 255 106 150 255 106 150 255 106 150 255 106 150 255 106 150 255 106 150 255 106 150 255 106 150 255 106 150 255 106 150 255 106 150 255 106 150 255 106 150 255 106 150 255 106 150 255 106 150 255 106 150 255 106 150 255 106 150 255 106 150 255 106 150 255 106 150 255 106 150 255 106 150 255 106 150 255 106 150 255 106 150 255 106 150 255 106 150 255 106 150 255 106 150 255 106 150 255 106 150 255 106 150 255 106 150 255 106 150 255 106 150 255 106 150 255 106 150 255 106 150 255 106 150 255 106 150 255 106 150 255 106 150 255 106 150 255 106 150 255 106 150 255 106 150 255 106 150 255 106 150 255 106 150 255 106 150 255 106 150 255 106 150 255 106 150 255 106 150 255 106 150 255 106 150 255 106 150 255 106 150 255 106 150 255 106 150 255 106 150 255 106 150 255 106 150 255 106 150 255 106 150 255 106 150 255 106 150 255 106 150 255 106 150 255 106 150 255 106 150 255 106 150 255 106 150 255 106 150 255 106 150 255 106 150 255 106 150 255 106 150 255 106 150 255 106 150 255 106 150 255 106 150 255 106 150 255 106 150 255 106 150 255 106 150 255 106 150 255 106 150 255 106 150 255 106 150 255 106 150 255 106 150 255 106 150 255 106 150 255 106 150 255 106 150 255 106 150 255 106 150 255 106 150 255 106 150 255 106 150 255 
106 150 255 106 150 255 106 150 255 106 150 255 106 150 255 106 150 255 106 150 255 106 150 255 106 150 255 106 150 255 106 150 255 106 150 255 106 150 255 106 150 255 106 150 255 106 150 255 106 150 255 106 150 255 106 150 255 106 150 255 106 150 255 106 150 255 106 150 255 106 150 255 106 150 255 106 150 255 106 150 255 106 150 255 106 150 255 106 150 255 106 150 255 106 150 255 106 150 255 106 150 255 106 150 255 106 150 255 106 150 255 106 150 255 106 150 255 106 150 255 106 150 255 106 150 255 106 150 255 106 150 255 106 150 255 106 150 255 106 150 255 106 150 255 106 150 255 106 150 255 106 150 255 106 150 255 106 150 255 106 150 255 106 150 255 106 150 255 106 150 255 106 150 255 106 150 255 106 150 255 106 150 255 106 150 255 106 150 255 106 150 255 106 150 255 106 150 255 106 150 255 106 150 255 106 150 255 106 150 255 106 150 255 106 150 255 106 150 255 106 150 255 106 150 255 106 150 255 106 150 255 106 150 255 106 150 255 106 150 255 106 150 255 106 150 255 106 150 255 106 150 255 106 150 255 106 150 255 106 150 255 106 150 255 106 150 255 106 150 255 106 150 255 106 150 255 106 150 255 106 150 255 106 150 255 106 150 255 106 150 255 106 150 255 106 150 255 106 150 255 106 150 255 106 150 255 106 150 255 106 150 255 106 150 255 106 150 255 106 150 255 106 150 255 106 150 255 106 150 255 106 150 255 106 150 255 106 150 255 106 150 255 106 150 255 106 150 255 106 150 255 106 150 255 106 150 255 106 150 255 106 150 255 106 150 255 106 150 255 106 150 255 106 150 255 106 150 255 106 150 255 106 150 255 106 150 255 106 150 255 106 150 255 106 150 255 106 150 255 106 150 255 106 150 255 106 150 255 106 150 255 106 150 255 106 150 255 106 150 255 106 150 255 106 150 255 106 150 255 106 150 255 106 150 255 106 150 255 106 150 255 106 150 255 106 150 255 106 150 255 106 150 255 106 150 255 106 150 255 106 150 255 106 150 255 106 150 255 106 150 255 106 150 255 106 150 255 106 150 255 106 150 255 106 150 255 106 150 255 106 150 255 106 150 255 106 150 255 106 150 255 106 150 255 106 150 255 106 150 255 106 150 255 106 150 255 106 150 255 106 150 255 106 150 255 106 150 255 106 150 255 106 150 255 106 150 255 106 150 255 106 150 255 106 150 255 106 150 255 106 150 255 106 150 255 106 150 255 106 150 255 106 150 255 106 150 255 106 150 255 106 150 255 106 150 255 106 150 255 106 150 255 106 150 255 106 150 255 106 150 255 106 150 255 106 150 255 106 150 255 106 150 255 106 150 255 106 150 255 106 150 255 106 150 255 106 150 255 106 150 255 106 150 255 106 150 255 106 150 255 106 150 255 106 150 255 106 150 255 106 150 255 106 150 255 106 150 255 106 150 255 106 150 255 106 150 255 106 150 255 106 150 255 106 150 255 106 150 255 106 150 255 106 150 255 106 150 255 106 150 255 106 150 255 106 150 255 106 150 255 106 150 255 106 150 255 106 150 255 106 150 255 106 150 255 106 150 255 106 150 255 106 150 255 106 150 255 106 150 255 106 150 255 106 150 255 106 150 255 106 150 255 106 150 255 106 150 255 106 150 255 106 150 255 106 150 255 106 150 255 106 150 255 106 150 255 106 150 255 106 150 255 106 150 255 106 150 255 
106 150 255 106 150 255 106 150 255 106 150 255 106 150 255 106 150 255 106 150 255 106 150 255 106 150 255 106 150 255 106 150 255 106 150 255 106 150 255 106 150 255 106 150 255 106 150 255 106 150 255 106 150 255 106 150 255 106 150 255 106 150 255 106 150 255 106 150 255 106 150 255 106 150 255 106 150 255 106 150 255 106 150 255 106 150 255 106 150 255 106 150 255 106 150 255 106 150 255 106 150 255 106 150 255 106 150 255 106 150 255 106 150 255 106 150 255 106 150 255 106 150 255 106 150 255 106 150 255 106 150 255 106 150 255 106 150 255 106 150 255 106 150 255 106 150 255 106 150 255 106 150 255 106 150 255 106 150 255 106 150 255 106 150 255 106 150 255 106 150 255 106 150 255 106 150 255 106 150 255 106 150 255 106 150 255 106 150 255 106 150 255 106 150 255 106 150 255 106 150 255 106 150 255 106 150 255 106 150 255 106 150 255 106 150 255 106 150 255 106 150 255 106 150 255 106 150 255 106 150 255 106 150 255 106 150 255 106 150 255 106 150 255 106 150 255 106 150 255 106 150 255 106 150 255 106 150 255 106 150 255 106 150 255 106 150 255 106 150 255 106 150 255 106 150 255 106 150 255 106 150 255 106 150 255 106 150 255 106 150 255 106 150 255 106 150 255 106 150 255 106 150 255 106 150 255 106 150 255 106 150 255 106 150 255 106 150 255 106 150 255 106 150 255 106 150 255 106 150 255 106 150 255 106 150 255 106 150 255 106 150 255 106 150 255 106 150 255 106 150 255 106 150 255 106 150 255 106 150 255 106 150 255 106 150 255 106 150 255 106 150 255 106 150 255 106 150 255 106 150 255 106 150 255 106 150 255 106 150 255 106 150 255 106 150 255 106 150 255 106 150 255 106 150 255 106 150 255 106 150 255 106 150 255 106 150 255 106 150 255 106 150 255 106 150 255 106 150 255 106 150 255 106 150 255 106 150 255 106 150 255 106 150 255 106 150 255 106 150 255 106 150 255 106 150 255 106 150 255 106 150 255 106 150 255 106 150 255 106 150 255 106 150 255 106 150 255 106 150 255 106 150 255 106 150 255 106 150 255 106 150 255 106 150 255 106 150 255 106 150 255 106 150 255 106 150 255 106 150 255 106 150 255 106 150 255 106 150 255 106 150 255 106 150 255 106 150 255 106 150 255 106 150 255 106 150 255 106 150 255 106 150 255 106 150 255 106 150 255 106 150 255 106 150 255 106 150 255 106 150 255 106 150 255 106 150 255 106 150 255 106 150 255 106 150 255 106 150 255 106 150 255 106 150 255 106 150 255 106 150 255 106 150 255 106 150 255 106 150 255 106 150 255 106 150 255 106 150 255 106 150 255 106 150 255 106 150 255 106 150 255 106 150 255 106 150 255 106 150 255 106 150 255 106 150 255 106 150 255 106 150 255 106 150 255 106 150 255 106 150 255 106 150 255 106 150 255 106 150 255 106 150 255 106 150 255 106 150 255 106 150 255 106 150 255 106 150 255 106 150 255 106 150 255 106 150 255 106 150 255 106 150 255 106 150 255 106 150 255 106 150 255 106 150 255 106 150 255 106 150 255 106 150 255 106 150 255 106 150 255 106 150 255 106 150 255 106 150 255 106 150 255 106 150 255 106 150 255 106 150 255 106 150 255 106 150 255 106 150 255 106 150 255 106 150 255 106 150 255 106 150 255 106 150 255 106 150 255 
106 150 255 106 150 255 106 150 255 106 150 255 106 150 255 106 150 255 106 150 255 106 150 255 106 150 255 106 150 255 106 150 255 106 150 255 106 150 255 106 150 255 106 150 255 106 150 255 106 150 255 106 150 255 106 150 255 106 150 255 106 150 255 106 150 255 106 150 255 106 150 255 106 150 255 106 150 255 106 150 255 106 150 255 106 150 255 106 150 255 106 150 255 106 150 255 106 150 255 106 150 255 106 150 255 106 150 255 106 150 255 106 150 255 106 150 255 106 150 255 106 150 255 106 150 255 106 150 255 106 150 255 106 150 255 106 150 255 106 150 255 106 150 255 106 150 255 106 150 255 106 150 255 106 150 255 106 150 255 106 150 255 106 150 255 106 150 255 106 150 255 106 150 255 106 150 255 106 150 255 106 150 255 106 150 255 106 150 255 106 150 255 106 150 255 106 150 255 106 150 255 106 150 255 106 150 255 106 150 255 106 150 255 106 150 255 106 150 255 106 150 255 106 150 255 106 150 255 106 150 255 106 150 255 106 150 255 106 150 255 106 150 255 106 150 255 106 150 255 106 150 255 106 150 255 106 150 255 106 150 255 106 150 255 106 150 255 106 150 255 106 150 255 106 150 255 106 150 255 106 150 255 106 150 255 106 150 255 106 150 255 106 150 255 106 150 255 106 150 255 106 150 255 106 150 255 106 150 255 106 150 255 106 150 255 106 150 255 106 150 255 106 150 255 106 150 255 106 150 255 106 150 255 106 150 255 106 150 255 106 150 255 106 150 255 106 150 255 106 150 255 106 150 255 106 150 255 106 150 255 106 150 255 106 150 255 106 150 255 106 150 255 106 150 255 106 150 255 106 150 255 106 150 255 106 150 255 106 150 255 106 150 255 106 150 255 106 150 255 106 150 255 106 150 255 106 150 255 106 150 255 106 150 255 106 150 255 106 150 255 106 150 255 106 150 255 106 150 255 106 150 255 106 150 255 106 150 255 106 150 255 106 150 255 106 150 255 106 150 255 106 150 255 106 150 255 106 150 255 106 150 255 106 150 255 106 150 255 106 150 255 106 150 255 106 150 255 106 150 255 106 150 255 106 150 255 106 150 255 106 150 255 106 150 255 106 150 255 106 150 255 106 150 255 106 150 255 106 150 255 106 150 255 106 150 255 106 150 255 106 150 255 106 150 255 106 150 255 106 150 255 106 150 255 106 150 255 106 150 255 106 150 255 106 150 255 106 150 255 106 150 255 106 150 255 106 150 255 106 150 255 106 150 255 106 150 255 106 150 255 106 150 255 106 150 255 106 150 255 106 150 255 106 150 255 106 150 255 106 150 255 106 150 255 106 150 255 106 150 255 106 150 255 106 150 255 106 150 255 106 150 255 106 150 255 106 150 255 106 150 255 106 150 255 106 150 255 106 150 255 106 150 255 106 150 255 106 150 255 106 150 255 106 150 255 106 150 255 106 150 255 106 150 255 106 150 255 106 150 255 106 150 255 106 150 255 106 150 255 106 150 255 106 150 255 106 150 255 106 150 255 106 150 255 106 150 255 106 150 255 106 150 255 106 150 255 106 150 255 106 150 255 106 150 255 106 150 255 106 150 255 106 150 255 106 150 255 106 150 255 106 150 255 106 150 255 106 150 255 106 150 255 106 150 255 106 150 255 106 150 255 106 150 255 106 150 255 106 150 255 106 150 255 106 150 255 106 150 255 106 150 255 106 150 255 106 150 255 
106 150 255 106 150 255 106 150 255 106 150 255 106 150 255 106 150 255 106 150 255 106 150 255 106 150 255 106 150 255 106 150 255 106 150 255 106 150 255 106 150 255 106 150 255 106 150 255 106 150 255 106 150 255 106 150 255 106 150 255 106 150 255 106 150 255 106 150 255 106 150 255 106 150 255 106 150 255 106 150 255 106 150 255 106 150 255 106 150 255 106 150 255 106 150 255 106 150 255 106 150 255 106 150 255 106 150 255 106 150 255 106 150 255 106 150 255 106 150 255 106 150 255 106 150 255 106 150 255 106 150 255 106 150 255 106 150 255 106 150 255 106 150 255 106 150 255 106 150 255 106 150 255 106 150 255 106 150 255 106 150 255 106 150 255 106 150 255 106 150 255 106 150 255 106 150 255 106 150 255 106 150 255 106 150 255 106 150 255 106 150 255 106 150 255 106 150 255 106 150 255 106 150 255 106 150 255 106 150 255 106 150 255 106 150 255 106 150 255 106 150 255 106 150 255 106 150 255 106 150 255 106 150 255 106 150 255 106 150 255 106 150 255 106 150 255 106 150 255 106 150 255 106 150 255 106 150 255 106 150 255 106 150 255 106 150 255 106 150 255 106 150 255 106 150 255 106 150 255 106 150 255 106 150 255 106 150 255 106 150 255 106 150 255 106 150 255 106 150 255 106 150 255 106 150 255 106 150 255 106 150 255 106 150 255 106 150 255 106 150 255 106 150 255 106 150 255 106 150 255 106 150 255 106 150 255 106 150 255 106 150 255 106 150 255 106 150 255 106 150 255 106 150 255 106 150 255 106 150 255 106 150 255 106 150 255 106 150 255 106 150 255 106 150 255 106 150 255 106 150 255 106 150 255 106 150 255 106 150 255 106 150 255 106 150 255 106 150 255 106 150 255 106 150 255 106 150 255 106 150 255 106 150 255 106 150 255 106 150 255 106 150 255 106 150 255 106 150 255 106 150 255 106 150 255 106 150 255 106 150 255 106 150 255 106 150 255 106 150 255 106 150 255 106 150 255 106 150 255 106 150 255 106 150 255 106 150 255 106 150 255 106 150 255 106 150 255 106 150 255 106 150 255 106 150 255 106 150 255 106 150 255 106 150 255 106 150 255 106 150 255 106 150 255 106 150 255 106 150 255 106 150 255 106 150 255 106 150 255 106 150 255 106 150 255 106 150 255 106 150 255 106 150 255 106 150 255 106 150 255 106 150 255 106 150 255 106 150 255 106 150 255 106 150 255 106 150 255 106 150 255 106 150 255 106 150 255 106 150 255 106 150 255 106 150 255 106 150 255 106 150 255 106 150 255 106 150 255 106 150 255 106 150 255 106 150 255 106 150 255 106 150 255 106 150 255 106 150 255 106 150 255 106 150 255 106 150 255 106 150 255 106 150 255 106 150 255 106 150 255 106 150 255 106 150 255 106 150 255 106 150 255 106 150 255 106 150 255 106 150 255 106 150 255 106 150 255 106 150 255 106 150 255 106 150 255 106 150 255 106 150 255 106 150 255 106 150 255 106 150 255 106 150 255 106 150 255 106 150 255 106 150 255 106 150 255 106 150 255 106 150 255 106 150 255 106 150 255 106 150 255 106 150 255 106 150 255 106 150 255 106 150 255 106 150 255 106 150 255 106 150 255 106 150 255 106 150 255 106 150 255 106 150 255 106 150 255 106 150 255 106 150 255 106 150 255 106 150 255 106 150 255 106 150 255 106 150 255 
106 150 255 106 150 255 106 150 255 106 150 255 106 150 255 106 150 255 106 150 255 106 150 255 106 150 255 106 150 255 106 150 255 106 150 255 106 150 255 106 150 255 106 150 255 106 150 255 106 150 255 106 150 255 106 150 255 106 150 255 106 150 255 106 150 255 106 150 255 106 150 255 106 150 255 106 150 255 106 150 255 106 150 255 106 150 255 106 150 255 106 150 255 106 150 255 106 150 255 106 150 255 106 150 255 106 150 255 106 150 255 106 150 255 106 150 255 106 150 255 106 150 255 106 150 255 106 150 255 106 150 255 106 150 255 106 150 255 106 150 255 106 150 255 106 150 255 106 150 255 106 150 255 106 150 255 106 150 255 106 150 255 106 150 255 106 150 255 106 150 255 106 150 255 106 150 255 106 150 255 106 150 255 106 150 255 106 150 255 106 150 255 106 150 255 106 150 255 106 150 255 106 150 255 106 150 255 106 150 255 106 150 255 106 150 255 106 150 255 106 150 255 106 150 255 106 150 255 106 150 255 106 150 255 106 150 255 106 150 255 106 150 255 106 150 255 106 150 255 106 150 255 106 150 255 106 150 255 106 150 255 106 150 255 106 150 255 106 150 255 106 150 255 106 150 255 106 150 255 106 150 255 106 150 255 106 150 255 106 150 255 106 150 255 106 150 255 106 150 255 106 150 255 106 150 255 106 150 255 106 150 255 106 150 255 106 150 255 106 150 255 106 150 255 106 150 255 106 150 255 106 150 255 106 150 255 106 150 255 106 150 255 106 150 255 106 150 255 106 150 255 106 150 255 106 150 255 106 150 255 106 150 255 106 150 255 106 150 255 106 150 255 106 150 255 106 150 255 106 150 255 106 150 255 106 150 255 106 150 255 106 150 255 106 150 255 106 150 255 106 150 255 106 150 255 106 150 255 106 150 255 106 150 255 106 150 255 106 150 255 106 150 255 106 150 255 106 150 255 106 150 255 106 150 255 106 150 255 106 150 255 106 150 255 106 150 255 106 150 255 106 150 255 106 150 255 106 150 255 106 150 255 106 150 255 106 150 255 106 150 255 106 150 255 106 150 255 106 150 255 106 150 255 106 150 255 106 150 255 106 150 255 106 150 255 106 150 255 106 150 255 106 150 255 106 150 255 106 150 255 106 150 255 106 150 255 106 150 255 106 150 255 106 150 255 106 150 255 106 150 255 106 150 255 106 150 255 106 150 255 106 150 255 106 150 255 106 150 255 106 150 255 106 150 255 106 150 255 106 150 255 106 150 255 106 150 255 106 150 255 106 150 255 106 150 255 106 150 255 106 150 255 106 150 255 106 150 255 106 150 255 106 150 255 106 150 255 106 150 255 106 150 255 106 150 255 106 150 255 106 150 255 106 150 255 106 150 255 106 150 255 106 150 255 106 150 255 106 150 255 106 150 255 106 150 255 106 150 255 106 150 255 106 150 255 106 150 255 106 150 255 106 150 255 106 150 255 106 150 255 106 150 255 106 150 255 106 150 255 106 150 255 106 150 255 106 150 255 106 150 255 106 150 255 106 150 255 106 150 255 106 150 255 106 150 255 106 150 255 106 150 255 106 150 255 106 150 255 106 150 255 106 150 255 106 150 255 106 150 255 106 150 255 106 150 255 106 150 255 106 150 255 106 150 255 106 150 255 106 150 255 106 150 255 106 150 255 106 150 255 106 150 255 106 150 255 106 150 255 106 150 255 106 150 255 106 150 255 
106 150 255 106 150 255 106 150 255 106 150 255 106 150 255 106 150 255 106 150 255 106 150 255 106 150 255 106 150 255 106 150 255 106 150 255 106 150 255 106 150 255 106 150 255 106 150 255 106 150 255 106 150 255 106 150 255 106 150 255 106 150 255 106 150 255 106 150 255 106 150 255 106 150 255 106 150 255 106 150 255 106 150 255 106 150 255 106 150 255 106 150 255 106 150 255 106 150 255 106 150 255 106 150 255 106 150 255 106 150 255 106 150 255 106 150 255 106 150 255 106 150 255 106 150 255 106 150 255 106 150 255 106 150 255 106 150 255 106 150 255 106 150 255 106 150 255 106 150 255 106 150 255 106 150 255 106 150 255 106 150 255 106 150 255 106 150 255 106 150 255 106 150 255 106 150 255 106 150 255 106 150 255 106 150 255 106 150 255 106 150 255 106 150 255 106 150 255 106 150 255 106 150 255 106 150 255 106 150 255 106 150 255 106 150 255 106 150 255 106 150 255 106 150 255 106 150 255 106 150 255 106 150 255 106 150 255 106 150 255 106 150 255 106 150 255 106 150 255 106 150 255 106 150 255 106 150 255 106 150 255 106 150 255 106 150 255 106 150 255 106 150 255 106 150 255 106 150 255 106 150 255 106 150 255 106 150 255 106 150 255 106 150 255 106 150 255 106 150 255 106 150 255 106 150 255 106 150 255 106 150 255 106 150 255 106 150 255 106 150 255 106 150 255 106 150 255 106 150 255 106 150 255 106 150 255 106 150 255 106 150 255 106 150 255 106 150 255 106 150 255 106 150 255 106 150 255 106 150 255 106 150 255 106 150 255 106 150 255 106 150 255 106 150 255 106 150 255 106 150 255 106 150 255 106 150 255 106 150 255 106 150 255 106 150 255 106 150 255 106 150 255 106 150 255 106 150 255 106 150 255 106 150 255 106 150 255 106 150 255 106 150 255 106 150 255 106 150 255 106 150 255 106 150 255 106 150 255 106 150 255 106 150 255 106 150 255 106 150 255 106 150 255 106 150 255 106 150 255 106 150 255 106 150 255 106 150 255 106 150 255 106 150 255 106 150 255 106 150 255 106 150 255 106 150 255 106 150 255 106 150 255 106 150 255 106 150 255 106 150 255 106 150 255 106 150 255 106 150 255 106 150 255 106 150 255 106 150 255 106 150 255 106 150 255 106 150 255 106 150 255 106 150 255 106 150 255 106 150 255 106 150 255 106 150 255 106 150 255 106 150 255 106 150 255 106 150 255 106 150 255 106 150 255 106 150 255 106 150 255 106 150 255 106 150 255 106 150 255 106 150 255 106 150 255 106 150 255 106 150 255 106 150 255 106 150 255 106 150 255 106 150 255 106 150 255 106 150 255 106 150 255 106 150 255 106 150 255 106 150 255 106 150 255 106 150 255 106 150 255 106 150 255 106 150 255 106 150 255 106 150 255 106 150 255 106 150 255 106 150 255 106 150 255 106 150 255 106 150 255 106 150 255 106 150 255 106 150 255 106 150 255 106 150 255 106 150 255 106 150 255 106 150 255 106 150 255 106 150 255 106 150 255 106 150 255 106 150 255 106 150 255 106 150 255 106 150 255 106 150 255 106 150 255 106 150 255 106 150 255 106 150 255 106 150 255 106 150 255 106 150 255 106 150 255 106 150 255 106 150 255 106 150 255 106 150 255 106 150 255 106 150 255 106 150 255 106 150 255 106 150 255 106 150 255 106 150 255 
106 150 255 106 150 255 106 150 255 106 150 255 106 150 255 106 150 255 106 150 255 106 150 255 106 150 255 106 150 255 106 150 255 106 150 255 106 150 255 106 150 255 106 150 255 106 150 255 106 150 255 106 150 255 106 150 255 106 150 255 106 150 255 106 150 255 106 150 255 106 150 255 106 150 255 106 150 255 106 150 255 106 150 255 106 150 255 106 150 255 106 150 255 106 150 255 106 150 255 106 150 255 106 150 255 106 150 255 106 150 255 106 150 255 106 150 255 106 150 255 106 150 255 106 150 255 106 150 255 106 150 255 106 150 255 106 150 255 106 150 255 106 150 255 106 150 255 106 150 255 106 150 255 106 150 255 106 150 255 106 150 255 106 150 255 106 150 255 106 150 255 106 150 255 106 150 255 106 150 255 106 150 255 106 150 255 106 150 255 106 150 255 106 150 255 106 150 255 106 150 255 106 150 255 106 150 255 106 150 255 106 150 255 106 150 255 106 150 255 106 150 255 106 150 255 106 150 255 106 150 255 106 150 255 106 150 255 106 150 255 106 150 255 106 150 255 106 150 255 106 150 255 106 150 255 106 150 255 106 150 255 106 150 255 106 150 255 106 150 255 106 150 255 106 150 255 106 150 255 106 150 255 106 150 255 106 150 255 106 150 255 106 150 255 106 150 255 106 150 255 106 150 255 106 150 255 106 150 255 106 150 255 106 150 255 106 150 255 106 150 255 106 150 255 106 150 255 106 150 255 106 150 255 106 150 255 106 150 255 106 150 255 106 150 255 106 150 255 106 150 255 106 150 255 106 150 255 106 150 255 106 150 255 106 150 255 106 150 255 106 150 255 106 150 255 106 150 255 106 150 255 106 150 255 106 150 255 106 150 255 106 150 255 106 150 255 106 150 255 106 150 255 106 150 255 106 150 255 106 150 255 106 150 255 106 150 255 106 150 255 106 150 255 106 150 255 106 150 255 106 150 255 106 150 255 106 150 255 106 150 255 106 150 255 106 150 255 106 150 255 106 150 255 106 150 255 106 150 255 106 150 255 106 150 255 106 150 255 106 150 255 106 150 255 106 150 255 106 150 255 106 150 255 106 150 255 106 150 255 106 150 255 106 150 255 106 150 255 106 150 255 106 150 255 106 150 255 106 150 255 106 150 255 106 150 255 106 150 255 106 150 255 106 150 255 106 150 255 106 150 255 106 150 255 106 150 255 106 150 255 106 150 255 106 150 255 106 150 255 106 150 255 106 150 255 106 150 255 106 150 255 106 150 255 106 150 255 106 150 255 106 150 255 106 150 255 106 150 255 106 150 255 106 150 255 106 150 255 106 150 255 106 150 255 106 150 255 106 150 255 106 150 255 106 150 255 106 150 255 106 150 255 106 150 255 106 150 255 106 150 255 106 150 255 106 150 255 106 150 255 106 150 255 106 150 255 106 150 255 106 150 255 106 150 255 106 150 255 106 150 255 106 150 255 106 150 255 106 150 255 106 150 255 106 150 255 106 150 255 106 150 255 106 150 255 106 150 255 106 150 255 106 150 255 106 150 255 106 150 255 106 150 255 106 150 255 106 150 255 106 150 255 106 150 255 106 150 255 106 150 255 106 150 255 106 150 255 106 150 255 106 150 255 106 150 255 106 150 255 106 150 255 106 150 255 106 150 255 106 150 255 106 150 255 106 150 255 106 150 255 106 150 255 106 150 255 106 150 255 106 150 255 106 150 255 106 150 255 
106 150 255 106 150 255 106 150 255 106 150 255 106 150 255 106 150 255 106 150 255 106 150 255 106 150 255 106 150 255 106 150 255 106 150 255 106 150 255 106 150 255 106 150 255 106 150 255 106 150 255 106 150 255 106 150 255 106 150 255 106 150 255 106 150 255 106 150 255 106 150 255 106 150 255 106 150 255 106 150 255 106 150 255 106 150 255 106 150 255 106 150 255 106 150 255 106 150 255 106 150 255 106 150 255 106 150 255 106 150 255 106 150 255 106 150 255 106 150 255 106 150 255 106 150 255 106 150 255 106 150 255 106 150 255 106 150 255 106 150 255 106 150 255 106 150 255 106 150 255 106 150 255 106 150 255 106 150 255 106 150 255 106 150 255 106 150 255 106 150 255 106 150 255 106 150 255 106 150 255 106 150 255 106 150 255 106 150 255 106 150 255 106 150 255 106 150 255 106 150 255 106 150 255 106 150 255 106 150 255 106 150 255 106 150 255 106 150 255 106 150 255 106 150 255 106 150 255 106 150 255 106 150 255 106 150 255 106 150 255 106 150 255 106 150 255 106 150 255 106 150 255 106 150 255 106 150 255 106 150 255 106 150 255 106 150 255 106 150 255 106 150 255 106 150 255 106 150 255 106 150 255 106 150 255 106 150 255 106 150 255 106 150 255 106 150 255 106 150 255 106 150 255 106 150 255 106 150 255 106 150 255 106 150 255 106 150 255 106 150 255 106 150 255 106 150 255 106 150 255 106 150 255 106 150 255 106 150 255 106 150 255 106 150 255 106 150 255 106 150 255 106 150 255 106 150 255 106 150 255 106 150 255 106 150 255 106 150 255 106 150 255 106 150 255 106 150 255 106 150 255 106 150 255 106 150 255 106 150 255 106 150 255 106 150 255 106 150 255 106 150 255 106 150 255 106 150 255 106 150 255 106 150 255 106 150 255 106 150 255 106 150 255 106 150 255 106 150 255 106 150 255 106 150 255 106 150 255 106 150 255 106 150 255 106 150 255 106 150 255 106 150 255 106 150 255 106 150 255 106 150 255 106 150 255 106 150 255 106 150 255 106 150 255 106 150 255 106 150 255 106 150 255 106 150 255 106 150 255 106 150 255 106 150 255 106 150 255 106 150 255 106 150 255 106 150 255 106 150 255 106 150 255 106 150 255 106 150 255 106 150 255 106 150 255 106 150 255 106 150 255 106 150 255 106 150 255 106 150 255 106 150 255 106 150 255 106 150 255 106 150 255 106 150 255 106 150 255 106 150 255 106 150 255 106 150 255 106 150 255 106 150 255 106 150 255 106 150 255 106 150 255 106 150 255 106 150 255 106 150 255 106 150 255 106 150 255 106 150 255 106 150 255 106 150 255 106 150 255 106 150 255 106 150 255 106 150 255 106 150 255 106 150 255 106 150 255 106 150 255 106 150 255 106 150 255 106 150 255 106 150 255 106 150 255 106 150 255 106 150 255 106 150 255 106 150 255 106 150 255 106 150 255 106 150 255 106 150 255 106 150 255 106 150 255 106 150 255 106 150 255 106 150 255 106 150 255 106 150 255 106 150 255 106 150 255 106 150 255 106 150 255 106 150 255 106 150 255 106 150 255 106 150 255 106 150 255 106 150 255 106 150 255 106 150 255 106 150 255 106 150 255 106 150 255 106 150 255 106 150 255 106 150 255 106 150 255 106 150 255 106 150 255 106 150 255 106 150 255 106 150 255 106 150 255 106 150 255 
106 150 255 106 150 255 106 150 255 106 150 255 106 150 255 106 150 255 106 150 255 106 150 255 106 150 255 106 150 255 106 150 255 106 150 255 106 150 255 106 150 255 106 150 255 106 150 255 106 150 255 106 150 255 106 150 255 106 150 255 106 150 255 106 150 255 106 150 255 106 150 255 106 150 255 106 150 255 106 150 255 106 150 255 106 150 255 106 150 255 106 150 255 106 150 255 106 150 255 106 150 255 106 150 255 106 150 255 106 150 255 106 150 255 106 150 255 106 150 255 106 150 255 106 150 255 106 150 255 106 150 255 106 150 255 106 150 255 106 150 255 106 150 255 106 150 255 106 150 255 106 150 255 106 150 255 106 150 255 106 150 255 106 150 255 106 150 255 106 150 255 106 150 255 106 150 255 106 150 255 106 150 255 106 150 255 106 150 255 106 150 255 106 150 255 106 150 255 106 150 255 106 150 255 106 150 255 106 150 255 106 150 255 106 150 255 106 150 255 106 150 255 106 150 255 106 150 255 106 150 255 106 150 255 106 150 255 106 150 255 106 150 255 106 150 255 106 150 255 106 150 255 106 150 255 106 150 255 106 150 255 106 150 255 106 150 255 106 150 255 106 150 255 106 150 255 106 150 255 106 150 255 106 150 255 106 150 255 106 150 255 106 150 255 106 150 255 106 150 255 106 150 255 106 150 255 106 150 255 106 150 255 106 150 255 106 150 255 106 150 255 106 150 255 106 150 255 106 150 255 106 150 255 106 150 255 106 150 255 106 150 255 106 150 255 106 150 255 106 150 255 106 150 255 106 150 255 106 150 255 106 150 255 106 150 255 106 150 255 106 150 255 106 150 255 106 150 255 106 150 255 106 150 255 106 150 255 106 150 255 106 150 255 106 150 255 106 150 255 106 150 255 106 150 255 106 150 255 106 150 255 106 150 255 106 150 255 106 150 255 106 150 255 106 150 255 106 150 255 106 150 255 106 150 255 106 150 255 106 150 255 106 150 255 106 150 255 106 150 255 106 150 255 106 150 255 106 150 255 106 150 255 106 150 255 106 150 255 106 150 255 106 150 255 106 150 255 106 150 255 106 150 255 106 150 255 106 150 255 106 150 255 106 150 255 106 150 255 106 150 255 106 150 255 106 150 255 106 150 255 106 150 255 106 150 255 106 150 255 106 150 255 106 150 255 106 150 255 106 150 255 106 150 255 106 150 255 106 150 255 106 150 255 106 150 255 106 150 255 106 150 255 106 150 255 106 150 255 106 150 255 106 150 255 106 150 255 106 150 255 106 150 255 106 150 255 106 150 255 106 150 255 106 150 255 106 150 255 106 150 255 106 150 255 106 150 255 106 150 255 106 150 255 106 150 255 106 150 255 106 150 255 106 150 255 106 150 255 106 150 255 106 150 255 106 150 255 106 150 255 106 150 255 106 150 255 106 150 255 106 150 255 106 150 255 106 150 255 106 150 255 106 150 255 106 150 255 106 150 255 106 150 255 106 150 255 106 150 255 106 150 255 106 150 255 106 150 255 106 150 255 106 150 255 106 150 255 106 150 255 106 150 255 106 150 255 106 150 255 106 150 255 106 150 255 106 150 255 106 150 255 106 150 255 106 150 255 106 150 255 106 150 255 106 150 255 106 150 255 106 150 255 106 150 255 106 150 255 106 150 255 106 150 255 106 150 255 106 150 255 106 150 255 106 150 255 106 150 255 106 150 255 106 150 255 106 150 255 
106 150 255 106 150 255 106 150 255 106 150 255 106 150 255 106 150 255 106 150 255 106 150 255 106 150 255 106 150 255 106 150 255 106 150 255 106 150 255 106 150 255 106 150 255 106 150 255 106 150 255 106 150 255 106 150 255 106 150 255 106 150 255 106 150 255 106 150 255 106 150 255 106 150 255 106 150 255 106 150 255 106 150 255 106 150 255 106 150 255 106 150 255 106 150 255 106 150 255 106 150 255 106 150 255 106 150 255 106 150 255 106 150 255 106 150 255 106 150 255 106 150 255 106 150 255 106 150 255 106 150 255 106 150 255 106 150 255 106 150 255 106 150 255 106 150 255 106 150 255 106 150 255 106 150 255 106 150 255 106 150 255 106 150 255 106 150 255 106 150 255 106 150 255 106 150 255 106 150 255 106 150 255 106 150 255 106 150 255 106 150 255 106 150 255 106 150 255 106 150 255 106 150 255 106 150 255 106 150 255 106 150 255 106 150 255 106 150 255 106 150 255 106 150 255 106 150 255 106 150 255 106 150 255 106 150 255 106 150 255 106 150 255 106 150 255 106 150 255 106 150 255 106 150 255 106 150 255 106 150 255 106 150 255 106 150 255 106 150 255 106 150 255 106 150 255 106 150 255 106 150 255 106 150 255 106 150 255 106 150 255 106 150 255 106 150 255 106 150 255 106 150 255 106 150 255 106 150 255 106 150 255 106 150 255 106 150 255 106 150 255 106 150 255 106 150 255 106 150 255 106 150 255 106 150 255 106 150 255 106 150 255 106 150 255 106 150 255 106 150 255 106 150 255 106 150 255 106 150 255 106 150 255 106 150 255 106 150 255 106 150 255 106 150 255 106 150 255 106 150 255 106 150 255 106 150 255 106 150 255 106 150 255 106 150 255 106 150 255 106 150 255 106 150 255 106 150 255 106 150 255 106 150 255 106 150 255 106 150 255 106 150 255 106 150 255 106 150 255 106 150 255 106 150 255 106 150 255 106 150 255 106 150 255 106 150 255 106 150 255 106 150 255 106 150 255 106 150 255 106 150 255 106 150 255 106 150 255 106 150 255 106 150 255 106 150 255 106 150 255 106 150 255 106 150 255 106 150 255 106 150 255 106 150 255 106 150 255 106 150 255 106 150 255 106 150 255 106 150 255 106 150 255 106 150 255 106 150 255 106 150 255 106 150 255 106 150 255 106 150 255 106 150 255 106 150 255 106 150 255 106 150 255 106 150 255 106 150 255 106 150 255 106 150 255 106 150 255 106 150 255 106 150 255 106 150 255 106 150 255 106 150 255 106 150 255 106 150 255 106 150 255 106 150 255 106 150 255 106 150 255 106 150 255 106 150 255 106 150 255 106 150 255 106 150 255 106 150 255 106 150 255 106 150 255 106 150 255 106 150 255 106 150 255 106 150 255 106 150 255 106 150 255 106 150 255 106 150 255 106 150 255 106 150 255 106 150 255 106 150 255 106 150 255 106 150 255 106 150 255 106 150 255 106 150 255 106 150 255 106 150 255 106 150 255 106 150 255 106 150 255 106 150 255 106 150 255 106 150 255 106 150 255 106 150 255 106 150 255 106 150 255 106 150 255 106 150 255 106 150 255 106 150 255 106 150 255 106 150 255 106 150 255 106 150 255 106 150 255 106 150 255 106 150 255 106 150 255 106 150 255 106 150 255 106 150 255 106 150 255 106 150 255 106 150 255 106 150 255 106 150 255 106 150 255 106 150 255 
106 150 255 106 150 255 106 150 255 106 150 255 106 150 255 106 150 255 106 150 255 106 150 255 106 150 255 106 150 255 106 150 255 106 150 255 106 150 255 106 150 255 106 150 255 106 150 255 106 150 255 106 150 255 106 150 255 106 150 255 106 150 255 106 150 255 106 150 255 106 150 255 106 150 255 106 150 255 106 150 255 106 150 255 106 150 255 106 150 255 106 150 255 106 150 255 106 150 255 106 150 255 106 150 255 106 150 255 106 150 255 106 150 255 106 150 255 106 150 255 106 150 255 106 150 255 106 150 255 106 150 255 106 150 255 106 150 255 106 150 255 106 150 255 106 150 255 106 150 255 106 150 255 106 150 255 106 150 255 106 150 255 106 150 255 106 150 255 106 150 255 106 150 255 106 150 255 106 150 255 106 150 255 106 150 255 106 150 255 106 150 255 106 150 255 106 150 255 106 150 255 106 150 255 106 150 255 106 150 255 106 150 255 106 150 255 106 150 255 106 150 255 106 150 255 106 150 255 106 150 255 106 150 255 106 150 255 106 150 255 106 150 255 106 150 255 106 150 255 106 150 255 106 150 255 106 150 255 106 150 255 106 150 255 106 150 255 106 150 255 106 150 255 106 150 255 106 150 255 106 150 255 106 150 255 106 150 255 106 150 255 106 150 255 106 150 255 106 150 255 106 150 255 106 150 255 106 150 255 106 150 255 106 150 255 106 150 255 106 150 255 106 150 255 106 150 255 106 150 255 106 150 255 106 150 255 106 150 255 106 150 255 106 150 255 106 150 255 106 150 255 106 150 255 106 150 255 106 150 255 106 150 255 106 150 255 106 150 255 106 150 255 106 150 255 106 150 255 106 150 255 106 150 255 106 150 255 106 150 255 106 150 255 106 150 255 106 150 255 106 150 255 106 150 255 106 150 255 106 150 255 106 150 255 106 150 255 106 150 255 106 150 255 106 150 255 106 150 255 106 150 255 106 150 255 106 150 255 106 150 255 106 150 255 106 150 255 106 150 255 106 150 255 106 150 255 106 150 255 106 150 255 106 150 255 106 150 255 106 150 255 106 150 255 106 150 255 106 150 255 106 150 255 106 150 255 106 150 255 106 150 255 106 150 255 106 150 255 106 150 255 106 150 255 106 150 255 106 150 255 106 150 255 106 150 255 106 150 255 106 150 255 106 150 255 106 150 255 106 150 255 106 150 255 106 150 255 106 150 255 106 150 255 106 150 255 106 150 255 106 150 255 106 150 255 106 150 255 106 150 255 106 150 255 106 150 255 106 150 255 106 150 255 106 150 255 106 150 255 106 150 255 106 150 255 106 150 255 106 150 255 106 150 255 106 150 255 106 150 255 106 150 255 106 150 255 106 150 255 106 150 255 106 150 255 106 150 255 106 150 255 106 150 255 106 150 255 106 150 255 106 150 255 106 150 255 106 150 255 106 150 255 106 150 255 106 150 255 106 150 255 106 150 255 106 150 255 106 150 255 106 150 255 106 150 255 106 150 255 106 150 255 106 150 255 106 150 255 106 150 255 106 150 255 106 150 255 106 150 255 106 150 255 106 150 255 106 150 255 106 150 255 106 150 255 106 150 255 106 150 255 106 150 255 106 150 255 106 150 255 106 150 255 106 150 255 106 150 255 106 150 255 106 150 255 106 150 255 106 150 255 106 150 255 106 150 255 106 150 255 106 150 255 106 150 255 106 150 255 106 150 255 106 150 255 106 150 255 
106 150 255 106 150 255 106 150 255 106 150 255 106 150 255 106 150 255 106 150 255 106 150 255 106 150 255 106 150 255 106 150 255 106 150 255 106 150 255 106 150 255 106 150 255 106 150 255 106 150 255 106 150 255 106 150 255 106 150 255 106 150 255 106 150 255 106 150 255 106 150 255 106 150 255 106 150 255 106 150 255 106 150 255 106 150 255 106 150 255 106 150 255 106 150 255 106 150 255 106 150 255 106 150 255 106 150 255 106 150 255 106 150 255 106 150 255 106 150 255 106 150 255 106 150 255 106 150 255 106 150 255 106 150 255 106 150 255 106 150 255 106 150 255 106 150 255 106 150 255 106 150 255 106 150 255 106 150 255 106 150 255 106 150 255 106 150 255 106 150 255 106 150 255 106 150 255 106 150 255 106 150 255 106 150 255 106 150 255 106 150 255 106 150 255 106 150 255 106 150 255 106 150 255 106 150 255 106 150 255 106 150 255 106 150 255 106 150 255 106 150 255 106 150 255 106 150 255 106 150 255 106 150 255 106 150 255 106 150 255 106 150 255 106 150 255 106 150 255 106 150 255 106 150 255 106 150 255 106 150 255 106 150 255 106 150 255 106 150 255 106 150 255 106 150 255 106 150 255 106 150 255 106 150 255 106 150 255 106 150 255 106 150 255 106 150 255 106 150 255 106 150 255 106 150 255 106 150 255 106 150 255 106 150 255 106 150 255 106 150 255 106 150 255 106 150 255 106 150 255 106 150 255 106 150 255 106 150 255 106 150 255 106 150 255 106 150 255 106 150 255 106 150 255 106 150 255 106 150 255 106 150 255 106 150 255 106 150 255 106 150 255 106 150 255 106 150 255 106 150 255 106 150 255 106 150 255 106 150 255 106 150 255 106 150 255 106 150 255 106 150 255 106 150 255 106 150 255 106 150 255 106 150 255 106 150 255 106 150 255 106 150 255 106 150 255 106 150 255 106 150 255 106 150 255 106 150 255 106 150 255 106 150 255 106 150 255 106 150 255 106 150 255 106 150 255 106 150 255 106 150 255 106 150 255 106 150 255 106 150 255 106 150 255 106 150 255 106 150 255 106 150 255 106 150 255 106 150 255 106 150 255 106 150 255 106 150 255 106 150 255 106 150 255 106 150 255 106 150 255 106 150 255 106 150 255 106 150 255 106 150 255 106 150 255 106 150 255 106 150 255 106 150 255 106 150 255 106 150 255 106 150 255 106 150 255 106 150 255 106 150 255 106 150 255 106 150 255 106 150 255 106 150 255 106 150 255 106 150 255 106 150 255 106 150 255 106 150 255 106 150 255 106 150 255 106 150 255 106 150 255 106 150 255 106 150 255 106 150 255 106 150 255 106 150 255 106 150 255 106 150 255 106 150 255 106 150 255 106 150 255 106 150 255 106 150 255 106 150 255 106 150 255 106 150 255 106 150 255 106 150 255 106 150 255 106 150 255 106 150 255 106 150 255 106 150 255 106 150 255 106 150 255 106 150 255 106 150 255 106 150 255 106 150 255 106 150 255 106 150 255 106 150 255 106 150 255 106 150 255 106 150 255 106 150 255 106 150 255 106 150 255 106 150 255 106 150 255 106 150 255 106 150 255 106 150 255 106 150 255 106 150 255 106 150 255 106 150 255 106 150 255 106 150 255 106 150 255 106 150 255 106 150 255 106 150 255 106 150 255 106 150 255 106 150 255 106 150 255 106 150 255 106 150 255 106 150 255 
106 150 255 106 150 255 106 150 255 106 150 255 106 150 255 106 150 255 106 150 255 106 150 255 106 150 255 106 150 255 106 150 255 106 150 255 106 150 255 106 150 255 106 150 255 106 150 255 106 150 255 106 150 255 106 150 255 106 150 255 106 150 255 106 150 255 106 150 255 106 150 255 106 150 255 106 150 255 106 150 255 106 150 255 106 150 255 106 150 255 106 150 255 106 150 255 106 150 255 106 150 255 106 150 255 106 150 255 106 150 255 106 150 255 106 150 255 106 150 255 106 150 255 106 150 255 106 150 255 106 150 255 106 150 255 106 150 255 106 150 255 106 150 255 106 150 255 106 150 255 106 150 255 106 150 255 106 150 255 106 150 255 106 150 255 106 150 255 106 150 255 106 150 255 106 150 255 106 150 255 106 150 255 106 150 255 106 150 255 106 150 255 106 150 255 106 150 255 106 150 255 106 150 255 106 150 255 106 150 255 106 150 255 106 150 255 106 150 255 106 150 255 106 150 255 106 150 255 106 150 255 106 150 255 106 150 255 106 150 255 106 150 255 106 150 255 106 150 255 106 150 255 106 150 255 106 150 255 106 150 255 106 150 255 106 150 255 106 150 255 106 150 255 106 150 255 106 150 255 106 150 255 106 150 255 106 150 255 106 150 255 106 150 255 106 150 255 106 150 255 106 150 255 106 150 255 106 150 255 106 150 255 106 150 255 106 150 255 106 150 255 106 150 255 106 150 255 106 150 255 106 150 255 106 150 255 106 150 255 106 150 255 106 150 255 106 150 255 106 150 255 106 150 255 106 150 255 106 150 255 106 150 255 106 150 255 106 150 255 106 150 255 106 150 255 106 150 255 106 150 255 106 150 255 106 150 255 106 150 255 106 150 255 106 150 255 106 150 255 106 150 255 106 150 255 106 150 255 106 150 255 106 150 255 106 150 255 106 150 255 106 150 255 106 150 255 106 150 255 106 150 255 106 150 255 106 150 255 106 150 255 106 150 255 106 150 255 106 150 255 106 150 255 106 150 255 106 150 255 106 150 255 106 150 255 106 150 255 106 150 255 106 150 255 106 150 255 106 150 255 106 150 255 106 150 255 106 150 255 106 150 255 106 150 255 106 150 255 106 150 255 106 150 255 106 150 255 106 150 255 106 150 255 106 150 255 106 150 255 106 150 255 106 150 255 106 150 255 106 150 255 106 150 255 106 150 255 106 150 255 106 150 255 106 150 255 106 150 255 106 150 255 106 150 255 106 150 255 106 150 255 106 150 255 106 150 255 106 150 255 106 150 255 106 150 255 106 150 255 106 150 255 106 150 255 106 150 255 106 150 255 106 150 255 106 150 255 106 150 255 106 150 255 106 150 255 106 150 255 106 150 255 106 150 255 106 150 255 106 150 255 106 150 255 106 150 255 106 150 255 106 150 255 106 150 255 106 150 255 106 150 255 106 150 255 106 150 255 106 150 255 106 150 255 106 150 255 106 150 255 106 150 255 106 150 255 106 150 255 106 150 255 106 150 255 106 150 255 106 150 255 106 150 255 106 150 255 106 150 255 106 150 255 106 150 255 106 150 255 106 150 255 106 150 255 106 150 255 106 150 255 106 150 255 106 150 255 106 150 255 106 150 255 106 150 255 106 150 255 106 150 255 106 150 255 106 150 255 106 150 255 106 150 255 106 150 255 106 150 255 106 150 255 106 150 255 106 150 255 106 150 255 106 150 255 106 150 255 
106 150 255 106 150 255 106 150 255 106 150 255 106 150 255 106 150 255 106 150 255 106 150 255 106 150 255 106 150 255 106 150 255 106 150 255 106 150 255 106 150 255 106 150 255 106 150 255 106 150 255 106 150 255 106 150 255 106 150 255 106 150 255 106 150 255 106 150 255 106 150 255 106 150 255 106 150 255 106 150 255 106 150 255 106 150 255 106 150 255 106 150 255 106 150 255 106 150 255 106 150 255 106 150 255 106 150 255 106 150 255 106 150 255 106 150 255 106 150 255 106 150 255 106 150 255 106 150 255 106 150 255 106 150 255 106 150 255 106 150 255 106 150 255 106 150 255 106 150 255 106 150 255 106 150 255 106 150 255 106 150 255 106 150 255 106 150 255 106 150 255 106 150 255 106 150 255 106 150 255 106 150 255 106 150 255 106 150 255 106 150 255 106 150 255 106 150 255 106 150 255 106 150 255 106 150 255 106 150 255 106 150 255 106 150 255 106 150 255 106 150 255 106 150 255 106 150 255 106 150 255 106 150 255 106 150 255 106 150 255 106 150 255 106 150 255 106 150 255 106 150 255 106 150 255 106 150 255 106 150 255 106 150 255 106 150 255 106 150 255 106 150 255 106 150 255 106 150 255 106 150 255 106 150 255 106 150 255 106 150 255 106 150 255 106 150 255 106 150 255 106 150 255 106 150 255 106 150 255 106 150 255 106 150 255 106 150 255 106 150 255 106 150 255 106 150 255 106 150 255 106 150 255 106 150 255 106 150 255 106 150 255 106 150 255 106 150 255 106 150 255 106 150 255 106 150 255 106 150 255 106 150 255 106 150 255 106 150 255 106 150 255 106 150 255 106 150 255 106 150 255 106 150 255 106 150 255 106 150 255 106 150 255 106 150 255 106 150 255 106 150 255 106 150 255 106 150 255 106 150 255 106 150 255 106 150 255 106 150 255 106 150 255 106 150 255 106 150 255 106 150 255 106 150 255 106 150 255 106 150 255 106 150 255 106 150 255 106 150 255 106 150 255 106 150 255 106 150 255 106 150 255 106 150 255 106 150 255 106 150 255 106 150 255 106 150 255 106 150 255 106 150 255 106 150 255 106 150 255 106 150 255 106 150 255 106 150 255 106 150 255 106 150 255 106 150 255 106 150 255 106 150 255 106 150 255 106 150 255 106 150 255 106 150 255 106 150 255 106 150 255 106 150 255 106 150 255 106 150 255 106 150 255 106 150 255 106 150 255 106 150 255 106 150 255 106 150 255 106 150 255 106 150 255 106 150 255 106 150 255 106 150 255 106 150 255 106 150 255 106 150 255 106 150 255 106 150 255 106 150 255 106 150 255 106 150 255 106 150 255 106 150 255 106 150 255 106 150 255 106 150 255 106 150 255 106 150 255 106 150 255 106 150 255 106 150 255 106 150 255 106 150 255 106 150 255 106 150 255 106 150 255 106 150 255 106 150 255 106 150 255 106 150 255 106 150 255 106 150 255 106 150 255 106 150 255 106 150 255 106 150 255 106 150 255 106 150 255 106 150 255 106 150 255 106 150 255 106 150 255 106 150 255 106 150 255 106 150 255 106 150 255 106 150 255 106 150 255 106 150 255 106 150 255 106 150 255 106 150 255 106 150 255 106 150 255 106 150 255 106 150 255 106 150 255 106 150 255 106 150 255 106 150 255 106 150 255 106 150 255 106 150 255 106 150 255 106 150 255 106 150 255 106 150 255 106 150 255 
106 150 255 106 150 255 106 150 255 106 150 255 106 150 255 106 150 255 106 150 255 106 150 255 106 150 255 106 150 255 106 150 255 106 150 255 106 150 255 106 150 255 106 150 255 106 150 255 106 150 255 106 150 255 106 150 255 106 150 255 106 150 255 106 150 255 106 150 255 106 150 255 106 150 255 106 150 255 106 150 255 106 150 255 106 150 255 106 150 255 106 150 255 106 150 255 106 150 255 106 150 255 106 150 255 106 150 255 106 150 255 106 150 255 106 150 255 106 150 255 106 150 255 106 150 255 106 150 255 106 150 255 106 150 255 106 150 255 106 150 255 106 150 255 106 150 255 106 150 255 106 150 255 106 150 255 106 150 255 106 150 255 106 150 255 106 150 255 106 150 255 106 150 255 106 150 255 106 150 255 106 150 255 106 150 255 106 150 255 106 150 255 106 150 255 106 150 255 106 150 255 106 150 255 106 150 255 106 150 255 106 150 255 106 150 255 106 150 255 106 150 255 106 150 255 106 150 255 106 150 255 106 150 255 106 150 255 106 150 255 106 150 255 106 150 255 106 150 255 106 150 255 106 150 255 106 150 255 106 150 255 106 150 255 106 150 255 106 150 255 106 150 255 106 150 255 106 150 255 106 150 255 106 150 255 106 150 255 106 150 255 106 150 255 106 150 255 106 150 255 106 150 255 106 150 255 106 150 255 106 150 255 106 150 255 106 150 255 106 150 255 106 150 255 106 150 255 106 150 255 106 150 255 106 150 255 106 150 255 106 150 255 106 150 255 106 150 255 106 150 255 106 150 255 106 150 255 106 150 255 106 150 255 106 150 255 106 150 255 106 150 255 106 150 255 106 150 255 106 150 255 106 150 255 106 150 255 106 150 255 106 150 255 106 150 255 106 150 255 106 150 255 106 150 255 106 150 255 106 150 255 106 150 255 106 150 255 106 150 255 106 150 255 106 150 255 106 150 255 106 150 255 106 150 255 106 150 255 106 150 255 106 150 255 106 150 255 106 150 255 106 150 255 106 150 255 106 150 255 106 150 255 106 150 255 106 150 255 106 150 255 106 150 255 106 150 255 106 150 255 106 150 255 106 150 255 106 150 255 106 150 255 106 150 255 106 150 255 106 150 255 106 150 255 106 150 255 106 150 255 106 150 255 106 150 255 106 150 255 106 150 255 106 150 255 106 150 255 106 150 255 106 150 255 106 150 255 106 150 255 106 150 255 106 150 255 106 150 255 106 150 255 106 150 255 106 150 255 106 150 255 106 150 255 106 150 255 106 150 255 106 150 255 106 150 255 106 150 255 106 150 255 106 150 255 106 150 255 106 150 255 106 150 255 106 150 255 106 150 255 106 150 255 106 150 255 106 150 255 106 150 255 106 150 255 106 150 255 106 150 255 106 150 255 106 150 255 106 150 255 106 150 255 106 150 255 106 150 255 106 150 255 106 150 255 106 150 255 106 150 255 106 150 255 106 150 255 106 150 255 106 150 255 106 150 255 106 150 255 106 150 255 106 150 255 106 150 255 106 150 255 106 150 255 106 150 255 106 150 255 106 150 255 106 150 255 106 150 255 106 150 255 106 150 255 106 150 255 106 150 255 106 150 255 106 150 255 106 150 255 106 150 255 106 150 255 106 150 255 106 150 255 106 150 255 106 150 255 106 150 255 106 150 255 106 150 255 106 150 255 106 150 255 106 150 255 106 150 255 106 150 255 106 150 255 106 150 255 
106 150 255 106 150 255 106 150 255 106 150 255 106 150 255 106 150 255 106 150 255 106 150 255 106 150 255 106 150 255 106 150 255 106 150 255 106 150 255 106 150 255 106 150 255 106 150 255 106 150 255 106 150 255 106 150 255 106 150 255 106 150 255 106 150 255 106 150 255 106 150 255 106 150 255 106 150 255 106 150 255 106 150 255 106 150 255 106 150 255 106 150 255 106 150 255 106 150 255 106 150 255 106 150 255 106 150 255 106 150 255 106 150 255 106 150 255 106 150 255 106 150 255 106 150 255 106 150 255 106 150 255 106 150 255 106 150 255 106 150 255 106 150 255 106 150 255 106 150 255 106 150 255 106 150 255 106 150 255 106 150 255 106 150 255 106 150 255 106 150 255 106 150 255 106 150 255 106 150 255 106 150 255 106 150 255 106 150 255 106 150 255 106 150 255 106 150 255 106 150 255 106 150 255 106 150 255 106 150 255 106 150 255 106 150 255 106 150 255 106 150 255 106 150 255 106 150 255 106 150 255 106 150 255 106 150 255 106 150 255 106 150 255 106 150 255 106 150 255 106 150 255 106 150 255 106 150 255 106 150 255 106 150 255 106 150 255 106 150 255 106 150 255 106 150 255 106 150 255 106 150 255 106 150 255 106 150 255 106 150 255 106 150 255 106 150 255 106 150 255 106 150 255 106 150 255 106 150 255 106 150 255 106 150 255 106 150 255 106 150 255 106 150 255 106 150 255 106 150 255 106 150 255 106 150 255 106 150 255 106 150 255 106 150 255 106 150 255 106 150 255 106 150 255 106 150 255 106 150 255 106 150 255 106 150 255 106 150 255 106 150 255 106 150 255 106 150 255 106 150 255 106 150 255 106 150 255 106 150 255 106 150 255 106 150 255 106 150 255 106 150 255 106 150 255 106 150 255 106 150 255 106 150 255 106 150 255 106 150 255 106 150 255 106 150 255 106 150 255 106 150 255 106 150 255 106 150 255 106 150 255 106 150 255 106 150 255 106 150 255 106 150 255 106 150 255 106 150 255 106 150 255 106 150 255 106 150 255 106 150 255 106 150 255 106 150 255 106 150 255 106 150 255 106 150 255 106 150 255 106 150 255 106 150 255 106 150 255 106 150 255 106 150 255 106 150 255 106 150 255 106 150 255 106 150 255 106 150 255 106 150 255 106 150 255 106 150 255 106 150 255 106 150 255 106 150 255 106 150 255 106 150 255 106 150 255 106 150 255 106 150 255 106 150 255 106 150 255 106 150 255 106 150 255 106 150 255 106 150 255 106 150 255 106 150 255 106 150 255 106 150 255 106 150 255 106 150 255 106 150 255 106 150 255 106 150 255 106 150 255 106 150 255 106 150 255 106 150 255 106 150 255 106 150 255 106 150 255 106 150 255 106 150 255 106 150 255 106 150 255 106 150 255 106 150 255 106 150 255 106 150 255 106 150 255 106 150 255 106 150 255 106 150 255 106 150 255 106 150 255 106 150 255 106 150 255 106 150 255 106 150 255 106 150 255 106 150 255 106 150 255 106 150 255 106 150 255 106 150 255 106 150 255 106 150 255 106 150 255 106 150 255 106 150 255 106 150 255 106 150 255 106 150 255 106 150 255 106 150 255 106 150 255 106 150 255 106 150 255 106 150 255 106 150 255 106 150 255 106 150 255 106 150 255 106 150 255 106 150 255 106 150 255 106 150 255 106 150 255 106 150 255 106 150 255 106 150 255 
106 150 255 106 150 255 106 150 255 106 150 255 106 150 255 106 150 255 106 150 255 106 150 255 106 150 255 106 150 255 106 150 255 106 150 255 106 150 255 106 150 255 106 150 255 106 150 255 106 150 255 106 150 255 106 150 255 106 150 255 106 150 255 106 150 255 106 150 255 106 150 255 106 150 255 106 150 255 106 150 255 106 150 255 106 150 255 106 150 255 106 150 255 106 150 255 106 150 255 106 150 255 106 150 255 106 150 255 106 150 255 106 150 255 106 150 255 106 150 255 106 150 255 106 150 255 106 150 255 106 150 255 106 150 255 106 150 255 106 150 255 106 150 255 106 150 255 106 150 255 106 150 255 106 150 255 106 150 255 106 150 255 106 150 255 106 150 255 106 150 255 106 150 255 106 150 255 106 150 255 106 150 255 106 150 255 106 150 255 106 150 255 106 150 255 106 150 255 106 150 255 106 150 255 106 150 255 106 150 255 106 150 255 106 150 255 106 150 255 106 150 255 106 150 255 106 150 255 106 150 255 106 150 255 106 150 255 106 150 255 106 150 255 106 150 255 106 150 255 106 150 255 106 150 255 106 150 255 106 150 255 106 150 255 106 150 255 106 150 255 106 150 255 106 150 255 106 150 255 106 150 255 106 150 255 106 150 255 106 150 255 106 150 255 106 150 255 106 150 255 106 150 255 106 150 255 106 150 255 106 150 255 106 150 255 106 150 255 106 150 255 106 150 255 106 150 255 106 150 255 106 150 255 106 150 255 106 150 255 106 150 255 106 150 255 106 150 255 106 150 255 106 150 255 106 150 255 106 150 255 106 150 255 106 150 255 106 150 255 106 150 255 106 150 255 106 150 255 106 150 255 106 150 255 106 150 255 106 150 255 106 150 255 106 150 255 106 150 255 106 150 255 106 150 255 106 150 255 106 150 255 106 150 255 106 150 255 106 150 255 106 150 255 106 150 255 106 150 255 106 150 255 106 150 255 106 150 255 106 150 255 106 150 255 106 150 255 106 150 255 106 150 255 106 150 255 106 150 255 106 150 255 106 150 255 106 150 255 106 150 255 106 150 255 106 150 255 106 150 255 106 150 255 106 150 255 106 150 255 106 150 255 106 150 255 106 150 255 106 150 255 106 150 255 106 150 255 106 150 255 106 150 255 106 150 255 106 150 255 106 150 255 106 150 255 106 150 255 106 150 255 106 150 255 106 150 255 106 150 255 106 150 255 106 150 255 106 150 255 106 150 255 106 150 255 106 150 255 106 150 255 106 150 255 106 150 255 106 150 255 106 150 255 106 150 255 106 150 255 106 150 255 106 150 255 106 150 255 106 150 255 106 150 255 106 150 255 106 150 255 106 150 255 106 150 255 106 150 255 106 150 255 106 150 255 106 150 255 106 150 255 106 150 255 106 150 255 106 150 255 106 150 255 106 150 255 106 150 255 106 150 255 106 150 255 106 150 255 106 150 255 106 150 255 106 150 255 106 150 255 106 150 255 106 150 255 106 150 255 106 150 255 106 150 255 106 150 255 106 150 255 106 150 255 106 150 255 106 150 255 106 150 255 106 150 255 106 150 255 106 150 255 106 150 255 106 150 255 106 150 255 106 150 255 106 150 255 106 150 255 106 150 255 106 150 255 106 150 255 106 150 255 106 150 255 106 150 255 106 150 255 106 150 255 106 150 255 106 150 255 106 150 255 106 150 255 106 150 255 106 150 255 106 150 255 106 150 255 
106 150 255 106 150 255 106 150 255 106 150 255 106 150 255 106 150 255 106 150 255 106 150 255 106 150 255 106 150 255 106 150 255 106 150 255 106 150 255 106 150 255 106 150 255 106 150 255 106 150 255 106 150 255 106 150 255 106 150 255 106 150 255 106 150 255 106 150 255 106 150 255 106 150 255 106 150 255 106 150 255 106 150 255 106 150 255 106 150 255 106 150 255 106 150 255 106 150 255 106 150 255 106 150 255 106 150 255 106 150 255 106 150 255 106 150 255 106 150 255 106 150 255 106 150 255 106 150 255 106 150 255 106 150 255 106 150 255 106 150 255 106 150 255 106 150 255 106 150 255 106 150 255 106 150 255 106 150 255 106 150 255 106 150 255 106 150 255 106 150 255 106 150 255 106 150 255 106 150 255 106 150 255 106 150 255 106 150 255 106 150 255 106 150 255 106 150 255 106 150 255 106 150 255 106 150 255 106 150 255 106 150 255 106 150 255 106 150 255 106 150 255 106 150 255 106 150 255 106 150 255 106 150 255 106 150 255 106 150 255 106 150 255 106 150 255 106 150 255 106 150 255 106 150 255 106 150 255 106 150 255 106 150 255 106 150 255 106 150 255 106 150 255 106 150 255 106 150 255 106 150 255 106 150 255 106 150 255 106 150 255 106 150 255 106 150 255 106 150 255 106 150 255 106 150 255 106 150 255 106 150 255 106 150 255 106 150 255 106 150 255 106 150 255 106 150 255 106 150 255 106 150 255 106 150 255 106 150 255 106 150 255 106 150 255 106 150 255 106 150 255 106 150 255 106 150 255 106 150 255 106 150 255 106 150 255 106 150 255 106 150 255 106 150 255 106 150 255 106 150 255 106 150 255 106 150 255 106 150 255 106 150 255 106 150 255 106 150 255 106 150 255 106 150 255 106 150 255 106 150 255 106 150 255 106 150 255 106 150 255 106 150 255 106 150 255 106 150 255 106 150 255 106 150 255 106 150 255 106 150 255 106 150 255 106 150 255 106 150 255 106 150 255 106 150 255 106 150 255 106 150 255 106 150 255 106 150 255 106 150 255 106 150 255 106 150 255 106 150 255 106 150 255 106 150 255 106 150 255 106 150 255 106 150 255 106 150 255 106 150 255 106 150 255 106 150 255 106 150 255 106 150 255 106 150 255 106 150 255 106 150 255 106 150 255 106 150 255 106 150 255 106 150 255 106 150 255 106 150 255 106 150 255 106 150 255 106 150 255 106 150 255 106 150 255 106 150 255 106 150 255 106 150 255 106 150 255 106 150 255 106 150 255 106 150 255 106 150 255 106 150 255 106 150 255 106 150 255 106 150 255 106 150 255 106 150 255 106 150 255 106 150 255 106 150 255 106 150 255 106 150 255 106 150 255 106 150 255 106 150 255 106 150 255 106 150 255 106 150 255 106 150 255 106 150 255 106 150 255 106 150 255 106 150 255 106 150 255 106 150 255 106 150 255 106 150 255 106 150 255 106 150 255 106 150 255 106 150 255 106 150 255 106 150 255 106 150 255 106 150 255 106 150 255 106 150 255 106 150 255 106 150 255 106 150 255 106 150 255 106 150 255 106 150 255 106 150 255 106 150 255 106 150 255 106 150 255 106 150 255 106 150 255 106 150 255 106 150 255 106 150 255 106 150 255 106 150 255 106 150 255 106 150 255 106 150 255 106 150 255 106 150 255 106 150 255 106 150 255 106 150 255 106 150 255 106 150 255 
106 150 255 106 150 255 106 150 255 106 150 255 106 150 255 106 150 255 106 150 255 106 150 255 106 150 255 106 150 255 106 150 255 106 150 255 106 150 255 106 150 255 106 150 255 106 150 255 106 150 255 106 150 255 106 150 255 106 150 255 106 150 255 106 150 255 106 150 255 106 150 255 106 150 255 106 150 255 106 150 255 106 150 255 106 150 255 106 150 255 106 150 255 106 150 255 106 150 255 106 150 255 106 150 255 106 150 255 106 150 255 106 150 255 106 150 255 106 150 255 106 150 255 106 150 255 106 150 255 106 150 255 106 150 255 106 150 255 106 150 255 106 150 255 106 150 255 106 150 255 106 150 255 106 150 255 106 150 255 106 150 255 106 150 255 106 150 255 106 150 255 106 150 255 106 150 255 106 150 255 106 150 255 106 150 255 106 150 255 106 150 255 106 150 255 106 150 255 106 150 255 106 150 255 106 150 255 106 150 255 106 150 255 106 150 255 106 150 255 106 150 255 106 150 255 106 150 255 106 150 255 106 150 255 106 150 255 106 150 255 106 150 255 106 150 255 106 150 255 106 150 255 106 150 255 106 150 255 106 150 255 106 150 255 106 150 255 106 150 255 106 150 255 106 150 255 106 150 255 106 150 255 106 150 255 106 150 255 106 150 255 106 150 255 106 150 255 106 150 255 106 150 255 106 150 255 106 150 255 106 150 255 106 150 255 106 150 255 106 150 255 106 150 255 106 150 255 106 150 255 106 150 255 106 150 255 106 150 255 106 150 255 106 150 255 106 150 255 106 150 255 106 150 255 106 150 255 106 150 255 106 150 255 106 150 255 106 150 255 106 150 255 106 150 255 106 150 255 106 150 255 106 150 255 106 150 255 106 150 255 106 150 255 106 150 255 106 150 255 106 150 255 106 150 255 106 150 255 106 150 255 106 150 255 106 150 255 106 150 255 106 150 255 106 150 255 106 150 255 106 150 255 106 150 255 106 150 255 106 150 255 106 150 255 106 150 255 106 150 255 106 150 255 106 150 255 106 150 255 106 150 255 106 150 255 106 150 255 106 150 255 106 150 255 106 150 255 106 150 255 106 150 255 106 150 255 106 150 255 106 150 255 106 150 255 106 150 255 106 150 255 106 150 255 106 150 255 106 150 255 106 150 255 106 150 255 106 150 255 106 150 255 106 150 255 106 150 255 106 150 255 106 150 255 106 150 255 106 150 255 106 150 255 106 150 255 106 150 255 106 150 255 106 150 255 106 150 255 106 150 255 106 150 255 106 150 255 106 150 255 106 150 255 106 150 255 106 150 255 106 150 255 106 150 255 106 150 255 106 150 255 106 150 255 106 150 255 106 150 255 106 150 255 106 150 255 106 150 255 106 150 255 106 150 255 106 150 255 106 150 255 106 150 255 106 150 255 106 150 255 106 150 255 106 150 255 106 150 255 106 150 255 106 150 255 106 150 255 106 150 255 106 150 255 106 150 255 106 150 255 106 150 255 106 150 255 106 150 255 106 150 255 106 150 255 106 150 255 106 150 255 106 150 255 106 150 255 106 150 255 106 150 255 106 150 255 106 150 255 106 150 255 106 150 255 106 150 255 106 150 255 106 150 255 106 150 255 106 150 255 106 150 255 106 150 255 106 150 255 106 150 255 106 150 255 106 150 255 106 150 255 106 150 255 106 150 255 106 150 255 106 150 255 106 150 255 106 150 255 106 150 255 106 150 255 106 150 255 
106 150 255 106 150 255 106 150 255 106 150 255 106 150 255 106 150 255 106 150 255 106 150 255 106 150 255 106 150 255 106 150 255 106 150 255 106 150 255 106 150 255 106 150 255 106 150 255 106 150 255 106 150 255 106 150 255 106 150 255 106 150 255 106 150 255 106 150 255 106 150 255 106 150 255 106 150 255 106 150 255 106 150 255 106 150 255 106 150 255 106 150 255 106 150 255 106 150 255 106 150 255 106 150 255 106 150 255 106 150 255 106 150 255 106 150 255 106 150 255 106 150 255 106 150 255 106 150 255 106 150 255 106 150 255 106 150 255 106 150 255 106 150 255 106 150 255 106 150 255 106 150 255 106 150 255 106 150 255 106 150 255 106 150 255 106 150 255 106 150 255 106 150 255 106 150 255 106 150 255 106 150 255 106 150 255 106 150 255 106 150 255 106 150 255 106 150 255 106 150 255 106 150 255 106 150 255 106 150 255 106 150 255 106 150 255 106 150 255 106 150 255 106 150 255 106 150 255 106 150 255 106 150 255 106 150 255 106 150 255 106 150 255 106 150 255 106 150 255 106 150 255 106 150 255 106 150 255 106 150 255 106 150 255 106 150 255 106 150 255 106 150 255 106 150 255 106 150 255 106 150 255 106 150 255 106 150 255 106 150 255 106 150 255 106 150 255 106 150 255 106 150 255 106 150 255 106 150 255 106 150 255 106 150 255 106 150 255 106 150 255 106 150 255 106 150 255 106 150 255 106 150 255 106 150 255 106 150 255 106 150 255 106 150 255 106 150 255 106 150 255 106 150 255 106 150 255 106 150 255 106 150 255 106 150 255 106 150 255 106 150 255 106 150 255 106 150 255 106 150 255 106 150 255 106 150 255 106 150 255 106 150 255 106 150 255 106 150 255 106 150 255 106 150 255 106 150 255 106 150 255 106 150 255 106 150 255 106 150 255 106 150 255 106 150 255 106 150 255 106 150 255 106 150 255 106 150 255 106 150 255 106 150 255 106 150 255 106 150 255 106 150 255 106 150 255 106 150 255 106 150 255 106 150 255 106 150 255 106 150 255 106 150 255 106 150 255 106 150 255 106 150 255 106 150 255 106 150 255 106 150 255 106 150 255 106 150 255 106 150 255 106 150 255 106 150 255 106 150 255 106 150 255 106 150 255 106 150 255 106 150 255 106 150 255 106 150 255 106 150 255 106 150 255 106 150 255 106 150 255 106 150 255 106 150 255 106 150 255 106 150 255 106 150 255 106 150 255 106 150 255 106 150 255 106 150 255 106 150 255 106 150 255 106 150 255 106 150 255 106 150 255 106 150 255 106 150 255 106 150 255 106 150 255 106 150 255 106 150 255 106 150 255 106 150 255 106 150 255 106 150 255 106 150 255 106 150 255 106 150 255 106 150 255 106 150 255 106 150 255 106 150 255 106 150 255 106 150 255 106 150 255 106 150 255 106 150 255 106 150 255 106 150 255 106 150 255 106 150 255 106 150 255 106 150 255 106 150 255 106 150 255 106 150 255 106 150 255 106 150 255 106 150 255 106 150 255 106 150 255 106 150 255 106 150 255 106 150 255 106 150 255 106 150 255 106 150 255 106 150 255 106 150 255 106 150 255 106 150 255 106 150 255 106 150 255 106 150 255 106 150 255 106 150 255 106 150 255 106 150 255 106 150 255 106 150 255 106 150 255 106 150 255 106 150 255 106 150 255 106 150 255 106 150 255 106 150 255 
106 150 255 106 150 255 106 150 255 106 150 255 106 150 255 106 150 255 106 150 255 106 150 255 106 150 255 106 150 255 106 150 255 106 150 255 106 150 255 106 150 255 106 150 255 106 150 255 106 150 255 106 150 255 106 150 255 106 150 255 106 150 255 106 150 255 106 150 255 106 150 255 106 150 255 106 150 255 106 150 255 106 150 255 106 150 255 106 150 255 106 150 255 106 150 255 106 150 255 106 150 255 106 150 255 106 150 255 106 150 255 106 150 255 106 150 255 106 150 255 106 150 255 106 150 255 106 150 255 106 150 255 106 150 255 106 150 255 106 150 255 106 150 255 106 150 255 106 150 255 106 150 255 106 150 255 106 150 255 106 150 255 106 150 255 106 150 255 106 150 255 106 150 255 106 150 255 106 150 255 106 150 255 106 150 255 106 150 255 106 150 255 106 150 255 106 150 255 106 150 255 106 150 255 106 150 255 106 150 255 106 150 255 106 150 255 106 150 255 106 150 255 106 150 255 106 150 255 106 150 255 106 150 255 106 150 255 106 150 255 106 150 255 106 150 255 106 150 255 106 150 255 106 150 255 106 150 255 106 150 255 106 150 255 106 150 255 106 150 255 106 150 255 106 150 255 106 150 255 106 150 255 106 150 255 106 150 255 106 150 255 106 150 255 106 150 255 106 150 255 106 150 255 106 150 255 106 150 255 106 150 255 106 150 255 106 150 255 106 150 255 106 150 255 106 150 255 106 150 255 106 150 255 106 150 255 106 150 255 106 150 255 106 150 255 106 150 255 106 150 255 106 150 255 106 150 255 106 150 255 106 150 255 106 150 255 106 150 255 106 150 255 106 150 255 106 150 255 106 150 255 106 150 255 106 150 255 106 150 255 106 150 255 106 150 255 106 150 255 106 150 255 106 150 255 106 150 255 106 150 255 106 150 255 106 150 255 106 150 255 106 150 255 106 150 255 106 150 255 106 150 255 106 150 255 106 150 255 106 150 255 106 150 255 106 150 255 106 150 255 106 150 255 106 150 255 106 150 255 106 150 255 106 150 255 106 150 255 106 150 255 106 150 255 106 150 255 106 150 255 106 150 255 106 150 255 106 150 255 106 150 255 106 150 255 106 150 255 106 150 255 106 150 255 106 150 255 106 150 255 106 150 255 106 150 255 106 150 255 106 150 255 106 150 255 106 150 255 106 150 255 106 150 255 106 150 255 106 150 255 106 150 255 106 150 255 106 150 255 106 150 255 106 150 255 106 150 255 106 150 255 106 150 255 106 150 255 106 150 255 106 150 255 106 150 255 106 150 255 106 150 255 106 150 255 106 150 255 106 150 255 106 150 255 106 150 255 106 150 255 106 150 255 106 150 255 106 150 255 106 150 255 106 150 255 106 150 255 106 150 255 106 150 255 106 150 255 106 150 255 106 150 255 106 150 255 106 150 255 106 150 255 106 150 255 106 150 255 106 150 255 106 150 255 106 150 255 106 150 255 106 150 255 106 150 255 106 150 255 106 150 255 106 150 255 106 150 255 106 150 255 106 150 255 106 150 255 106 150 255 106 150 255 106 150 255 106 150 255 106 150 255 106 150 255 106 150 255 106 150 255 106 150 255 106 150 255 106 150 255 106 150 255 106 150 255 106 150 255 106 150 255 106 150 255 106 150 255 106 150 255 106 150 255 106 150 255 106 150 255 106 150 255 106 150 255 106 150 255 106 150 255 106 150 255 106 150 255 
106 150 255 106 150 255 106 150 255 106 150 255 106 150 255 106 150 255 106 150 255 106 150 255 106 150 255 106 150 255 106 150 255 106 150 255 106 150 255 106 150 255 106 150 255 106 150 255 106 150 255 106 150 255 106 150 255 106 150 255 106 150 255 106 150 255 106 150 255 106 150 255 106 150 255 106 150 255 106 150 255 106 150 255 106 150 255 106 150 255 106 150 255 106 150 255 106 150 255 106 150 255 106 150 255 106 150 255 106 150 255 106 150 255 106 150 255 106 150 255 106 150 255 106 150 255 106 150 255 106 150 255 106 150 255 106 150 255 106 150 255 106 150 255 106 150 255 106 150 255 106 150 255 106 150 255 106 150 255 106 150 255 106 150 255 106 150 255 106 150 255 106 150 255 106 150 255 106 150 255 106 150 255 106 150 255 106 150 255 106 150 255 106 150 255 106 150 255 106 150 255 106 150 255 106 150 255 106 150 255 106 150 255 106 150 255 106 150 255 106 150 255 106 150 255 106 150 255 106 150 255 106 150 255 106 150 255 106 150 255 106 150 255 106 150 255 106 150 255 106 150 255 106 150 255 106 150 255 106 150 255 106 150 255 106 150 255 106 150 255 106 150 255 106 150 255 106 150 255 106 150 255 106 150 255 106 150 255 106 150 255 106 150 255 106 150 255 106 150 255 106 150 255 106 150 255 106 150 255 106 150 255 106 150 255 106 150 255 106 150 255 106 150 255 106 150 255 106 150 255 106 150 255 106 150 255 106 150 255 106 150 255 106 150 255 106 150 255 106 150 255 106 150 255 106 150 255 106 150 255 106 150 255 106 150 255 106 150 255 106 150 255 106 150 255 106 150 255 106 150 255 106 150 255 106 150 255 106 150 255 106 150 255 106 150 255 106 150 255 106 150 255 106 150 255 106 150 255 106 150 255 106 150 255 106 150 255 106 150 255 106 150 255 106 150 255 106 150 255 106 150 255 106 150 255 106 150 255 106 150 255 106 150 255 106 150 255 106 150 255 106 150 255 106 150 255 106 150 255 106 150 255 106 150 255 106 150 255 106 150 255 106 150 255 106 150 255 106 150 255 106 150 255 106 150 255 106 150 255 106 150 255 106 150 255 106 150 255 106 150 255 106 150 255 106 150 255 106 150 255 106 150 255 106 150 255 106 150 255 106 150 255 106 150 255 106 150 255 106 150 255 106 150 255 106 150 255 106 150 255 106 150 255 106 150 255 106 150 255 106 150 255 106 150 255 106 150 255 106 150 255 106 150 255 106 150 255 106 150 255 106 150 255 106 150 255 106 150 255 106 150 255 106 150 255 106 150 255 106 150 255 106 150 255 106 150 255 106 150 255 106 150 255 106 150 255 106 150 255 106 150 255 106 150 255 106 150 255 106 150 255 106 150 255 106 150 255 106 150 255 106 150 255 106 150 255 106 150 255 106 150 255 106 150 255 106 150 255 106 150 255 106 150 255 106 150 255 106 150 255 106 150 255 106 150 255 106 150 255 106 150 255 106 150 255 106 150 255 106 150 255 106 150 255 106 150 255 106 150 255 106 150 255 106 150 255 106 150 255 106 150 255 106 150 255 106 150 255 106 150 255 106 150 255 106 150 255 106 150 255 106 150 255 106 150 255 106 150 255 106 150 255 106 150 255 106 150 255 106 150 255 106 150 255 106 150 255 106 150 255 106 150 255 106 150 255 106 150 255 106 150 255 106 150 255 106 150 255 
106 150 255 106 150 255 106 150 255 106 150 255 106 150 255 106 150 255 106 150 255 106 150 255 106 150 255 106 150 255 106 150 255 106 150 255 106 150 255 106 150 255 106 150 255 106 150 255 106 150 255 106 150 255 106 150 255 106 150 255 106 150 255 106 150 255 106 150 255 106 150 255 106 150 255 106 150 255 106 150 255 106 150 255 106 150 255 106 150 255 106 150 255 106 150 255 106 150 255 106 150 255 106 150 255 106 150 255 106 150 255 106 150 255 106 150 255 106 150 255 106 150 255 106 150 255 106 150 255 106 150 255 106 150 255 106 150 255 106 150 255 106 150 255 106 150 255 106 150 255 106 150 255 106 150 255 106 150 255 106 150 255 106 150 255 106 150 255 106 150 255 106 150 255 106 150 255 106 150 255 106 150 255 106 150 255 106 150 255 106 150 255 106 150 255 106 150 255 106 150 255 106 150 255 106 150 255 106 150 255 106 150 255 106 150 255 106 150 255 106 150 255 106 150 255 106 150 255 106 150 255 106 150 255 106 150 255 106 150 255 106 150 255 106 150 255 106 150 255 106 150 255 106 150 255 106 150 255 106 150 255 106 150 255 106 150 255 106 150 255 106 150 255 106 150 255 106 150 255 106 150 255 106 150 255 106 150 255 106 150 255 106 150 255 106 150 255 106 150 255 106 150 255 106 150 255 106 150 255 106 150 255 106 150 255 106 150 255 106 150 255 106 150 255 106 150 255 106 150 255 106 150 255 106 150 255 106 150 255 106 150 255 106 150 255 106 150 255 106 150 255 106 150 255 106 150 255 106 150 255 106 150 255 106 150 255 106 150 255 106 150 255 106 150 255 106 150 255 106 150 255 106 150 255 106 150 255 106 150 255 106 150 255 106 150 255 106 150 255 106 150 255 106 150 255 106 150 255 106 150 255 106 150 255 106 150 255 106 150 255 106 150 255 106 150 255 106 150 255 106 150 255 106 150 255 106 150 255 106 150 255 106 150 255 106 150 255 106 150 255 106 150 255 106 150 255 106 150 255 106 150 255 106 150 255 106 150 255 106 150 255 106 150 255 106 150 255 106 150 255 106 150 255 106 150 255 106 150 255 106 150 255 106 150 255 106 150 255 106 150 255 106 150 255 106 150 255 106 150 255 106 150 255 106 150 255 106 150 255 106 150 255 106 150 255 106 150 255 106 150 255 106 150 255 106 150 255 106 150 255 106 150 255 106 150 255 106 150 255 106 150 255 106 150 255 106 150 255 106 150 255 106 150 255 106 150 255 106 150 255 106 150 255 106 150 255 106 150 255 106 150 255 106 150 255 106 150 255 106 150 255 106 150 255 106 150 255 106 150 255 106 150 255 106 150 255 106 150 255 106 150 255 106 150 255 106 150 255 106 150 255 106 150 255 106 150 255 106 150 255 106 150 255 106 150 255 106 150 255 106 150 255 106 150 255 106 150 255 106 150 255 106 150 255 106 150 255 106 150 255 106 150 255 106 150 255 106 150 255 106 150 255 106 150 255 106 150 255 106 150 255 106 150 255 106 150 255 106 150 255 106 150 255 106 150 255 106 150 255 106 150 255 106 150 255 106 150 255 106 150 255 106 150 255 106 150 255 106 150 255 106 150 255 106 150 255 106 150 255 106 150 255 106 150 255 106 150 255 106 150 255 106 150 255 106 150 255 106 150 255 106 150 255 106 150 255 106 150 255 106 150 255 106 150 255 106 150 255 
106 150 255 106 150 255 106 150 255 106 150 255 106 150 255 106 150 255 106 150 255 106 150 255 106 150 255 106 150 255 106 150 255 106 150 255 106 150 255 106 150 255 106 150 255 106 150 255 106 150 255 106 150 255 106 150 255 106 150 255 106 150 255 106 150 255 106 150 255 106 150 255 106 150 255 106 150 255 106 150 255 106 150 255 106 150 255 106 150 255 106 150 255 106 150 255 106 150 255 106 150 255 106 150 255 106 150 255 106 150 255 106 150 255 106 150 255 106 150 255 106 150 255 106 150 255 106 150 255 106 150 255 106 150 255 106 150 255 106 150 255 106 150 255 106 150 255 106 150 255 106 150 255 106 150 255 106 150 255 106 150 255 106 150 255 106 150 255 106 150 255 106 150 255 106 150 255 106 150 255 106 150 255 106 150 255 106 150 255 106 150 255 106 150 255 106 150 255 106 150 255 106 150 255 106 150 255 106 150 255 106 150 255 106 150 255 106 150 255 106 150 255 106 150 255 106 150 255 106 150 255 106 150 255 106 150 255 106 150 255 106 150 255 106 150 255 106 150 255 106 150 255 106 150 255 106 150 255 106 150 255 106 150 255 106 150 255 106 150 255 106 150 255 106 150 255 106 150 255 106 150 255 106 150 255 106 150 255 106 150 255 106 150 255 106 150 255 106 150 255 106 150 255 106 150 255 106 150 255 106 150 255 106 150 255 106 150 255 106 150 255 106 150 255 106 150 255 106 150 255 106 150 255 106 150 255 106 150 255 106 150 255 106 150 255 106 150 255 106 150 255 106 150 255 106 150 255 106 150 255 106 150 255 106 150 255 106 150 255 106 150 255 106 150 255 106 150 255 106 150 255 106 150 255 106 150 255 106 150 255 106 150 255 106 150 255 106 150 255 106 150 255 106 150 255 106 150 255 106 150 255 106 150 255 106 150 255 106 150 255 106 150 255 106 150 255 106 150 255 106 150 255 106 150 255 106 150 255 106 150 255 106 150 255 106 150 255 106 150 255 106 150 255 106 150 255 106 150 255 106 150 255 106 150 255 106 150 255 106 150 255 106 150 255 106 150 255 106 150 255 106 150 255 106 150 255 106 150 255 106 150 255 106 150 255 106 150 255 106 150 255 106 150 255 106 150 255 106 150 255 106 150 255 106 150 255 106 150 255 106 150 255 106 150 255 106 150 255 106 150 255 106 150 255 106 150 255 106 150 255 106 150 255 106 150 255 106 150 255 106 150 255 106 150 255 106 150 255 106 150 255 106 150 255 106 150 255 106 150 255 106 150 255 106 150 255 106 150 255 106 150 255 106 150 255 106 150 255 106 150 255 106 150 255 106 150 255 106 150 255 106 150 255 106 150 255 106 150 255 106 150 255 106 150 255 106 150 255 106 150 255 106 150 255 106 150 255 106 150 255 106 150 255 106 150 255 106 150 255 106 150 255 106 150 255 106 150 255 106 150 255 106 150 255 106 150 255 106 150 255 106 150 255 106 150 255 106 150 255 106 150 255 106 150 255 106 150 255 106 150 255 106 150 255 106 150 255 106 150 255 106 150 255 106 150 255 106 150 255 106 150 255 106 150 255 106 150 255 106 150 255 106 150 255 106 150 255 106 150 255 106 150 255 106 150 255 106 150 255 106 150 255 106 150 255 106 150 255 106 150 255 106 150 255 106 150 255 106 150 255 106 150 255 106 150 255 106 150 255 106 150 255 106 150 255 106 150 255 
106 150 255 106 150 255 106 150 255 106 150 255 106 150 255 106 150 255 106 150 255 106 150 255 106 150 255 106 150 255 106 150 255 106 150 255 106 150 255 106 150 255 106 150 255 106 150 255 106 150 255 106 150 255 106 150 255 106 150 255 106 150 255 106 150 255 106 150 255 106 150 255 106 150 255 106 150 255 106 150 255 106 150 255 106 150 255 106 150 255 106 150 255 106 150 255 106 150 255 106 150 255 106 150 255 106 150 255 106 150 255 106 150 255 106 150 255 106 150 255 106 150 255 106 150 255 106 150 255 106 150 255 106 150 255 106 150 255 106 150 255 106 150 255 106 150 255 106 150 255 106 150 255 106 150 255 106 150 255 106 150 255 106 150 255 106 150 255 106 150 255 106 150 255 106 150 255 106 150 255 106 150 255 106 150 255 106 150 255 106 150 255 106 150 255 106 150 255 106 150 255 106 150 255 106 150 255 106 150 255 106 150 255 106 150 255 106 150 255 106 150 255 106 150 255 106 150 255 106 150 255 106 150 255 106 150 255 106 150 255 106 150 255 106 150 255 106 150 255 106 150 255 106 150 255 106 150 255 106 150 255 106 150 255 106 150 255 106 150 255 106 150 255 106 150 255 106 150 255 106 150 255 106 150 255 106 150 255 106 150 255 106 150 255 106 150 255 106 150 255 106 150 255 106 150 255 106 150 255 106 150 255 106 150 255 106 150 255 106 150 255 106 150 255 106 150 255 106 150 255 106 150 255 106 150 255 106 150 255 106 150 255 106 150 255 106 150 255 106 150 255 106 150 255 106 150 255 106 150 255 106 150 255 106 150 255 106 150 255 106 150 255 106 150 255 106 150 255 106 150 255 106 150 255 106 150 255 106 150 255 106 150 255 106 150 255 106 150 255 106 150 255 106 150 255 106 150 255 106 150 255 106 150 255 106 150 255 106 150 255 106 150 255 106 150 255 106 150 255 106 150 255 106 150 255 106 150 255 106 150 255 106 150 255 106 150 255 106 150 255 106 150 255 106 150 255 106 150 255 106 150 255 106 150 255 106 150 255 106 150 255 106 150 255 106 150 255 106 150 255 106 150 255 106 150 255 106 150 255 106 150 255 106 150 255 106 150 255 106 150 255 106 150 255 106 150 255 106 150 255 106 150 255 106 150 255 106 150 255 106 150 255 106 150 255 106 150 255 106 150 255 106 150 255 106 150 255 106 150 255 106 150 255 106 150 255 106 150 255 106 150 255 106 150 255 106 150 255 106 150 255 106 150 255 106 150 255 106 150 255 106 150 255 106 150 255 106 150 255 106 150 255 106 150 255 106 150 255 106 150 255 106 150 255 106 150 255 106 150 255 106 150 255 106 150 255 106 150 255 106 150 255 106 150 255 106 150 255 106 150 255 106 150 255 106 150 255 106 150 255 106 150 255 106 150 255 106 150 255 106 150 255 106 150 255 106 150 255 106 150 255 106 150 255 106 150 255 106 150 255 106 150 255 106 150 255 106 150 255 106 150 255 106 150 255 106 150 255 106 150 255 106 150 255 106 150 255 106 150 255 106 150 255 106 150 255 106 150 255 106 150 255 106 150 255 106 150 255 106 150 255 106 150 255 106 150 255 106 150 255 106 150 255 106 150 255 106 150 255 106 150 255 106 150 255 106 150 255 106 150 255 106 150 255 106 150 255 106 150 255 106 150 255 106 150 255 106 150 255 106 150 255 106 150 255 106 150 255 
106 150 255 106 150 255 106 150 255 106 150 255 106 150 255 106 150 255 106 150 255 106 150 255 106 150 255 106 150 255 106 150 255 106 150 255 106 150 255 106 150 255 106 150 255 106 150 255 106 150 255 106 150 255 106 150 255 106 150 255 106 150 255 106 150 255 106 150 255 106 150 255 106 150 255 106 150 255 106 150 255 106 150 255 106 150 255 106 150 255 106 150 255 106 150 255 106 150 255 106 150 255 106 150 255 106 150 255 106 150 255 106 150 255 106 150 255 106 150 255 106 150 255 106 150 255 106 150 255 106 150 255 106 150 255 106 150 255 106 150 255 106 150 255 106 150 255 106 150 255 106 150 255 106 150 255 106 150 255 106 150 255 106 150 255 106 150 255 106 150 255 106 150 255 106 150 255 106 150 255 106 150 255 106 150 255 106 150 255 106 150 255 106 150 255 106 150 255 106 150 255 106 150 255 106 150 255 106 150 255 106 150 255 106 150 255 106 150 255 106 150 255 106 150 255 106 150 255 106 150 255 106 150 255 106 150 255 106 150 255 106 150 255 106 150 255 106 150 255 106 150 255 106 150 255 106 150 255 106 150 255 106 150 255 106 150 255 106 150 255 106 150 255 106 150 255 106 150 255 106 150 255 106 150 255 106 150 255 106 150 255 106 150 255 106 150 255 106 150 255 106 150 255 106 150 255 106 150 255 106 150 255 106 150 255 106 150 255 106 150 255 106 150 255 106 150 255 106 150 255 106 150 255 106 150 255 106 150 255 106 150 255 106 150 255 106 150 255 106 150 255 106 150 255 106 150 255 106 150 255 106 150 255 106 150 255 106 150 255 106 150 255 106 150 255 106 150 255 106 150 255 106 150 255 106 150 255 106 150 255 106 150 255 106 150 255 106 150 255 106 150 255 106 150 255 106 150 255 106 150 255 106 150 255 106 150 255 106 150 255 106 150 255 106 150 255 106 150 255 106 150 255 106 150 255 106 150 255 106 150 255 106 150 255 106 150 255 106 150 255 106 150 255 106 150 255 106 150 255 106 150 255 106 150 255 106 150 255 106 150 255 106 150 255 106 150 255 106 150 255 106 150 255 106 150 255 106 150 255 106 150 255 106 150 255 106 150 255 106 150 255 106 150 255 106 150 255 106 150 255 106 150 255 106 150 255 106 150 255 106 150 255 106 150 255 106 150 255 106 150 255 106 150 255 106 150 255 106 150 255 106 150 255 106 150 255 106 150 255 106 150 255 106 150 255 106 150 255 106 150 255 106 150 255 106 150 255 106 150 255 106 150 255 106 150 255 106 150 255 106 150 255 106 150 255 106 150 255 106 150 255 106 150 255 106 150 255 106 150 255 106 150 255 106 150 255 106 150 255 106 150 255 106 150 255 106 150 255 106 150 255 106 150 255 106 150 255 106 150 255 106 150 255 106 150 255 106 150 255 106 150 255 106 150 255 106 150 255 106 150 255 106 150 255 106 150 255 106 150 255 106 150 255 106 150 255 106 150 255 106 150 255 106 150 255 106 150 255 106 150 255 106 150 255 106 150 255 106 150 255 106 150 255 106 150 255 106 150 255 106 150 255 106 150 255 106 150 255 106 150 255 106 150 255 106 150 255 106 150 255 106 150 255 106 150 255 106 150 255 106 150 255 106 150 255 106 150 255 106 150 255 106 150 255 106 150 255 106 150 255 106 150 255 106 150 255 106 150 255 106 150 255 106 150 255 106 150 255 
106 150 255 106 150 255 106 150 255 106 150 255 106 150 255 106 150 255 106 150 255 106 150 255 106 150 255 106 150 255 106 150 255 106 150 255 106 150 255 106 150 255 106 150 255 106 150 255 106 150 255 106 150 255 106 150 255 106 150 255 106 150 255 106 150 255 106 150 255 106 150 255 106 150 255 106 150 255 106 150 255 106 150 255 106 150 255 106 150 255 106 150 255 106 150 255 106 150 255 106 150 255 106 150 255 106 150 255 106 150 255 106 150 255 106 150 255 106 150 255 106 150 255 106 150 255 106 150 255 106 150 255 106 150 255 106 150 255 106 150 255 106 150 255 106 150 255 106 150 255 106 150 255 106 150 255 106 150 255 106 150 255 106 150 255 106 150 255 106 150 255 106 150 255 106 150 255 106 150 255 106 150 255 106 150 255 106 150 255 106 150 255 106 150 255 106 150 255 106 150 255 106 150 255 106 150 255 106 150 255 106 150 255 106 150 255 106 150 255 106 150 255 106 150 255 106 150 255 106 150 255 106 150 255 106 150 255 106 150 255 106 150 255 106 150 255 106 150 255 106 150 255 106 150 255 106 150 255 106 150 255 106 150 255 106 150 255 106 150 255 106 150 255 106 150 255 106 150 255 106 150 255 106 150 255 106 150 255 106 150 255 106 150 255 106 150 255 106 150 255 106 150 255 106 150 255 106 150 255 106 150 255 106 150 255 106 150 255 106 150 255 106 150 255 106 150 255 106 150 255 106 150 255 106 150 255 106 150 255 106 150 255 106 150 255 106 150 255 106 150 255 106 150 255 106 150 255 106 150 255 106 150 255 106 150 255 106 150 255 106 150 255 106 150 255 106 150 255 106 150 255 106 150 255 106 150 255 106 150 255 106 150 255 106 150 255 106 150 255 106 150 255 106 150 255 106 150 255 106 150 255 106 150 255 106 150 255 106 150 255 106 150 255 106 150 255 106 150 255 106 150 255 106 150 255 106 150 255 106 150 255 106 150 255 106 150 255 106 150 255 106 150 255 106 150 255 106 150 255 106 150 255 106 150 255 106 150 255 106 150 255 106 150 255 106 150 255 106 150 255 106 150 255 106 150 255 106 150 255 106 150 255 106 150 255 106 150 255 106 150 255 106 150 255 106 150 255 106 150 255 106 150 255 106 150 255 106 150 255 106 150 255 106 150 255 106 150 255 106 150 255 106 150 255 106 150 255 106 150 255 106 150 255 106 150 255 106 150 255 106 150 255 106 150 255 106 150 255 106 150 255 106 150 255 106 150 255 106 150 255 106 150 255 106 150 255 106 150 255 106 150 255 106 150 255 106 150 255 106 150 255 106 150 255 106 150 255 106 150 255 106 150 255 106 150 255 106 150 255 106 150 255 106 150 255 106 150 255 106 150 255 106 150 255 106 150 255 106 150 255 106 150 255 106 150 255 106 150 255 106 150 255 106 150 255 106 150 255 106 150 255 106 150 255 106 150 255 106 150 255 106 150 255 106 150 255 106 150 255 106 150 255 106 150 255 106 150 255 106 150 255 106 150 255 106 150 255 106 150 255 106 150 255 106 150 255 106 150 255 106 150 255 106 150 255 106 150 255 106 150 255 106 150 255 106 150 255 106 150 255 106 150 255 106 150 255 106 150 255 106 150 255 106 150 255 106 150 255 106 150 255 106 150 255 106 150 255 106 150 255 106 150 255 106 150 255 106 150 255 106 150 255 106 150 255 106 150 255 
106 150 255 106 150 255 106 150 255 106 150 255 106 150 255 106 150 255 106 150 255 106 150 255 106 150 255 106 150 255 106 150 255 106 150 255 106 150 255 106 150 255 106 150 255 106 150 255 106 150 255 106 150 255 106 150 255 106 150 255 106 150 255 106 150 255 106 150 255 106 150 255 106 150 255 106 150 255 106 150 255 106 150 255 106 150 255 106 150 255 106 150 255 106 150 255 106 150 255 106 150 255 106 150 255 106 150 255 106 150 255 106 150 255 106 150 255 106 150 255 106 150 255 106 150 255 106 150 255 106 150 255 106 150 255 106 150 255 106 150 255 106 150 255 106 150 255 106 150 255 106 150 255 106 150 255 106 150 255 106 150 255 106 150 255 106 150 255 106 150 255 106 150 255 106 150 255 106 150 255 106 150 255 106 150 255 106 150 255 106 150 255 106 150 255 106 150 255 106 150 255 106 150 255 106 150 255 106 150 255 106 150 255 106 150 255 106 150 255 106 150 255 106 150 255 106 150 255 106 150 255 106 150 255 106 150 255 106 150 255 106 150 255 106 150 255 106 150 255 106 150 255 106 150 255 106 150 255 106 150 255 106 150 255 106 150 255 106 150 255 106 150 255 106 150 255 106 150 255 106 150 255 106 150 255 106 150 255 106 150 255 106 150 255 106 150 255 106 150 255 106 150 255 106 150 255 106 150 255 106 150 255 106 150 255 106 150 255 106 150 255 106 150 255 106 150 255 106 150 255 106 150 255 106 150 255 106 150 255 106 150 255 106 150 255 106 150 255 106 150 255 106 150 255 106 150 255 106 150 255 106 150 255 106 150 255 106 150 255 106 150 255 106 150 255 106 150 255 106 150 255 106 150 255 106 150 255 106 150 255 106 150 255 106 150 255 106 150 255 106 150 255 106 150 255 106 150 255 106 150 255 106 150 255 106 150 255 106 150 255 106 150 255 106 150 255 106 150 255 106 150 255 106 150 255 106 150 255 106 150 255 106 150 255 106 150 255 106 150 255 106 150 255 106 150 255 106 150 255 106 150 255 106 150 255 106 150 255 106 150 255 106 150 255 106 150 255 106 150 255 106 150 255 106 150 255 106 150 255 106 150 255 106 150 255 106 150 255 106 150 255 106 150 255 106 150 255 106 150 255 106 150 255 106 150 255 106 150 255 106 150 255 106 150 255 106 150 255 106 150 255 106 150 255 106 150 255 106 150 255 106 150 255 106 150 255 106 150 255 106 150 255 106 150 255 106 150 255 106 150 255 106 150 255 106 150 255 106 150 255 106 150 255 106 150 255 106 150 255 106 150 255 106 150 255 106 150 255 106 150 255 106 150 255 106 150 255 106 150 255 106 150 255 106 150 255 106 150 255 106 150 255 106 150 255 106 150 255 106 150 255 106 150 255 106 150 255 106 150 255 106 150 255 106 150 255 106 150 255 106 150 255 106 150 255 106 150 255 106 150 255 106 150 255 106 150 255 106 150 255 106 150 255 106 150 255 106 150 255 106 150 255 106 150 255 106 150 255 106 150 255 106 150 255 106 150 255 106 150 255 106 150 255 106 150 255 106 150 255 106 150 255 106 150 255 106 150 255 106 150 255 106 150 255 106 150 255 106 150 255 106 150 255 106 150 255 106 150 255 106 150 255 106 150 255 106 150 255 106 150 255 106 150 255 106 150 255 106 150 255 106 150 255 106 150 255 106 150 255 106 150 255 106 150 255 106 150 255 
106 150 255 106 150 255 106 150 255 106 150 255 106 150 255 106 150 255 106 150 255 106 150 255 106 150 255 106 150 255 106 150 255 106 150 255 106 150 255 106 150 255 106 150 255 106 150 255 106 150 255 106 150 255 106 150 255 106 150 255 106 150 255 106 150 255 106 150 255 106 150 255 106 150 255 106 150 255 106 150 255 106 150 255 106 150 255 106 150 255 106 150 255 106 150 255 106 150 255 106 150 255 106 150 255 106 150 255 106 150 255 106 150 255 106 150 255 106 150 255 106 150 255 106 150 255 106 150 255 106 150 255 106 150 255 106 150 255 106 150 255 106 150 255 106 150 255 106 150 255 106 150 255 106 150 255 106 150 255 106 150 255 106 150 255 106 150 255 106 150 255 106 150 255 106 150 255 106 150 255 106 150 255 106 150 255 106 150 255 106 150 255 106 150 255 106 150 255 106 150 255 106 150 255 106 150 255 106 150 255 106 150 255 106 150 255 106 150 255 106 150 255 106 150 255 106 150 255 106 150 255 106 150 255 106 150 255 106 150 255 106 150 255 106 150 255 106 150 255 106 150 255 106 150 255 106 150 255 106 150 255 106 150 255 106 150 255 106 150 255 106 150 255 106 150 255 106 150 255 106 150 255 106 150 255 106 150 255 106 150 255 106 150 255 106 150 255 106 150 255 106 150 255 106 150 255 106 150 255 106 150 255 106 150 255 106 150 255 106 150 255 106 150 255 106 150 255 106 150 255 106 150 255 106 150 255 106 150 255 106 150 255 106 150 255 106 150 255 106 150 255 106 150 255 106 150 255 106 150 255 106 150 255 106 150 255 106 150 255 106 150 255 106 150 255 106 150 255 106 150 255 106 150 255 106 150 255 106 150 255 106 150 255 106 150 255 106 150 255 106 150 255 106 150 255 106 150 255 106 150 255 106 150 255 106 150 255 106 150 255 106 150 255 106 150 255 106 150 255 106 150 255 106 150 255 106 150 255 106 150 255 106 150 255 106 150 255 106 150 255 106 150 255 106 150 255 106 150 255 106 150 255 106 150 255 106 150 255 106 150 255 106 150 255 106 150 255 106 150 255 106 150 255 106 150 255 106 150 255 106 150 255 106 150 255 106 150 255 106 150 255 106 150 255 106 150 255 106 150 255 106 150 255 106 150 255 106 150 255 106 150 255 106 150 255 106 150 255 106 150 255 106 150 255 106 150 255 106 150 255 106 150 255 106 150 255 106 150 255 106 150 255 106 150 255 106 150 255 106 150 255 106 150 255 106 150 255 106 150 255 106 150 255 106 150 255 106 150 255 106 150 255 106 150 255 106 150 255 106 150 255 106 150 255 106 150 255 106 150 255 106 150 255 106 150 255 106 150 255 106 150 255 106 150 255 106 150 255 106 150 255 106 150 255 106 150 255 106 150 255 106 150 255 106 150 255 106 150 255 106 150 255 106 150 255 106 150 255 106 150 255 106 150 255 106 150 255 106 150 255 106 150 255 106 150 255 106 150 255 106 150 255 106 150 255 106 150 255 106 150 255 106 150 255 106 150 255 106 150 255 106 150 255 106 150 255 106 150 255 106 150 255 106 150 255 106 150 255 106 150 255 106 150 255 106 150 255 106 150 255 106 150 255 106 150 255 106 150 255 106 150 255 106 150 255 106 150 255 106 150 255 106 150 255 106 150 255 106 150 255 106 150 255 106 150 255 106 150 255 106 150 255 106 150 255 106 150 255 
106 150 255 106 150 255 106 150 255 106 150 255 106 150 255 106 150 255 106 150 255 106 150 255 106 150 255 106 150 255 106 150 255 106 150 255 106 150 255 106 150 255 106 150 255 106 150 255 106 150 255 106 150 255 106 150 255 106 150 255 106 150 255 106 150 255 106 150 255 106 150 255 106 150 255 106 150 255 106 150 255 106 150 255 106 150 255 106 150 255 106 150 255 106 150 255 106 150 255 106 150 255 106 150 255 106 150 255 106 150 255 106 150 255 106 150 255 106 150 255 106 150 255 106 150 255 106 150 255 106 150 255 106 150 255 106 150 255 106 150 255 106 150 255 106 150 255 106 150 255 106 150 255 106 150 255 106 150 255 106 150 255 106 150 255 106 150 255 106 150 255 106 150 255 106 150 255 106 150 255 106 150 255 106 150 255 106 150 255 106 150 255 106 150 255 106 150 255 106 150 255 106 150 255 106 150 255 106 150 255 106 150 255 106 150 255 106 150 255 106 150 255 106 150 255 106 150 255 106 150 255 106 150 255 106 150 255 106 150 255 106 150 255 106 150 255 106 150 255 106 150 255 106 150 255 106 150 255 106 150 255 106 150 255 106 150 255 106 150 255 106 150 255 106 150 255 106 150 255 106 150 255 106 150 255 106 150 255 106 150 255 106 150 255 106 150 255 106 150 255 106 150 255 106 150 255 106 150 255 106 150 255 106 150 255 106 150 255 106 150 255 106 150 255 106 150 255 106 150 255 106 150 255 106 150 255 106 150 255 106 150 255 106 150 255 106 150 255 106 150 255 106 150 255 106 150 255 106 150 255 106 150 255 106 150 255 106 150 255 106 150 255 106 150 255 106 150 255 106 150 255 106 150 255 106 150 255 106 150 255 106 150 255 106 150 255 106 150 255 106 150 255 106 150 255 106 150 255 106 150 255 106 150 255 106 150 255 106 150 255 106 150 255 106 150 255 106 150 255 106 150 255 106 150 255 106 150 255 106 150 255 106 150 255 106 150 255 106 150 255 106 150 255 106 150 255 106 150 255 106 150 255 106 150 255 106 150 255 106 150 255 106 150 255 106 150 255 106 150 255 106 150 255 106 150 255 106 150 255 106 150 255 106 150 255 106 150 255 106 150 255 106 150 255 106 150 255 106 150 255 106 150 255 106 150 255 106 150 255 106 150 255 106 150 255 106 150 255 106 150 255 106 150 255 106 150 255 106 150 255 106 150 255 106 150 255 106 150 255 106 150 255 106 150 255 106 150 255 106 150 255 106 150 255 106 150 255 106 150 255 106 150 255 106 150 255 106 150 255 106 150 255 106 150 255 106 150 255 106 150 255 106 150 255 106 150 255 106 150 255 106 150 255 106 150 255 106 150 255 106 150 255 106 150 255 106 150 255 106 150 255 106 150 255 106 150 255 106 150 255 106 150 255 106 150 255 106 150 255 106 150 255 106 150 255 106 150 255 106 150 255 106 150 255 106 150 255 106 150 255 106 150 255 106 150 255 106 150 255 106 150 255 106 150 255 106 150 255 106 150 255 106 150 255 106 150 255 106 150 255 106 150 255 106 150 255 106 150 255 106 150 255 106 150 255 106 150 255 106 150 255 106 150 255 106 150 255 106 150 255 106 150 255 106 150 255 106 150 255 106 150 255 106 150 255 106 150 255 106 150 255 106 150 255 106 150 255 106 150 255 106 150 255 106 150 255 106 150 255 106 150 255 106 150 255 106 150 255 
